; LightBurn 1.4.00
; GRBL device profile, absolute coords
; Bounds: X135 Y156.34 to X265 Y258.66
G00 G17 G40 G21 G54
G90
M4
; Cut @ 350 mm/min, 100% power
M8
G0 X163.802Y165.432
; Layer C27
G1 X163.781Y165.443S1000F350
G1 X163.741Y165.501
G1 X163.648Y165.647
G1 X163.583Y165.767
G1 X163.524Y165.888
G1 X163.473Y166.012
G1 X163.428Y166.137
G1 X163.389Y166.264
G1 X163.357Y166.392
G1 X163.33Y166.52
G1 X163.309Y166.65
G1 X163.293Y166.78
G1 Y166.911
G1 X163.277Y167.042
G1 Y167.173
G1 Y167.303
G1 X163.288Y167.433
G1 X163.299Y167.563
G1 X163.333Y167.819
G1 X163.38Y168.069
G1 X163.438Y168.313
G1 X163.504Y168.548
G1 X163.578Y168.773
G1 X163.656Y168.986
G1 X163.696Y169.087
G1 X163.752Y169.221
G1 X163.878Y169.241
G1 X163.983Y169.262
G1 X164.09Y169.288
G1 X164.199Y169.318
G1 X164.309Y169.354
G1 X164.42Y169.394
G1 X164.533Y169.438
G1 X164.647Y169.487
G1 X164.763Y169.54
G1 X164.879Y169.597
G1 X164.997Y169.658
G1 X165.235Y169.792
G1 X165.477Y169.939
G1 X165.722Y170.099
G1 X165.97Y170.271
G1 X166.22Y170.453
G1 X166.471Y170.645
G1 X166.723Y170.846
G1 X166.976Y171.053
G1 X167.229Y171.267
G1 X167.481Y171.486
G1 X167.732Y171.708
G1 X167.981Y171.934
G1 X168.473Y172.388
G1 X168.952Y172.84
G1 X169.854Y173.7
G1 X170.065Y173.899
G1 X170.466Y174.271
G1 X170.745Y174.523
G1 X170.939Y174.689
G1 X170.972
G1 X171Y174.709
G1 X171.032Y174.727
G1 X171.068Y174.751
G1 X171.106Y174.78
G1 X171.191Y174.851
G1 X171.284Y174.937
G1 X171.436Y175.089
G1 X171.542Y175.199
G1 X171.957Y175.648
G1 X172.129Y175.83
G1 X172.228Y175.927
G1 X172.266Y175.959
G1 X172.288
G1 X172.328
G1 X172.534Y175.977
G1 X172.706Y175.994
G1 X173.252Y176.059
G1 X173.44Y176.078
G1 X173.63Y176.092
G1 X173.82
G1 X174.009
G1 X174.196
G1 X174.38Y176.059
G1 X174.471Y176.04
G1 X174.561Y176.017
G1 X174.649Y175.989
G1 X174.736Y175.957
G1 X174.822Y175.92
G1 X174.906Y175.878
G1 X174.988Y175.83
G1 X175.068Y175.777
G1 X175.243Y175.204
G1 X175.416Y174.625
G1 X175.587Y174.045
G1 X175.754Y173.47
G1 X176.072Y172.354
G1 X176.616Y170.422
G1 X176.825Y169.695
G1 X176.91Y169.411
G1 X176.981Y169.188
G1 X177.036Y169.031
G1 X177.058Y168.979
G1 Y168.968
G1 X177.322Y168.816
G1 X177.567Y168.662
G1 X177.531Y168.56
G1 X177.497Y168.478
G1 X177.46Y168.399
G1 X177.418Y168.323
G1 X177.374Y168.249
G1 X177.326Y168.177
G1 X177.275Y168.109
G1 X177.163Y167.978
G1 X177.04Y167.857
G1 X176.905Y167.745
G1 X176.761Y167.641
G1 X176.608Y167.546
G1 X176.446Y167.458
G1 X176.276Y167.378
G1 X176.1Y167.304
G1 X175.917Y167.237
G1 X175.73Y167.176
G1 X175.538Y167.12
G1 X175.342Y167.07
G1 X175.144Y167.025
G1 X174.944Y166.984
G1 X174.54Y166.913
G1 X174.139Y166.856
G1 X172.683Y166.685
G1 X172.531Y166.664
G1 X172.435Y166.648
G1 X172.297Y166.601
G1 X172.181Y166.555
G1 X172.07Y166.503
G1 X171.965Y166.446
G1 X171.865Y166.385
G1 X171.77Y166.319
G1 X171.68Y166.249
G1 X171.595Y166.175
G1 X171.515Y166.097
G1 X171.44Y166.014
G1 X171.369Y165.928
G1 X171.303Y165.839
G1 X171.241Y165.746
G1 X171.183Y165.649
G1 X171.129Y165.55
G1 X171.078Y165.448
G1 X171.032Y165.343
G1 X170.989Y165.235
G1 X170.95Y165.125
G1 X170.881Y164.898
G1 X170.824Y164.663
G1 X170.778Y164.422
G1 X170.743Y164.175
G1 X170.716Y163.925
G1 X170.698Y163.671
G1 X170.214Y163.745
G1 X169.743Y163.823
G1 X169.282Y163.907
G1 X168.83Y163.995
G1 X168.387Y164.088
G1 X167.949Y164.186
G1 X167.517Y164.29
G1 X167.088Y164.399
G1 X166.661Y164.515
G1 X166.234Y164.636
G1 X165.806Y164.764
G1 X165.376Y164.898
G1 X164.942Y165.039
G1 X164.503Y165.187
G1 X164.281Y165.263
G1 X163.802Y165.432
G1 X163.781Y165.443
G1 X163.741Y165.501
G1 X163.696Y165.581
G0 X159.795Y170.709
G1 X159.687Y170.676
G1 X159.574Y170.644
G1 X159.455Y170.614
G1 X159.329Y170.584
G1 X159.057Y170.526
G1 X158.981
G1 X158.901Y170.553
G1 X158.74Y170.599
G1 X158.575Y170.65
G1 X158.408Y170.706
G1 X158.237Y170.766
G1 X158.064Y170.83
G1 X157.532Y171.032
G1 X157.169Y171.169
G1 X156.802Y171.299
G1 X156.432Y171.417
G1 X156.248Y171.469
G1 X156.063Y171.515
G1 X155.879Y171.554
G1 X155.696Y171.587
G1 X155.513Y171.611
G1 X155.332Y171.626
G1 X155.153
G1 X154.975
G1 X154.799Y171.609
G1 X154.626Y171.581
G1 X154.455Y171.539
G1 X154.287Y171.483
G1 X154.204Y171.449
G1 X154.122Y171.412
G1 X154.041Y171.371
G1 X153.961Y171.326
G1 X153.881Y171.277
G1 X153.803Y171.224
G1 X153.725Y171.166
G1 X153.649Y171.104
G1 X153.611Y171.071
G1 X153.508Y170.975
G1 X153.016Y171.35
G1 X152.581Y171.692
G1 X152.151Y172.041
G1 X151.727Y172.395
G1 X151.307Y172.755
G1 X150.892Y173.121
G1 X150.483Y173.493
G1 X150.079Y173.87
G1 X149.68Y174.253
G1 X149.287Y174.642
G1 X148.899Y175.036
G1 X148.517Y175.435
G1 X148.14Y175.84
G1 X147.769Y176.25
G1 X147.404Y176.666
G1 X147.044Y177.086
G1 X146.69Y177.512
G1 X146.342Y177.943
G1 X146.001Y178.379
G1 X145.665Y178.819
G1 X145.335Y179.265
G1 X145.011Y179.716
G1 X144.694Y180.171
G1 X144.383Y180.631
G1 X144.078Y181.095
G1 X143.78Y181.564
G1 X143.489Y182.038
G1 X143.203Y182.515
G1 X142.925Y182.998
G1 X142.653Y183.484
G1 X142.388Y183.975
G1 X142.13Y184.47
G1 X141.878Y184.97
G1 X141.634Y185.473
G1 X141.396Y185.98
G1 X141.166Y186.491
G1 X140.943Y187.006
G1 X140.727Y187.525
G1 X140.518Y188.047
G1 X140.316Y188.573
G1 X140.122Y189.103
G1 X139.936Y189.637
G1 X139.757Y190.173
G1 X139.585Y190.714
G1 X139.421Y191.257
G1 X139.265Y191.804
G1 X139.117Y192.354
G1 X138.976Y192.907
G1 X138.844Y193.464
G1 X138.719Y194.023
G1 X138.603Y194.586
G1 X138.494Y195.151
G1 X138.394Y195.719
G1 X138.302Y196.29
G1 X138.218Y196.864
G1 X138.143Y197.44
G1 X138.076Y198.019
G1 X138.017Y198.6
G1 X137.967Y199.184
G1 X137.926Y199.771
G1 X137.893Y200.359
G1 X137.87Y200.95
G1 Y201.247
G1 X137.855Y201.544
G1 Y202.077
G1 Y202.566
G1 Y203.053
G1 X137.869Y203.54
G1 X137.888Y204.025
G1 X137.913Y204.508
G1 X137.943Y204.99
G1 X137.98Y205.47
G1 X138.022Y205.949
G1 X138.07Y206.426
G1 X138.124Y206.902
G1 X138.183Y207.376
G1 X138.249Y207.848
G1 X138.319Y208.318
G1 X138.396Y208.787
G1 X138.478Y209.253
G1 X138.565Y209.718
G1 X138.658Y210.181
G1 X138.757Y210.642
G1 X138.861Y211.101
G1 X138.97Y211.558
G1 X139.085Y212.013
G1 X139.205Y212.466
G1 X139.33Y212.917
G1 X139.46Y213.365
G1 X139.596Y213.812
G1 X139.737Y214.256
G1 X139.883Y214.698
G1 X140.034Y215.137
G1 X140.19Y215.575
G1 X140.352Y216.01
G1 X140.518Y216.442
G1 X140.689Y216.872
G1 X140.865Y217.3
G1 X141.046Y217.725
G1 X141.232Y218.147
G1 X141.423Y218.567
G1 X141.618Y218.984
G1 X141.819Y219.399
G1 X142.024Y219.811
G1 X142.233Y220.22
G1 X142.448Y220.626
G1 X142.667Y221.03
G1 X142.89Y221.431
G1 X143.118Y221.829
G1 X143.351Y222.224
G1 X143.588Y222.616
G1 X143.829Y223.005
G1 X144.075Y223.391
G1 X144.326Y223.773
G1 X144.58Y224.153
G1 X144.839Y224.53
G1 X145.102Y224.903
G1 X145.37Y225.274
G1 X145.641Y225.641
G1 X145.917Y226.005
G1 X146.197Y226.365
G1 X146.481Y226.722
G1 X146.769Y227.076
G1 X147.061Y227.426
G1 X147.357Y227.773
G1 X147.657Y228.116
G1 X147.96Y228.456
G1 X148.25Y228.773
G1 X148.333
G1 X148.423Y228.761
G1 X148.513Y228.745
G1 X148.605Y228.723
G1 X148.698Y228.695
G1 X148.792Y228.66
G1 X148.887Y228.62
G1 X148.984Y228.574
G1 X149.081Y228.523
G1 X149.178Y228.466
G1 X149.277Y228.404
G1 X149.376Y228.338
G1 X149.476Y228.266
G1 X149.577Y228.19
G1 X149.678Y228.109
G1 X149.779Y228.024
G1 X149.983Y227.842
G1 X150.189Y227.645
G1 X150.395Y227.434
G1 X150.601Y227.211
G1 X150.806Y226.978
G1 X151.011Y226.734
G1 X151.215Y226.483
G1 X151.417Y226.226
G1 X151.616Y225.963
G1 X151.812Y225.696
G1 X152.006Y225.427
G1 X152.195Y225.157
G1 X152.38Y224.887
G1 X152.56Y224.619
G1 X152.736Y224.355
G1 X152.905Y224.094
G1 X153.224Y223.594
G1 X153.514Y223.129
G1 X153.941Y222.433
G1 X153.987Y222.342
G1 X154.493Y221.149
G1 X154.661Y220.762
G1 X154.793Y220.471
G1 X154.851Y220.351
G1 X154.905Y220.242
G1 X154.959Y220.141
G1 X155.069Y219.945
G1 X155.254Y219.636
G1 X155.415
G1 X155.75Y219.625
G1 X156.08Y219.603
G1 X156.404Y219.568
G1 X156.724Y219.522
G1 X157.038Y219.464
G1 X157.349Y219.394
G1 X157.655Y219.315
G1 X157.957Y219.225
G1 X158.256Y219.126
G1 X158.552Y219.017
G1 X158.845Y218.9
G1 X159.136Y218.775
G1 X159.424Y218.643
G1 X159.71Y218.503
G1 X159.995Y218.356
G1 X160.278Y218.204
G1 X160.56Y218.046
G1 X160.842Y217.883
G1 X161.123Y217.715
G1 X161.404Y217.543
G1 X161.966Y217.188
G1 X162.531Y216.823
G1 X163.68Y216.077
G1 X163.973Y215.89
G1 X164.268Y215.704
G1 X164.642Y215.473
G1 X164.667Y215.463
G1 X165.313Y215.365
G1 X165.857Y215.29
G1 X166.128Y215.256
G1 X166.4Y215.225
G1 X166.673Y215.198
G1 X166.951Y215.174
G1 X167.232Y215.154
G1 X167.52Y215.138
G1 X167.814Y215.127
G1 X168.117
G1 X168.43
G1 X168.754
G1 X168.92
G1 X169.262Y215.141
G1 Y215.107
G1 Y215.068
G1 X169.203Y214.915
G1 X169.137Y214.762
G1 X169.057Y214.61
G1 X168.968Y214.456
G1 X168.566Y213.818
G1 X168.469Y213.648
G1 X168.377Y213.473
G1 X168.295Y213.291
G1 X168.225Y213.102
G1 X168.195Y213.004
G1 X168.169Y212.904
G1 X168.148Y212.802
G1 X168.131Y212.698
G1 X168.119Y212.591
G1 Y212.482
G1 Y212.388
G1 X168.223Y212.284
G1 X168.306Y212.218
G1 X168.353Y212.186
G1 X168.407Y212.153
G1 X168.471Y212.119
G1 X168.546Y212.083
G1 X168.74Y211.996
G1 X169.007Y211.884
G1 X169.659Y211.62
G1 Y211.433
G1 X169.596
G1 X169.309Y211.468
G1 X169.128Y211.494
G1 X168.955Y211.525
G1 X168.789Y211.56
G1 X168.63Y211.6
G1 X168.477Y211.644
G1 X168.329Y211.693
G1 X168.187Y211.747
G1 X168.049Y211.805
G1 X167.914Y211.868
G1 X167.782Y211.935
G1 X167.653Y212.006
G1 X167.526Y212.083
G1 X167.399Y212.163
G1 X167.274Y212.248
G1 Y212.319
G1 Y212.394
G1 X167.288Y212.468
G1 X167.306Y212.543
G1 X167.329Y212.617
G1 X167.356Y212.692
G1 X167.422Y212.843
G1 X167.502Y212.994
G1 X167.592Y213.145
G1 X167.69Y213.298
G1 X168.004Y213.763
G1 X168.106Y213.92
G1 X168.201Y214.079
G1 X168.287Y214.24
G1 X168.362Y214.402
G1 X168.421Y214.566
G1 X168.445Y214.649
G1 X168.461Y214.722
G1 X167.665
G1 X167.164
G1 X166.676Y214.734
G1 X166.199Y214.756
G1 X165.732Y214.789
G1 X165.271Y214.836
G1 X165.044Y214.865
G1 X164.817Y214.898
G1 X164.647Y214.926
G1 X164.615Y214.938
G1 X164.431Y215.047
G1 X163.999Y215.31
G1 X163.718Y215.486
G1 X163.442Y215.662
G1 X163.17Y215.839
G1 X162.631Y216.197
G1 X161.266Y217.118
G1 X160.689Y217.5
G1 X160.178Y217.831
G1 X159.648Y218.088
G1 X159.332Y218.233
G1 X159.028Y218.368
G1 X158.733Y218.492
G1 X158.447Y218.606
G1 X158.169Y218.711
G1 X157.898Y218.806
G1 X157.634Y218.892
G1 X157.376Y218.969
G1 X157.122Y219.038
G1 X156.873Y219.099
G1 X156.627Y219.152
G1 X156.383Y219.197
G1 X156.141Y219.235
G1 X155.899Y219.267
G1 X155.658Y219.291
G1 X155.416Y219.31
G1 X155.173Y219.323
G1 X154.927
G1 X154.678
G1 X154.424
G1 X154.167
G1 X153.903Y219.308
G1 X153.633Y219.292
G1 X153.356Y219.272
G1 X153.07Y219.249
G1 X152.472Y219.193
G1 X151.451Y219.087
G1 X151.403Y219.075
G1 X150.672Y218.814
G1 X150.254Y218.659
G1 X149.837Y218.499
G1 X149.422Y218.332
G1 X149.011Y218.16
G1 X148.603Y217.98
G1 X148.202Y217.793
G1 X147.807Y217.598
G1 X147.42Y217.395
G1 X147.043Y217.183
G1 X146.675Y216.962
G1 X146.319Y216.73
G1 X146.146Y216.611
G1 X145.975Y216.489
G1 X145.809Y216.364
G1 X145.645Y216.236
G1 X145.486Y216.106
G1 X145.33Y215.972
G1 X145.178Y215.836
G1 X145.031Y215.697
G1 X144.887Y215.554
G1 X144.748Y215.409
G1 X144.614Y215.26
G1 X144.484Y215.108
G1 X144.36Y214.952
G1 X144.24Y214.794
G1 X144.125Y214.631
G1 X144.016Y214.466
G1 X143.912Y214.296
G1 X143.813Y214.123
G1 X143.72Y213.946
G1 X143.633Y213.766
G1 X143.553Y213.581
G1 X143.478Y213.393
G1 X143.409Y213.201
G1 X143.347Y213.005
G1 X143.292Y212.804
G1 X143.243Y212.6
G1 X143.201Y212.391
G1 X143.166Y212.178
G1 X143.138Y211.961
G1 X143.117Y211.739
G1 X143.104Y211.513
G1 Y211.282
G1 Y211.047
G1 Y210.807
G1 X143.129Y210.563
G1 X143.155Y210.313
G1 X143.221Y209.823
G1 X143.175Y209.756
G1 X143.052Y209.568
G1 X142.98Y209.451
G1 X142.915Y209.339
G1 X142.858Y209.233
G1 X142.807Y209.131
G1 X142.763Y209.034
G1 X142.725Y208.94
G1 X142.693Y208.849
G1 X142.667Y208.76
G1 X142.645Y208.674
G1 X142.628Y208.588
G1 X142.616Y208.503
G1 Y208.418
G1 X142.603Y208.333
G1 Y208.158
G1 X142.613Y207.974
G1 X142.701Y207.059
G1 X142.72Y206.761
G1 Y206.599
G1 X142.734Y206.315
G1 Y206.291
G1 X142.631Y206.142
G1 X142.569Y206.042
G1 X142.451Y205.838
G1 X142.343Y205.632
G1 X142.244Y205.423
G1 X142.153Y205.211
G1 X142.072Y204.997
G1 X141.999Y204.781
G1 X141.935Y204.562
G1 X141.879Y204.342
G1 X141.831Y204.119
G1 X141.792Y203.895
G1 X141.761Y203.67
G1 X141.738Y203.443
G1 X141.723Y203.215
G1 Y202.985
G1 Y202.755
G1 Y202.524
G1 X141.74Y202.292
G1 X141.763Y202.06
G1 X141.794Y201.828
G1 X141.831Y201.595
G1 X141.876Y201.362
G1 X141.928Y201.13
G1 X141.986Y200.898
G1 X142.051Y200.666
G1 X142.123Y200.435
G1 X142.202Y200.204
G1 X142.286Y199.974
G1 X142.378Y199.746
G1 X142.475Y199.518
G1 X142.578Y199.292
G1 X142.631Y199.185
G1 X142.864Y198.931
G1 X143.113Y198.669
G1 X143.301Y198.479
G1 X143.505Y198.283
G1 X143.613Y198.184
G1 X143.837Y197.988
G1 X144.074Y197.797
G1 X144.196Y197.705
G1 X144.321Y197.617
G1 X144.447Y197.532
G1 X144.576Y197.452
G1 X144.706Y197.376
G1 X144.838Y197.307
G1 X144.972Y197.243
G1 X145.106Y197.187
G1 X145.242Y197.138
G1 X145.378Y197.096
G1 X145.515Y197.064
G1 X145.652Y197.04
G1 X145.789Y197.027
G1 X145.926
G1 X146.063
G1 X146.199Y197.051
G1 X146.231
G1 X146.172Y197.193
G1 X146.066Y197.447
G1 X145.992Y197.639
G1 X145.926Y197.821
G1 X145.867Y197.996
G1 X145.816Y198.164
G1 X145.77Y198.329
G1 X145.73Y198.49
G1 X145.695Y198.649
G1 X145.663Y198.809
G1 X145.634Y198.97
G1 X145.608Y199.134
G1 X145.583Y199.303
G1 X145.508Y199.85
G1 X145.787Y200.136
G1 X146.008Y200.202
G1 X146.19Y200.266
G1 X146.374Y200.339
G1 X146.56Y200.421
G1 X146.747Y200.512
G1 X146.935Y200.611
G1 X147.123Y200.717
G1 X147.313Y200.831
G1 X147.502Y200.951
G1 X147.691Y201.078
G1 X147.879Y201.211
G1 X148.067Y201.35
G1 X148.253Y201.493
G1 X148.437Y201.641
G1 X148.619Y201.793
G1 X148.799Y201.95
G1 X148.977Y202.109
G1 X149.151Y202.272
G1 X149.322Y202.437
G1 X149.489Y202.604
G1 X149.653Y202.772
G1 X149.811Y202.942
G1 X149.966Y203.113
G1 X150.115Y203.284
G1 X150.258Y203.455
G1 X150.396Y203.626
G1 X150.528Y203.796
G1 X150.653Y203.964
G1 X150.772Y204.131
G1 X150.883Y204.295
G1 X151.042Y204.543
G1 X151.136Y204.587
G1 X151.183Y204.601
G1 X151.225
G1 X151.277Y204.565
G1 X151.418Y204.445
G1 X151.836Y204.077
G1 X152.124Y203.831
G1 X152.276Y203.71
G1 X152.433Y203.592
G1 X152.599Y203.476
G1 X152.775Y203.364
G1 X152.961Y203.256
G1 X153.159Y203.154
G1 X153.263Y203.105
G1 X153.371Y203.058
G1 X153.482Y203.012
G1 X153.598Y202.968
G1 X153.717Y202.926
G1 X153.841Y202.885
G1 X153.97Y202.847
G1 X154.008Y202.812
G1 X154.041Y202.771
G1 X154.071Y202.725
G1 X154.1Y202.676
G1 X154.126Y202.622
G1 X154.15Y202.564
G1 X154.172Y202.503
G1 X154.192Y202.438
G1 X154.21Y202.37
G1 X154.227Y202.298
G1 X154.253Y202.145
G1 X154.273Y201.98
G1 X154.286Y201.804
G1 Y201.618
G1 Y201.423
G1 Y201.22
G1 Y201.01
G1 X154.261Y200.794
G1 X154.24Y200.573
G1 X154.216Y200.348
G1 X154.188Y200.119
G1 X154.156Y199.889
G1 X154.083Y199.427
G1 X154.001Y198.968
G1 X153.957Y198.742
G1 X153.912Y198.521
G1 X153.819Y198.094
G1 X153.725Y197.694
G1 X153.634Y197.33
G1 X153.514Y196.881
G1 Y196.803
G1 X153.538Y196.716
G1 X153.58Y196.547
G1 X153.593
G1 X153.689
G1 X153.84Y196.561
G1 X153.99Y196.58
G1 X154.137Y196.606
G1 X154.284Y196.637
G1 X154.429Y196.672
G1 X154.573Y196.71
G1 X155.146Y196.877
G1 X155.433Y196.955
G1 X155.724Y197.018
G1 X155.797Y197.031
G1 X155.894Y197.045
G1 Y197.034
G1 X156.068Y196.215
G1 X156.179Y195.71
G1 X156.294Y195.206
G1 X156.415Y194.702
G1 X156.542Y194.199
G1 X156.675Y193.697
G1 X156.815Y193.196
G1 X156.962Y192.697
G1 X157.115Y192.201
G1 X157.277Y191.706
G1 X157.447Y191.213
G1 X157.625Y190.724
G1 X157.812Y190.237
G1 X158.008Y189.754
G1 X158.214Y189.274
G1 X158.43Y188.799
G1 X158.656Y188.327
G1 X158.893Y187.86
G1 X159.14Y187.398
G1 X159.4Y186.94
G1 X159.671Y186.488
G1 X159.954Y186.042
G1 X160.25Y185.601
G1 X160.558Y185.167
G1 X160.88Y184.739
G1 X161.046Y184.527
G1 X161.216Y184.318
G1 X161.389Y184.109
G1 X161.566Y183.903
G1 X161.746Y183.699
G1 X161.93Y183.496
G1 X162.117Y183.295
G1 X162.309Y183.097
G1 X162.504Y182.9
G1 X162.703Y182.705
G1 X162.905Y182.512
G1 X163.162Y182.276
G1 X163.468Y181.831
G1 X164.154Y180.851
G1 X164.183Y180.796
G1 Y180.676
G1 Y180.557
G1 X164.161Y180.437
G1 X164.143Y180.316
G1 X164.121Y180.195
G1 X164.095Y180.074
G1 X164.032Y179.83
G1 X163.956Y179.585
G1 X163.869Y179.338
G1 X163.775Y179.089
G1 X163.372Y178.079
G1 X163.277Y177.823
G1 X163.19Y177.565
G1 X163.112Y177.306
G1 X163.048Y177.046
G1 X163.009Y176.85
G1 X162.997Y176.816
G1 X162.895Y176.65
G1 X162.818Y176.519
G1 X162.674Y176.262
G1 X162.544Y176.011
G1 X162.427Y175.763
G1 X162.322Y175.518
G1 X162.228Y175.272
G1 X162.145Y175.024
G1 X162.071Y174.773
G1 X162.006Y174.517
G1 X161.949Y174.254
G1 X161.9Y173.983
G1 X161.857Y173.701
G1 X161.819Y173.406
G1 X161.802Y173.254
G1 X161.771Y172.938
G1 X161.74Y172.563
G1 Y172.524
G1 X161.604Y172.338
G1 X161.373Y172.005
G1 X161.232Y171.809
G1 X161.097Y171.632
G1 X161.031Y171.551
G1 X160.966Y171.474
G1 X160.835Y171.332
G1 X160.702Y171.204
G1 X160.563Y171.091
G1 X160.416Y170.99
G1 X160.339Y170.943
G1 X160.258Y170.899
G1 X160.174Y170.857
G1 X160.086Y170.817
G1 X159.994Y170.78
G1 X159.897Y170.744
G1 X159.795Y170.709
G1 X159.687Y170.676
G1 X159.615Y170.656
G0 X170.597Y182.427
G1 X169.926Y182.729
G1 X169.562Y182.895
G1 X169.187Y183.07
G1 X168.805Y183.254
G1 X168.421Y183.446
G1 X168.039Y183.647
G1 X167.666Y183.854
G1 X167.483Y183.96
G1 X167.304Y184.067
G1 X167.13Y184.176
G1 X166.961Y184.287
G1 X166.797Y184.399
G1 X166.64Y184.512
G1 X166.489Y184.626
G1 X166.346Y184.742
G1 X166.211Y184.859
G1 X166.084Y184.976
G1 X165.967Y185.095
G1 X165.86Y185.214
G1 X165.763Y185.334
G1 X165.678Y185.455
G1 X165.639Y185.516
G1 X165.604Y185.576
G1 X165.571Y185.637
G1 X165.617
G1 X165.659
G1 X165.706Y185.619
G1 X165.871Y185.572
G1 X166.003Y185.537
G1 X166.076Y185.521
G1 X166.154Y185.507
G1 X166.236Y185.495
G1 X166.323
G1 X166.415Y185.483
G1 X166.511
G1 X166.562
G1 X166.666Y185.496
G1 Y185.526
G1 Y185.55
G1 X166.691Y185.598
G1 X166.73Y185.685
G1 X166.655Y185.805
G1 X166.577Y185.92
G1 X166.539Y185.972
G1 X166.499Y186.022
G1 X166.455Y186.072
G1 X166.405Y186.125
G1 X166.348Y186.181
G1 X166.205Y186.312
G1 X166.012Y186.479
G1 X165.597Y186.829
G1 X165.519Y186.97
G1 X165.439Y187.119
G1 X165.275Y187.412
G1 X165.106Y187.698
G1 X164.932Y187.978
G1 X164.757Y188.251
G1 X164.066Y189.292
G1 X163.905Y189.541
G1 X163.753Y189.787
G1 X163.61Y190.029
G1 X163.479Y190.268
G1 X163.361Y190.505
G1 X163.258Y190.739
G1 X163.235Y190.798
G1 X163.187Y190.929
G1 X163.236Y190.918
G1 X163.272Y190.905
G1 X163.337Y190.875
G1 X163.398Y190.838
G1 X163.455Y190.796
G1 X163.63Y190.653
G1 X163.695Y190.604
G1 X163.767Y190.557
G1 X163.847Y190.513
G1 X163.938Y190.473
G1 X163.988Y190.455
G1 X164.041Y190.438
G1 X164.098Y190.424
G1 X164.158Y190.411
G1 X164.223Y190.4
G1 X164.292
G1 X164.365Y190.385
G1 X164.443
G1 X164.526
G1 X164.541
G1 Y190.438
G1 Y190.468
G1 X164.558Y190.497
G1 Y190.523
G1 X164.601Y190.601
G1 X164.364Y191.064
G1 X164.041Y191.698
G1 X163.824Y192.137
G1 X163.61Y192.586
G1 X163.402Y193.043
G1 X163.204Y193.505
G1 X163.021Y193.97
G1 X162.935Y194.204
G1 X162.855Y194.437
G1 X162.78Y194.67
G1 X162.71Y194.902
G1 X162.647Y195.134
G1 X162.591Y195.364
G1 X162.542Y195.594
G1 X162.5Y195.821
G1 X162.467Y196.047
G1 X162.442Y196.27
G1 X162.427Y196.491
G1 Y196.709
G1 Y196.924
G1 X162.439Y197.136
G1 X162.464Y197.344
G1 X162.501Y197.548
G1 X162.511Y197.595
G1 X162.7
G1 X163.225Y196.707
G1 X163.663Y195.978
G1 X164.071Y195.308
G1 X164.446Y194.697
G1 X165.103Y193.64
G1 X165.63Y192.785
G1 X165.845Y192.427
G1 X166.027Y192.113
G1 X166.105Y191.971
G1 X166.175Y191.839
G1 X166.237Y191.717
G1 X166.29Y191.604
G1 X166.334Y191.5
G1 X166.37Y191.405
G1 X166.398Y191.318
G1 X166.416Y191.239
G1 X166.426Y191.168
G1 Y191.104
G1 Y191.075
G1 Y191.035
G1 X166.413
G1 X166.368Y191.055
G1 X166.19Y191.131
G1 X165.893Y191.242
G1 X165.879
G1 X165.799Y191.183
G1 X165.728Y191.119
G1 X165.602Y190.992
G1 X165.615Y190.969
G1 X165.862Y190.571
G1 X166.2Y190.038
G1 X166.448Y189.657
G1 X166.712Y189.262
G1 X166.991Y188.857
G1 X167.283Y188.447
G1 X167.587Y188.037
G1 X167.9Y187.632
G1 X168.06Y187.433
G1 X168.222Y187.237
G1 X168.386Y187.044
G1 X168.55Y186.856
G1 X168.717Y186.672
G1 X168.884Y186.494
G1 X169.052Y186.322
G1 X169.221Y186.156
G1 X169.39Y185.998
G1 X169.56Y185.847
G1 X169.73Y185.706
G1 X169.899Y185.573
G1 X170.208Y185.349
G1 X170.133
G1 X170.06
G1 X169.923Y185.364
G1 X169.796Y185.382
G1 X169.679Y185.405
G1 X169.569Y185.433
G1 X169.465Y185.465
G1 X169.367Y185.499
G1 X169.182Y185.568
G1 X169.003Y185.632
G1 X168.913Y185.659
G1 X168.82Y185.681
G1 X168.725Y185.697
G1 X168.624
G1 X168.559Y185.708
G1 X168.547Y185.673
G1 Y185.609
G1 X168.565Y185.54
G1 X168.589Y185.466
G1 X168.623Y185.386
G1 X168.665Y185.302
G1 X168.715Y185.213
G1 X168.772Y185.12
G1 X168.837Y185.023
G1 X168.907Y184.923
G1 X168.984Y184.82
G1 X169.151Y184.604
G1 X169.333Y184.379
G1 X169.725Y183.91
G1 X170.119Y183.432
G1 X170.306Y183.196
G1 X170.479Y182.964
G1 X170.559Y182.851
G1 X170.633Y182.74
G1 X170.702Y182.632
G1 X170.764Y182.526
G1 X170.816Y182.43
G1 X170.597
G1 X170.323Y182.55
G0 X186.41Y177.892
G1 X186.462Y177.968
G1 X186.516Y178.037
G1 X186.572Y178.1
G1 X186.629Y178.156
G1 X186.687Y178.206
G1 X186.747Y178.247
G1 X186.807Y178.282
G1 X186.87Y178.308
G1 X186.933Y178.325
G1 X186.997
G1 X187.063
G1 X187.129
G1 X187.196Y178.306
G1 X187.265Y178.278
G1 X187.334Y178.238
G1 X187.404Y178.189
G1 X187.474Y178.128
G1 X187.546Y178.056
G1 X187.591Y178.005
G1 X187.479Y177.355
G1 X187.419Y177.038
G1 X187.349Y176.694
G1 X187.27Y176.331
G1 X187.182Y175.959
G1 X187.085Y175.586
G1 X186.98Y175.22
G1 X186.924Y175.043
G1 X186.865Y174.871
G1 X186.805Y174.705
G1 X186.743Y174.547
G1 X186.678Y174.397
G1 X186.612Y174.256
G1 X186.543Y174.126
G1 X186.472Y174.008
G1 X186.4Y173.902
G1 X186.325Y173.81
G1 X186.287Y173.77
G1 X186.248Y173.734
G1 X186.209Y173.701
G1 X186.17Y173.673
G1 X186.118Y173.722
G1 X186.07Y173.778
G1 X186.025Y173.84
G1 X185.984Y173.909
G1 X185.946Y173.985
G1 X185.912Y174.065
G1 X185.881Y174.152
G1 X185.854Y174.243
G1 X185.83Y174.339
G1 X185.808Y174.44
G1 X185.791Y174.545
G1 X185.776Y174.653
G1 X185.764Y174.765
G1 Y174.88
G1 X185.75Y174.998
G1 Y175.118
G1 Y175.365
G1 X185.763Y175.617
G1 X185.787Y175.873
G1 X185.822Y176.13
G1 X185.866Y176.384
G1 X185.919Y176.635
G1 X185.981Y176.877
G1 X186.052Y177.111
G1 X186.09Y177.223
G1 X186.13Y177.331
G1 X186.172Y177.436
G1 X186.216Y177.537
G1 X186.262Y177.633
G1 X186.31Y177.725
G1 X186.359Y177.811
G1 X186.41Y177.892
G1 X186.462Y177.968
G1 X186.516Y178.037
G1 X186.427Y177.915
G0 X190.997Y178.025
G1 Y178.306
G1 X190.978Y178.831
G1 X190.961Y179.295
G1 X190.932Y179.971
G1 Y180.149
G1 X191.115
G1 X191.268Y179.337
G1 X191.368Y178.791
G1 X191.563Y177.69
G1 X191.75Y176.576
G1 X191.841Y176.013
G1 X191.929Y175.447
G1 X192.014Y174.876
G1 X192.098Y174.301
G1 X192.178Y173.722
G1 X192.256Y173.138
G1 X192.331Y172.549
G1 X192.403Y171.955
G1 X192.473Y171.355
G1 X191.953Y171.264
G1 X191.721Y171.228
G1 X191.499Y171.201
G1 X191.256Y171.178
G1 X190.96Y171.157
G1 X190.091Y171.107
G1 X189.749Y171.165
G1 X189.416Y171.224
G1 X189.092Y171.286
G1 X188.776Y171.351
G1 X188.467Y171.419
G1 X188.163Y171.491
G1 X187.865Y171.566
G1 X187.572Y171.645
G1 X187.282Y171.729
G1 X186.995Y171.817
G1 X186.71Y171.911
G1 X186.426Y172.01
G1 X186.143Y172.115
G1 X185.859Y172.226
G1 X185.717Y172.284
G1 X185.431Y172.405
G1 Y172.633
G1 Y172.76
G1 Y172.811
G1 X185.442Y172.855
G1 Y172.895
G1 X185.461Y172.933
G1 X185.475Y172.971
G1 X185.513Y173.051
G1 X185.641Y173.289
G1 X187.349
G1 X188.138Y173.278
G1 X188.715
G1 X189.138Y173.29
G1 X189.39Y173.302
G1 X189.613Y173.317
G1 X189.758Y173.33
G1 X190.158Y173.374
G1 X190.215Y173.397
G1 X190.268Y173.428
G1 X190.32Y173.467
G1 X190.369Y173.514
G1 X190.416Y173.568
G1 X190.46Y173.629
G1 X190.502Y173.697
G1 X190.543Y173.772
G1 X190.581Y173.853
G1 X190.617Y173.94
G1 X190.651Y174.032
G1 X190.683Y174.13
G1 X190.713Y174.234
G1 X190.741Y174.342
G1 X190.768Y174.455
G1 X190.793Y174.573
G1 X190.816Y174.694
G1 X190.837Y174.82
G1 X190.876Y175.081
G1 X190.908Y175.355
G1 X190.935Y175.639
G1 X190.956Y175.932
G1 X190.973Y176.23
G1 X190.986Y176.532
G1 Y176.836
G1 X190.999Y177.139
G1 Y177.44
G1 Y177.736
G1 Y178.025
G1 Y178.306
G1 Y178.045
G0 X194.186Y178.044
G1 X194.147Y178.455
G1 X195.53Y177.294
G1 X196.041Y176.87
G1 X196.555Y176.45
G1 X197.075Y176.036
G1 X197.602Y175.629
G1 X198.139Y175.23
G1 X198.411Y175.034
G1 X198.686Y174.84
G1 X198.964Y174.65
G1 X199.246Y174.462
G1 X199.532Y174.277
G1 X199.821Y174.096
G1 X200.114Y173.918
G1 X200.412Y173.744
G1 X200.714Y173.573
G1 X201.021Y173.407
G1 X201.334Y173.244
G1 X201.651Y173.086
G1 X201.974Y172.932
G1 X202.303Y172.783
G1 X202.469Y172.71
G1 X202.722Y172.603
G1 X202.793Y172.57
G1 X202.831Y172.542
G1 X203.029Y172.409
G1 X203.195Y172.306
G1 X203.368Y172.208
G1 X203.548Y172.114
G1 X203.733Y172.023
G1 X203.925Y171.936
G1 X204.121Y171.852
G1 X204.323Y171.772
G1 X204.529Y171.694
G1 X204.739Y171.619
G1 X204.953Y171.546
G1 X205.17Y171.475
G1 X205.613Y171.34
G1 X206.065Y171.211
G1 X206.523Y171.087
G1 X207.899Y170.725
G1 X208.348Y170.603
G1 X208.787Y170.476
G1 X209.002Y170.411
G1 X209.266Y170.328
G1 X209.278
G1 X209.365Y170.231
G1 X209.458Y170.123
G1 X209.536Y170.019
G1 X209.6Y169.918
G1 X209.65Y169.819
G1 X209.686Y169.724
G1 X209.71Y169.632
G1 X209.722Y169.543
G1 Y169.457
G1 X209.712Y169.374
G1 X209.691Y169.293
G1 X209.661Y169.216
G1 X209.621Y169.141
G1 X209.573Y169.07
G1 X209.517Y169.001
G1 X209.453Y168.935
G1 X209.383Y168.872
G1 X209.306Y168.811
G1 X209.224Y168.754
G1 X209.137Y168.699
G1 X209.045Y168.646
G1 X208.95Y168.597
G1 X208.851Y168.55
G1 X208.645Y168.463
G1 X208.434Y168.387
G1 X208.221Y168.321
G1 X208.011Y168.265
G1 X207.706Y168.344
G1 X207.404Y168.43
G1 X207.105Y168.521
G1 X206.809Y168.619
G1 X206.516Y168.721
G1 X206.225Y168.829
G1 X205.937Y168.942
G1 X205.651Y169.06
G1 X205.368Y169.181
G1 X205.087Y169.307
G1 X204.809Y169.437
G1 X204.533Y169.57
G1 X203.988Y169.846
G1 X203.452Y170.133
G1 X202.924Y170.429
G1 X202.405Y170.731
G1 X201.893Y171.037
G1 X201.389Y171.344
G1 X199.795Y172.332
G1 X199.685Y172.408
G1 X199.515Y172.573
G1 X199.172Y172.894
G1 X198.826Y173.206
G1 X198.478Y173.509
G1 X198.129Y173.804
G1 X197.779Y174.093
G1 X197.429Y174.376
G1 X197.081Y174.654
G1 X196.046Y175.471
G1 X195.373Y176.01
G1 X195.044Y176.281
G1 X194.721Y176.555
G1 X194.483Y176.762
G1 X194.448Y176.794
G1 X194.334Y177.233
G1 X194.284Y177.439
G1 X194.247Y177.612
G1 X194.22Y177.774
G1 X194.208Y177.858
G1 X194.186Y178.044
G1 X194.158Y178.343
G0 X196.355Y179.16
G1 X195.982Y179.472
G1 X195.619Y179.786
G1 X195.269Y180.104
G1 X194.932Y180.425
G1 X194.768Y180.586
G1 X194.608Y180.748
G1 X194.453Y180.91
G1 X194.301Y181.073
G1 X194.153Y181.237
G1 X194.01Y181.401
G1 X193.871Y181.565
G1 X193.736Y181.73
G1 X193.607Y181.895
G1 X193.482Y182.06
G1 X193.362Y182.226
G1 X193.248Y182.392
G1 X193.138Y182.558
G1 X193.034Y182.725
G1 X192.936Y182.891
G1 X192.843Y183.058
G1 X192.778Y183.183
G1 X193.811Y183.166
G1 X194.16
G1 X194.499
G1 X194.664Y183.178
G1 X194.827Y183.19
G1 X194.987Y183.207
G1 X195.144Y183.228
G1 X195.299Y183.254
G1 X195.452Y183.286
G1 X195.602Y183.324
G1 X195.749Y183.369
G1 X195.894Y183.421
G1 X196.037Y183.481
G1 X196.177Y183.549
G1 X196.315Y183.625
G1 X196.45Y183.71
G1 X196.584Y183.805
G1 X196.715Y183.909
G1 X196.843Y184.025
G1 X196.97Y184.151
G1 X197.094Y184.288
G1 X197.216Y184.437
G1 X197.336Y184.599
G1 X197.395Y184.684
G1 X197.454Y184.773
G1 X197.519Y184.877
G1 X198.522Y184.671
G1 X198.724Y184.623
G1 X198.854Y184.588
G1 X198.898Y184.572
G1 X198.931Y184.558
G1 X198.955Y184.544
G1 X198.973Y184.53
G1 X198.986Y184.516
G1 X199.003Y184.493
G1 X199.253Y184.517
G1 X199.453Y184.542
G1 X199.644Y184.573
G1 X199.827Y184.607
G1 X200.003Y184.647
G1 X200.171Y184.692
G1 X200.333Y184.741
G1 X200.488Y184.796
G1 X200.636Y184.855
G1 X200.779Y184.92
G1 X200.917Y184.99
G1 X201.049Y185.065
G1 X201.176Y185.145
G1 X201.299Y185.23
G1 X201.418Y185.321
G1 X201.532Y185.418
G1 X201.643Y185.52
G1 X201.751Y185.627
G1 X201.856Y185.741
G1 X201.959Y185.86
G1 X202.059Y185.984
G1 X202.158Y186.115
G1 X202.255Y186.251
G1 X202.35Y186.393
G1 X202.445Y186.542
G1 X202.54Y186.696
G1 X202.634Y186.857
G1 X202.728Y187.023
G1 X202.823Y187.196
G1 X203.015Y187.561
G1 X203.227
G1 X203.433Y187.572
G1 X203.635
G1 X203.832Y187.594
G1 X204.024Y187.611
G1 X204.212Y187.631
G1 X204.396Y187.656
G1 X204.577Y187.684
G1 X204.753Y187.717
G1 X204.926Y187.754
G1 X205.095Y187.797
G1 X205.262Y187.844
G1 X205.425Y187.896
G1 X205.586Y187.954
G1 X205.744Y188.017
G1 X205.899Y188.087
G1 X206.053Y188.162
G1 X206.204Y188.244
G1 X206.353Y188.332
G1 X206.501Y188.427
G1 X206.648Y188.529
G1 X206.793Y188.638
G1 X206.937Y188.754
G1 X207.08Y188.878
G1 X207.222Y189.01
G1 X207.364Y189.149
G1 X207.506Y189.297
G1 X207.647Y189.453
G1 X207.789Y189.618
G1 X207.931Y189.792
G1 X208.002Y189.882
G1 X208.102Y190.016
G1 X208.156Y190.183
G1 X208.191Y190.304
G1 X208.255Y190.542
G1 X208.384Y191.064
G1 X208.429Y191.226
G1 X208.451Y191.293
G1 X208.473Y191.349
G1 X208.496Y191.395
G1 X208.507Y191.413
G1 X208.524Y191.433
G1 X208.97Y191.501
G1 X209.231Y191.547
G1 X209.48Y191.596
G1 X209.717Y191.649
G1 X209.943Y191.706
G1 X210.157Y191.767
G1 X210.361Y191.833
G1 X210.554Y191.904
G1 X210.737Y191.98
G1 X210.91Y192.062
G1 X211.074Y192.15
G1 X211.23Y192.244
G1 X211.377Y192.345
G1 X211.517Y192.453
G1 X211.649Y192.568
G1 X211.774Y192.691
G1 X211.892Y192.821
G1 X212.004Y192.96
G1 X212.11Y193.107
G1 X212.211Y193.263
G1 X212.307Y193.429
G1 X212.398Y193.604
G1 X212.485Y193.788
G1 X212.569Y193.983
G1 X212.649Y194.188
G1 X212.727Y194.404
G1 X212.801Y194.632
G1 X212.874Y194.87
G1 X212.946Y195.121
G1 X213.058Y195.547
G1 X213.231Y195.577
G1 X213.438Y195.621
G1 X213.676Y195.68
G1 X213.847Y195.728
G1 X214.024Y195.782
G1 X214.203Y195.843
G1 X214.381Y195.911
G1 X214.555Y195.985
G1 X214.721Y196.066
G1 X214.876Y196.153
G1 X214.949Y196.199
G1 X215.017Y196.246
G1 X215.082Y196.295
G1 X215.141Y196.346
G1 X215.195Y196.398
G1 X215.244Y196.452
G1 X215.286Y196.507
G1 X215.322Y196.564
G1 X215.259Y196.147
G1 X215.191Y195.732
G1 X215.119Y195.318
G1 X215.042Y194.905
G1 X214.962Y194.495
G1 X214.877Y194.085
G1 X214.787Y193.677
G1 X214.694Y193.271
G1 X214.596Y192.866
G1 X214.494Y192.463
G1 X214.387Y192.062
G1 X214.277Y191.662
G1 X214.162Y191.264
G1 X214.044Y190.868
G1 X213.921Y190.473
G1 X213.794Y190.08
G1 X213.663Y189.689
G1 X213.529Y189.3
G1 X213.39Y188.912
G1 X213.247Y188.527
G1 X213.1Y188.143
G1 X212.95Y187.761
G1 X212.795Y187.382
G1 X212.637Y187.004
G1 X212.475Y186.628
G1 X212.309Y186.254
G1 X212.139Y185.882
G1 X211.966Y185.513
G1 X211.788Y185.145
G1 X211.608Y184.779
G1 X211.423Y184.416
G1 X211.235Y184.055
G1 X211.043Y183.696
G1 X210.847Y183.339
G1 X210.648Y182.985
G1 X210.445Y182.632
G1 X210.239Y182.282
G1 X210.029Y181.935
G1 X209.816Y181.589
G1 X209.599Y181.246
G1 X209.379Y180.906
G1 X209.155Y180.568
G1 X208.929Y180.232
G1 X208.698Y179.899
G1 X208.464Y179.568
G1 X208.227Y179.24
G1 X207.987Y178.914
G1 X207.744Y178.591
G1 X207.497Y178.271
G1 X207.247Y177.953
G1 X206.994Y177.638
G1 X206.737Y177.325
G1 X206.478Y177.015
G1 X206.215Y176.708
G1 X205.949Y176.404
G1 X205.68Y176.102
G1 X205.408Y175.803
G1 X205.134Y175.508
G1 X204.856Y175.214
G1 X204.575Y174.924
G1 X204.291Y174.637
G1 X203.896Y174.247
G1 X203.882
G1 X203.691Y174.35
G1 X202.851Y174.827
G1 X202.462Y175.052
G1 X202.065Y175.284
G1 X201.662Y175.523
G1 X201.254Y175.769
G1 X200.841Y176.021
G1 X200.426Y176.28
G1 X200.008Y176.545
G1 X199.59Y176.816
G1 X199.172Y177.092
G1 X198.755Y177.373
G1 X198.342Y177.66
G1 X197.932Y177.951
G1 X197.527Y178.247
G1 X197.129Y178.548
G1 X196.737Y178.852
G1 X196.355Y179.16
G1 X196.124Y179.352
G0 X195.026Y173.991
G1 X195.088Y173.978
G1 X195.154Y173.957
G1 X195.224Y173.931
G1 X195.296Y173.898
G1 X195.372Y173.859
G1 X195.45Y173.815
G1 X195.531Y173.766
G1 X195.614Y173.712
G1 X195.699Y173.654
G1 X195.875Y173.529
G1 X196.055Y173.392
G1 X196.24Y173.248
G1 X196.796Y172.805
G1 X196.975Y172.666
G1 X197.149Y172.536
G1 X197.315Y172.42
G1 X197.395Y172.368
G1 X197.509Y172.299
G1 X197.758Y172.109
G1 X198.157Y171.813
G1 X198.426Y171.617
G1 X198.971Y171.232
G1 X199.525Y170.853
G1 X200.085Y170.477
G1 X200.652Y170.104
G1 X202.38Y168.979
G1 X202.961Y168.597
G1 X203.544Y168.207
G1 X204.127Y167.81
G1 X204.709Y167.402
G1 X205.289Y166.983
G1 X205.579Y166.768
G1 X205.867Y166.549
G1 X206.154Y166.327
G1 X206.277Y166.229
G1 Y165.482
G1 Y165.457
G1 X206.144Y165.338
G1 X206.049Y165.258
G1 X205.958Y165.188
G1 X205.869Y165.129
G1 X205.782Y165.079
G1 X205.697Y165.037
G1 X205.613Y165.004
G1 X205.53Y164.976
G1 X205.446Y164.955
G1 X205.362Y164.938
G1 X205.277Y164.925
G1 X205.189
G1 X204.912Y164.893
G1 X204.554Y165.141
G1 X204.198Y165.393
G1 X203.845Y165.649
G1 X203.494Y165.908
G1 X202.801Y166.434
G1 X202.119Y166.971
G1 X201.447Y167.517
G1 X200.785Y168.071
G1 X200.134Y168.63
G1 X199.492Y169.194
G1 X198.86Y169.761
G1 X198.238Y170.329
G1 X197.625Y170.896
G1 X197.021Y171.462
G1 X196.427Y172.025
G1 X195.266Y173.134
G1 X195.022Y173.371
G1 X194.981Y173.646
G1 X194.963Y173.81
G1 Y173.889
G1 X194.952Y173.992
G1 X195.026
G1 X195.088Y173.978
G1 X195.154Y173.957
G1 X195.126
G0 X195.046Y171.323
G1 X195.329
G1 X196.314Y170.355
G1 X197.082Y169.589
G1 X198.116Y168.547
G1 X198.455Y168.208
G1 X198.661Y168.008
G1 X198.844Y167.84
G1 X198.96Y167.739
G1 X199.138Y167.594
G1 X199.428Y167.265
G1 X199.626Y167.034
G1 X200.035Y166.549
G1 X200.465Y166.045
G1 X200.688Y165.789
G1 X200.917Y165.533
G1 X201.153Y165.278
G1 X201.396Y165.026
G1 X201.646Y164.778
G1 X201.904Y164.536
G1 X202.17Y164.301
G1 X202.444Y164.076
G1 X202.585Y163.966
G1 X202.728Y163.86
G1 X202.78Y163.564
G1 X202.808Y163.381
G1 X202.827Y163.21
G1 Y163.129
G1 Y163.05
G1 Y162.974
G1 Y162.901
G1 Y162.83
G1 Y162.762
G1 X202.805Y162.696
G1 X202.788Y162.633
G1 X202.766Y162.571
G1 X202.741Y162.513
G1 X202.711Y162.456
G1 X202.676Y162.401
G1 X202.636Y162.349
G1 X202.59Y162.299
G1 X202.54Y162.25
G1 X202.484Y162.204
G1 X202.422Y162.16
G1 X202.354Y162.117
G1 X202.28Y162.076
G1 X202.2Y162.037
G1 X202.112Y162
G1 X202.018Y161.965
G1 X201.917Y161.93
G1 X201.809Y161.898
G1 X201.673Y161.953
G1 X201.541Y162.012
G1 X201.411Y162.075
G1 X201.285Y162.141
G1 X201.161Y162.21
G1 X201.041Y162.282
G1 X200.924Y162.358
G1 X200.81Y162.436
G1 X200.7Y162.517
G1 X200.592Y162.6
G1 X200.488Y162.685
G1 X200.387Y162.773
G1 X200.194Y162.953
G1 X200.014Y163.14
G1 X199.847Y163.332
G1 X199.692Y163.527
G1 X199.551Y163.725
G1 X199.423Y163.923
G1 X199.308Y164.121
G1 X199.207Y164.317
G1 X199.161Y164.413
G1 X199.118Y164.509
G1 X199.079Y164.604
G1 X198.208Y165.833
G1 X197.714Y166.535
G1 X196.909Y167.688
G1 X195.882Y169.176
G1 X195.512Y169.709
G1 X195.346Y169.935
G1 X195.248Y170.061
G1 X195.154Y170.175
G1 X195.059Y170.284
G1 X195.046Y171.323
G1 X195.329
G1 X195.06Y171.312
G0 X193.512Y169.233
G1 X193.585Y169.209
G1 X193.661Y169.176
G1 X193.739Y169.135
G1 X193.819Y169.086
G1 X193.9Y169.03
G1 X193.984Y168.967
G1 X194.069Y168.896
G1 X194.156Y168.819
G1 X194.245Y168.736
G1 X194.335Y168.646
G1 X194.426Y168.55
G1 X194.518Y168.449
G1 X194.612Y168.342
G1 X194.706Y168.229
G1 X194.802Y168.112
G1 X194.898Y167.99
G1 X194.995Y167.863
G1 X195.093Y167.733
G1 X195.29Y167.46
G1 X195.488Y167.173
G1 X195.687Y166.874
G1 X195.885Y166.565
G1 X196.082Y166.248
G1 X196.278Y165.926
G1 X196.471Y165.599
G1 X196.66Y165.271
G1 X196.845Y164.943
G1 X197.025Y164.618
G1 X197.199Y164.296
G1 X197.367Y163.981
G1 X197.527Y163.674
G1 X197.679Y163.377
G1 X197.822Y163.093
G1 X197.955Y162.822
G1 X198.188Y162.333
G1 X198.373Y161.925
G1 X198.389Y161.886
G1 Y161.469
G1 Y161.26
G1 Y161.077
G1 X198.374Y160.994
G1 Y160.917
G1 X198.353Y160.846
G1 X198.339Y160.779
G1 X198.322Y160.717
G1 X198.301Y160.659
G1 X198.277Y160.606
G1 X198.249Y160.556
G1 X198.218Y160.51
G1 X198.182Y160.467
G1 X198.142Y160.428
G1 X198.097Y160.391
G1 X198.047Y160.356
G1 X197.991Y160.324
G1 X197.931Y160.293
G1 X197.864Y160.264
G1 X197.792Y160.236
G1 X197.713Y160.21
G1 X197.628Y160.184
G1 X197.437Y160.133
G1 X197.218Y160.082
G1 X197.032Y160.239
G1 X196.857Y160.406
G1 X196.692Y160.581
G1 X196.536Y160.764
G1 X196.389Y160.954
G1 X196.25Y161.152
G1 X196.12Y161.355
G1 X195.997Y161.564
G1 X195.882Y161.779
G1 X195.773Y161.998
G1 X195.671Y162.221
G1 X195.575Y162.447
G1 X195.484Y162.677
G1 X195.399Y162.909
G1 X195.318Y163.143
G1 X195.241Y163.379
G1 X195.099Y163.852
G1 X194.969Y164.324
G1 X194.847Y164.79
G1 X194.672Y165.471
G1 X194.556Y165.905
G1 X194.497Y166.115
G1 X194.436Y166.319
G1 X194.374Y166.516
G1 X194.292Y166.725
G1 X193.906Y167.627
G1 X193.69Y168.139
G1 X193.541Y168.504
G1 X193.465Y168.704
G1 X193.414Y168.857
G1 X193.391Y168.94
G1 X193.375Y169.014
G1 X193.363Y169.083
G1 Y169.152
G1 X193.345Y169.255
G1 X193.371
G1 X193.44
G1 X193.512Y169.233
G1 X193.585Y169.209
G1 X193.661Y169.176
G1 X193.569Y169.208
G0 X191.531Y168.854
G1 X191.761Y168.339
G1 X191.878Y168.067
G1 X192.07Y167.606
G1 X192.276Y167.091
G1 X192.418Y166.721
G1 X192.56Y166.333
G1 X192.702Y165.931
G1 X192.84Y165.518
G1 X192.974Y165.095
G1 X193.1Y164.666
G1 X193.218Y164.233
G1 X193.325Y163.8
G1 X193.373Y163.584
G1 X193.418Y163.369
G1 X193.46Y163.155
G1 X193.497Y162.943
G1 X193.53Y162.733
G1 X193.559Y162.525
G1 X193.582Y162.32
G1 X193.601Y162.118
G1 X193.615Y161.919
G1 Y161.723
G1 Y161.532
G1 Y161.345
G1 Y161.163
G1 X193.594Y160.986
G1 X193.571Y160.815
G1 X193.541Y160.649
G1 X193.503Y160.49
G1 X193.458Y160.337
G1 X193.405Y160.191
G1 X193.344Y160.052
G1 X193.275Y159.92
G1 X193.197Y159.797
G1 X193.11Y159.682
G1 X193.015Y159.575
G1 X192.91Y159.478
G1 X192.795Y159.389
G1 X192.671Y159.311
G1 X192.537Y159.242
G1 X192.393Y159.184
G1 X192.237Y159.136
G1 X192.156Y159.117
G1 X192.072Y159.1
G1 X191.985Y159.086
G1 X191.895Y159.075
G1 X191.807Y159.148
G1 X191.724Y159.221
G1 X191.646Y159.293
G1 X191.573Y159.365
G1 X191.504Y159.436
G1 X191.44Y159.507
G1 X191.38Y159.578
G1 X191.324Y159.649
G1 X191.224Y159.789
G1 X191.138Y159.93
G1 X191.065Y160.07
G1 X191.004Y160.21
G1 X190.952Y160.352
G1 X190.909Y160.494
G1 X190.873Y160.638
G1 X190.844Y160.783
G1 X190.818Y160.931
G1 X190.796Y161.081
G1 X190.775Y161.233
G1 Y161.29
G1 X190.688Y162.689
G1 X190.632Y163.707
G1 X190.526Y165.738
G1 X190.367Y168.957
G1 Y168.97
G1 X190.936Y168.926
G1 X191.244Y168.894
G1 X191.526Y168.858
G1 X191.654Y168.58
G0 X188.28Y168.476
G1 X188.408Y167.907
G1 X188.468Y167.62
G1 X188.523Y167.332
G1 X188.575Y167.043
G1 X188.624Y166.752
G1 X188.668Y166.46
G1 X188.708Y166.167
G1 X188.744Y165.873
G1 X188.776Y165.578
G1 X188.803Y165.282
G1 X188.826Y164.986
G1 X188.844Y164.689
G1 X188.858Y164.391
G1 Y164.093
G1 X188.87Y163.794
G1 Y163.495
G1 Y163.196
G1 X188.849Y162.896
G1 X188.832Y162.597
G1 X188.808Y162.297
G1 X188.779Y161.998
G1 X188.745Y161.698
G1 X188.704Y161.399
G1 X188.657Y161.101
G1 X188.604Y160.802
G1 X188.545Y160.505
G1 X188.479Y160.207
G1 X188.431Y160.009
G1 X188.205Y159.964
G1 X188.039Y159.92
G1 X187.806Y159.845
G1 X187.75Y159.96
G1 X187.726Y160.021
G1 X187.702Y160.093
G1 X187.678Y160.182
G1 X187.64Y160.361
G1 X187.595Y160.614
G1 X187.519Y161.103
G1 X187.417Y161.811
G1 X187.168Y163.6
G1 Y163.632
G1 X187.091Y163.904
G1 X186.971Y164.337
G1 X186.844Y164.767
G1 X186.711Y165.193
G1 X186.574Y165.617
G1 X186.29Y166.454
G1 X186.005Y167.276
G1 X185.728Y168.081
G1 X185.597Y168.476
G1 X185.471Y168.867
G1 X185.354Y169.253
G1 X185.245Y169.634
G1 X185.179Y169.881
G1 X185.662Y169.809
G1 X186.078Y169.742
G1 X186.306Y169.701
G1 X186.541Y169.655
G1 X186.78Y169.603
G1 X187.017Y169.544
G1 X187.247Y169.479
G1 X187.466Y169.407
G1 X187.57Y169.368
G1 X187.669Y169.327
G1 X187.763Y169.284
G1 X187.852Y169.239
G1 X187.934Y169.192
G1 X188.01Y169.143
G1 X188.078Y169.092
G1 X188.138Y169.038
G1 X188.28Y168.476
G1 X188.346Y168.183
G0 X183.684Y167.54
G1 X183.327Y168.167
G1 X183.268Y168.179
G1 X182.942Y168.252
G1 X182.719Y168.103
G1 X182.591Y168.009
G1 X182.465Y167.913
G1 X182.341Y167.816
G1 X181.974Y167.518
G1 X181.904Y167.498
G1 X181.836Y167.475
G1 X181.772Y167.448
G1 X181.711Y167.418
G1 X181.653Y167.384
G1 X181.597Y167.348
G1 X181.545Y167.308
G1 X181.496Y167.265
G1 X181.405Y167.17
G1 X181.326Y167.065
G1 X181.258Y166.951
G1 X181.201Y166.827
G1 X181.154Y166.695
G1 X181.117Y166.556
G1 X181.09Y166.411
G1 X181.072Y166.261
G1 Y166.106
G1 Y165.947
G1 Y165.785
G1 X181.094Y165.622
G1 X181.121Y165.458
G1 X181.156Y165.293
G1 X181.199Y165.129
G1 X181.25Y164.967
G1 X181.308Y164.807
G1 X181.373Y164.651
G1 X181.445Y164.499
G1 X181.523Y164.352
G1 X181.607Y164.211
G1 X181.698Y164.076
G1 X181.794Y163.95
G1 X181.896Y163.832
G1 X182.003Y163.724
G1 X182.115Y163.626
G1 X182.188Y163.57
G1 X182.872Y163.668
G1 X183.278Y163.734
G1 X183.682Y163.805
G1 X184.085Y163.88
G1 X184.486Y163.959
G1 X184.886Y164.042
G1 X185.285Y164.129
G1 Y164.235
G1 X185.262Y164.348
G1 X185.236Y164.469
G1 X185.202Y164.597
G1 X185.16Y164.73
G1 X185.11Y164.868
G1 X185.054Y165.012
G1 X184.992Y165.159
G1 X184.924Y165.31
G1 X184.851Y165.463
G1 X184.774Y165.618
G1 X184.694Y165.775
G1 X184.525Y166.091
G1 X184.349Y166.405
G1 X184.172Y166.712
G1 X183.684Y167.54
G1 X183.536Y167.8
G0 X193.695Y184.902
G1 X193.495Y184.973
G1 X193.301Y185.047
G1 X193.111Y185.124
G1 X192.925Y185.204
G1 X192.744Y185.287
G1 X192.568Y185.373
G1 X192.395Y185.462
G1 X192.227Y185.553
G1 X192.062Y185.647
G1 X191.901Y185.744
G1 X191.744Y185.843
G1 X191.59Y185.945
G1 X191.291Y186.154
G1 X191.004Y186.372
G1 X190.727Y186.597
G1 X190.46Y186.83
G1 X190.2Y187.068
G1 X189.948Y187.312
G1 X189.7Y187.561
G1 X189.457Y187.814
G1 X189.173Y188.118
G1 X189.668Y188.171
G1 X189.925Y188.199
G1 X190.168Y188.232
G1 X190.4Y188.271
G1 X190.622Y188.319
G1 X190.834Y188.378
G1 X190.937Y188.412
G1 X191.038Y188.45
G1 X191.138Y188.492
G1 X191.236Y188.538
G1 X191.332Y188.589
G1 X191.427Y188.645
G1 X191.521Y188.706
G1 X191.614Y188.773
G1 X191.707Y188.845
G1 X191.798Y188.923
G1 X191.889Y189.008
G1 X191.98Y189.099
G1 X192.071Y189.197
G1 X192.161Y189.303
G1 X192.252Y189.416
G1 X192.343Y189.536
G1 X192.411Y189.632
G1 X192.426
G1 X192.512
G1 X192.582
G1 X192.724Y189.611
G1 X192.868Y189.578
G1 X193.015Y189.533
G1 X193.163Y189.477
G1 X193.312Y189.41
G1 X193.462Y189.333
G1 X193.612Y189.246
G1 X193.761Y189.15
G1 X193.908Y189.044
G1 X194.054Y188.931
G1 X194.198Y188.809
G1 X194.339Y188.68
G1 X194.477Y188.544
G1 X194.611Y188.402
G1 X194.741Y188.254
G1 X194.865Y188.101
G1 X194.984Y187.942
G1 X195.097Y187.78
G1 X195.203Y187.613
G1 X195.303Y187.443
G1 X195.394Y187.27
G1 X195.478Y187.095
G1 X195.552Y186.918
G1 X195.618Y186.739
G1 X195.673Y186.56
G1 X195.718Y186.38
G1 X195.753Y186.2
G1 X195.775Y186.021
G1 Y185.932
G1 X195.787Y185.821
G1 Y185.806
G1 X195.694Y185.699
G1 X195.628Y185.627
G1 X195.563Y185.56
G1 X195.499Y185.498
G1 X195.435Y185.44
G1 X195.372Y185.387
G1 X195.246Y185.292
G1 X195.12Y185.212
G1 X194.994Y185.146
G1 X194.866Y185.091
G1 X194.737Y185.047
G1 X194.604Y185.012
G1 X194.467Y184.984
G1 X194.325Y184.962
G1 X194.178Y184.944
G1 X194.025Y184.929
G1 X193.695Y184.902
G1 X193.495Y184.973
G1 X193.612Y184.932
G0 X198.208Y186.992
G1 X197.977Y187.198
G1 X197.754Y187.417
G1 X197.539Y187.646
G1 X197.33Y187.883
G1 X197.126Y188.125
G1 X196.928Y188.37
G1 X196.354Y189.099
G1 X196.167Y189.331
G1 X195.982Y189.553
G1 X195.797Y189.764
G1 X195.704Y189.864
G1 X195.549Y190.023
G1 X195.535Y190.087
G1 Y190.136
G1 X195.518Y190.23
G1 Y190.367
G1 X195.561Y190.379
G1 X195.699Y190.421
G1 X195.808Y190.462
G1 X195.914Y190.51
G1 X196.018Y190.563
G1 X196.121Y190.622
G1 X196.221Y190.686
G1 X196.319Y190.756
G1 X196.416Y190.829
G1 X196.51Y190.907
G1 X196.603Y190.988
G1 X196.784Y191.16
G1 X196.959Y191.342
G1 X197.128Y191.531
G1 X197.291Y191.724
G1 X197.9Y192.473
G1 X198.043Y192.639
G1 X198.184Y192.791
G1 X198.312Y192.672
G1 X198.446Y192.542
G1 X198.586Y192.4
G1 X198.73Y192.248
G1 X198.877Y192.086
G1 X199.026Y191.916
G1 X199.175Y191.736
G1 X199.324Y191.549
G1 X199.471Y191.355
G1 X199.616Y191.155
G1 X199.756Y190.95
G1 X199.891Y190.739
G1 X200.019Y190.524
G1 X200.14Y190.306
G1 X200.252Y190.085
G1 X200.355Y189.862
G1 X200.446Y189.638
G1 X200.524Y189.413
G1 X200.589Y189.188
G1 X200.639Y188.963
G1 X200.659Y188.852
G1 X200.674Y188.741
G1 X200.685Y188.63
G1 Y188.52
G1 Y188.411
G1 Y188.302
G1 Y188.194
G1 X200.67Y188.088
G1 X200.652Y187.982
G1 X200.629Y187.878
G1 X200.6Y187.774
G1 X200.566Y187.672
G1 X200.526Y187.572
G1 X200.48Y187.473
G1 X200.428Y187.376
G1 X200.37Y187.28
G1 X200.305Y187.186
G1 X200.234Y187.094
G1 X200.157Y187.003
G1 X200.072Y186.915
G1 X199.981Y186.829
G1 X199.947Y186.801
G1 X199.583Y186.763
G1 X199.256Y186.719
G1 X198.695Y186.629
G1 X198.57Y186.713
G1 X198.447Y186.802
G1 X198.326Y186.895
G1 X198.208Y186.992
G1 X197.984Y187.192
G0 X203.131Y189.71
G1 X203.003Y189.819
G1 X202.881Y189.934
G1 X202.765Y190.054
G1 X202.654Y190.179
G1 X202.548Y190.308
G1 X202.446Y190.44
G1 X202.349Y190.576
G1 X202.254Y190.713
G1 X202.163Y190.853
G1 X201.989Y191.134
G1 X201.657Y191.692
G1 X201.492Y191.96
G1 X201.409Y192.088
G1 X201.324Y192.212
G1 X201.237Y192.332
G1 X201.148Y192.446
G1 X201.056Y192.554
G1 X200.962Y192.656
G1 X200.863Y192.751
G1 X200.76Y192.837
G1 X200.653Y192.916
G1 X200.541Y192.986
G1 X200.44Y193.04
G1 X200.391Y193.223
G1 X200.378Y193.299
G1 Y193.351
G1 X200.558Y193.459
G1 X200.691Y193.54
G1 X200.817Y193.62
G1 X200.935Y193.699
G1 X201.046Y193.778
G1 X201.15Y193.856
G1 X201.248Y193.933
G1 X201.339Y194.011
G1 X201.425Y194.089
G1 X201.505Y194.167
G1 X201.579Y194.246
G1 X201.65Y194.327
G1 X201.715Y194.408
G1 X201.777Y194.491
G1 X201.834Y194.576
G1 X201.889Y194.663
G1 X201.94Y194.753
G1 X201.988Y194.845
G1 X202.078Y195.038
G1 X202.161Y195.245
G1 X202.201Y195.354
G1 X202.279Y195.585
G1 X202.357Y195.835
G1 X202.501Y196.325
G1 X202.515Y196.338
G1 X202.712Y196.398
G1 X203.2Y196.568
G1 X203.326Y196.605
G1 X203.454Y196.638
G1 X203.585Y196.663
G1 X203.719Y196.679
G1 X203.857
G1 X203.999
G1 X204.072
G1 X204.146Y196.658
G1 X204.222Y196.642
G1 X204.299Y196.621
G1 X204.377Y196.597
G1 X204.457Y196.567
G1 X204.558Y196.524
G1 X204.582Y196.503
G1 X204.901Y195.979
G1 X205.168Y195.533
G1 X205.303Y195.303
G1 X205.436Y195.069
G1 X205.566Y194.831
G1 X205.692Y194.59
G1 X205.814Y194.346
G1 X205.929Y194.101
G1 X206.036Y193.854
G1 X206.134Y193.606
G1 X206.222Y193.358
G1 X206.298Y193.111
G1 X206.361Y192.864
G1 X206.411Y192.618
G1 X206.43Y192.496
G1 X206.445Y192.375
G1 X206.455Y192.254
G1 Y192.134
G1 Y192.015
G1 Y191.896
G1 Y191.779
G1 X206.441Y191.662
G1 X206.423Y191.546
G1 X206.4Y191.432
G1 X206.372Y191.319
G1 X206.338Y191.207
G1 X206.298Y191.096
G1 X206.252Y190.987
G1 X206.2Y190.879
G1 X206.142Y190.773
G1 X206.078Y190.668
G1 X206.006Y190.565
G1 X205.929Y190.464
G1 X205.844Y190.364
G1 X205.752Y190.267
G1 X205.653Y190.171
G1 X205.547Y190.077
G1 X205.433Y189.986
G1 X205.311Y189.897
G1 X205.181Y189.809
G1 X205.044Y189.725
G1 X204.898Y189.642
G1 X204.809Y189.596
G1 X204.44Y189.558
G1 X204.115Y189.513
G1 X203.558Y189.424
G1 X203.408Y189.512
G1 X203.266Y189.607
G1 X203.131Y189.71
G1 X203.003Y189.819
G1 X203.033Y189.798
G0 X208.537Y193.428
G1 X208.47Y193.48
G1 X208.438Y193.51
G1 X208.405Y193.543
G1 X208.335Y193.625
G1 X208.183Y193.82
G1 X208.101Y194.029
G1 X208.035Y194.184
G1 X207.965Y194.339
G1 X207.89Y194.492
G1 X207.812Y194.645
G1 X207.646Y194.947
G1 X207.472Y195.246
G1 X207.292Y195.541
G1 X206.751Y196.396
G1 X206.581Y196.67
G1 X206.423Y196.939
G1 X206.35Y197.071
G1 X206.28Y197.202
G1 X206.215Y197.331
G1 X206.155Y197.458
G1 X206.1Y197.583
G1 X206.051Y197.707
G1 X206.009Y197.829
G1 X205.972Y197.949
G1 X205.957Y198.009
G1 X205.937Y198.097
G1 Y198.11
G1 X206.05Y198.258
G1 X206.113Y198.35
G1 X206.172Y198.443
G1 X206.227Y198.537
G1 X206.277Y198.631
G1 X206.324Y198.726
G1 X206.408Y198.917
G1 X206.478Y199.11
G1 X206.536Y199.305
G1 X206.583Y199.501
G1 X206.621Y199.697
G1 X206.65Y199.893
G1 X206.672Y200.088
G1 X206.688Y200.283
G1 X206.7Y200.476
G1 Y200.667
G1 X206.717Y201.043
G1 X207.051Y201.122
G1 X207.308Y201.181
G1 X207.511Y201.222
G1 X207.683Y201.25
G1 X207.846Y201.267
G1 X208.023
G1 X208.406Y201.283
G1 X208.416
G1 X208.718Y200.892
G1 X208.91Y200.645
G1 X209.103Y200.39
G1 X209.298Y200.126
G1 X209.491Y199.856
G1 X209.681Y199.58
G1 X209.867Y199.298
G1 X210.046Y199.012
G1 X210.217Y198.722
G1 X210.378Y198.43
G1 X210.528Y198.135
G1 X210.664Y197.84
G1 X210.727Y197.692
G1 X210.785Y197.544
G1 X210.84Y197.396
G1 X210.89Y197.249
G1 X210.935Y197.101
G1 X210.975Y196.954
G1 X211.011Y196.808
G1 X211.041Y196.663
G1 X211.065Y196.518
G1 X211.084Y196.374
G1 X211.097Y196.23
G1 Y196.088
G1 Y195.948
G1 Y195.808
G1 X211.084Y195.67
G1 X211.064Y195.533
G1 X211.037Y195.398
G1 X211.002Y195.264
G1 X210.959Y195.132
G1 X210.909Y195.002
G1 X210.85Y194.874
G1 X210.783Y194.748
G1 X210.707Y194.625
G1 X210.623Y194.503
G1 X210.53Y194.384
G1 X210.427Y194.268
G1 X210.315Y194.154
G1 X210.194Y194.043
G1 X210.062Y193.934
G1 X209.921Y193.829
G1 X209.769Y193.726
G1 X209.607Y193.627
G1 X209.433Y193.531
G1 X209.249Y193.438
G1 X209.054Y193.349
G1 X208.848Y193.263
G1 X208.778Y193.297
G1 X208.617Y193.379
G1 X208.537Y193.428
G1 X208.47Y193.48
G1 X208.438Y193.51
G1 X208.473Y193.485
G0 X213.095Y197.719
G1 X213.01Y197.776
G1 X212.924Y197.843
G1 X212.838Y197.92
G1 X212.75Y198.005
G1 X212.663Y198.098
G1 X212.575Y198.199
G1 X212.487Y198.306
G1 X212.4Y198.419
G1 X212.226Y198.66
G1 X212.054Y198.917
G1 X211.887Y199.182
G1 X211.725Y199.452
G1 X211.57Y199.719
G1 X211.424Y199.98
G1 X210.955Y200.835
G1 X210.874Y200.974
G1 X210.842Y201.018
G1 X210.604Y201.318
G1 X210.34Y201.66
G1 X210.179Y201.878
G1 X210.048Y202.068
G1 X209.977Y202.18
G1 X209.917Y202.284
G1 X209.869Y202.379
G1 X209.83Y202.467
G1 X209.802Y202.549
G1 X209.783Y202.627
G1 X209.772Y202.702
G1 Y202.774
G1 Y202.846
G1 X209.785Y202.918
G1 X209.803Y202.991
G1 X210.083Y203.785
G1 X210.127Y203.928
G1 X210.17Y204.085
G1 X210.212Y204.257
G1 X210.253Y204.446
G1 X210.282Y204.599
G1 Y204.609
G1 X210.359
G1 X210.419Y204.594
G1 X210.475Y204.576
G1 X210.529Y204.552
G1 X210.58Y204.523
G1 X210.629Y204.489
G1 X210.676Y204.45
G1 X210.766Y204.359
G1 X210.852Y204.254
G1 X211.198Y203.764
G1 X211.297Y203.641
G1 X211.404Y203.524
G1 X211.462Y203.469
G1 X211.523Y203.418
G1 X211.587Y203.369
G1 X211.655Y203.325
G1 X211.803Y203.248
G1 X211.95Y203.161
G1 X212.235Y202.871
G1 X212.571Y202.533
G1 X212.94Y202.156
G1 X213.131Y201.956
G1 X213.323Y201.749
G1 X213.514Y201.537
G1 X213.701Y201.32
G1 X213.882Y201.1
G1 X214.056Y200.878
G1 X214.218Y200.654
G1 X214.368Y200.431
G1 X214.437Y200.319
G1 X214.503Y200.208
G1 X214.563Y200.098
G1 X214.62Y199.988
G1 X214.671Y199.879
G1 X214.716Y199.77
G1 X214.757Y199.663
G1 X214.791Y199.557
G1 X214.819Y199.453
G1 X214.841Y199.349
G1 X214.856Y199.248
G1 Y199.148
G1 Y199.05
G1 Y198.954
G1 X214.843Y198.86
G1 X214.82Y198.768
G1 X214.788Y198.679
G1 X214.748Y198.592
G1 X214.698Y198.508
G1 X214.64Y198.427
G1 X214.571Y198.349
G1 X214.493Y198.273
G1 X214.404Y198.201
G1 X214.304Y198.132
G1 X214.194Y198.067
G1 X214.073Y198.006
G1 X213.94Y197.948
G1 X213.796Y197.894
G1 X213.639Y197.843
G1 X213.47Y197.798
G1 X213.289Y197.756
G1 X213.095Y197.719
G1 X213.01Y197.776
G1 X212.935Y197.835
G0 X216.277Y201.942
G1 X216.228Y201.987
G1 X216.178Y202.025
G1 X216.129Y202.058
G1 X216.08Y202.085
G1 X215.982Y202.125
G1 X215.886Y202.149
G1 X215.792Y202.163
G1 X215.554Y202.185
G1 X215.463Y202.251
G1 X215.28Y202.392
G1 X214.999Y202.622
G1 X214.845Y202.753
G1 X214.683Y202.894
G1 X214.515Y203.043
G1 X214.342Y203.199
G1 X214.164Y203.363
G1 X213.983Y203.532
G1 X213.799Y203.706
G1 X213.615Y203.884
G1 X213.431Y204.066
G1 X213.067Y204.434
G1 X212.716Y204.803
G1 X212.548Y204.986
G1 X212.387Y205.166
G1 X212.234Y205.343
G1 X212.089Y205.516
G1 X211.954Y205.684
G1 X211.83Y205.846
G1 X211.718Y206.001
G1 X211.619Y206.148
G1 X211.534Y206.286
G1 X211.497Y206.352
G1 X211.464Y206.415
G1 X211.436Y206.475
G1 X211.411Y206.533
G1 X211.391Y206.588
G1 X211.376Y206.639
G1 X211.365Y206.688
G1 Y206.733
G1 Y206.755
G1 Y206.766
G1 X211.392Y206.777
G1 X211.455Y206.792
G1 X211.529
G1 X211.614
G1 X211.709
G1 X211.813Y206.773
G1 X211.925Y206.75
G1 X212.045Y206.722
G1 X212.173Y206.688
G1 X212.306Y206.65
G1 X212.445Y206.606
G1 X212.589Y206.558
G1 X212.737Y206.507
G1 X213.043Y206.394
G1 X213.356Y206.272
G1 X213.672Y206.144
G1 X213.985Y206.013
G1 X214.844Y205.645
G1 X215.295Y205.455
G1 X215.461Y205.42
G1 X215.96Y205.309
G1 X216.292Y205.233
G1 X216.957Y205.074
G1 X217.83Y204.859
G1 X217.846
G1 X217.867Y204.791
G1 X217.928Y204.6
G1 X217.967Y204.451
G1 X218Y204.306
G1 X218.024Y204.165
G1 X218.041Y204.028
G1 Y203.894
G1 X218.052Y203.764
G1 Y203.638
G1 X218.034Y203.516
G1 X218.014Y203.398
G1 X217.988Y203.284
G1 X217.954Y203.174
G1 X217.913Y203.068
G1 X217.866Y202.966
G1 X217.813Y202.868
G1 X217.752Y202.775
G1 X217.685Y202.686
G1 X217.612Y202.601
G1 X217.533Y202.521
G1 X217.448Y202.445
G1 X217.356Y202.374
G1 X217.259Y202.307
G1 X217.156Y202.245
G1 X217.047Y202.187
G1 X216.932Y202.134
G1 X216.812Y202.086
G1 X216.686Y202.043
G1 X216.555Y202.004
G1 X216.419Y201.971
G1 X216.277Y201.942
G1 X216.228Y201.987
G1 X216.178Y202.025
G1 X216.196Y202.005
G0 X218.61Y207.243
G1 X218.092Y207.333
G1 X217.58Y207.428
G1 X217.073Y207.529
G1 X216.57Y207.635
G1 X216.072Y207.746
G1 X215.578Y207.864
G1 X215.089Y207.987
G1 X214.604Y208.116
G1 X214.122Y208.252
G1 X213.644Y208.393
G1 X213.17Y208.541
G1 X212.967Y208.607
G1 X213.011Y208.919
G1 X213.229Y210.435
G1 X213.362Y210.452
G1 X213.447
G1 X213.618Y210.468
G1 X213.875
G1 X214.612Y210.333
G1 X215.12Y210.239
G1 X215.627Y210.149
G1 X216.644Y209.978
G1 X217.662Y209.82
G1 X218.682Y209.674
G1 X219.705Y209.54
G1 X220.731Y209.417
G1 X221.761Y209.304
G1 X222.796Y209.199
G1 X223.836Y209.104
G1 X224.882Y209.015
G1 X225.935Y208.934
G1 X226.994Y208.859
G1 X228.062Y208.789
G1 X229.927Y208.676
G1 X230.76Y208.501
G1 X230.743Y208.467
G1 X230.709Y208.413
G1 X230.683Y208.378
G1 X230.623Y208.309
G1 X230.553Y208.242
G1 X230.473Y208.178
G1 X230.383Y208.116
G1 X230.284Y208.056
G1 X230.176Y207.998
G1 X230.059Y207.942
G1 X229.934Y207.888
G1 X229.801Y207.837
G1 X229.661Y207.787
G1 X229.513Y207.739
G1 X229.358Y207.692
G1 X229.197Y207.648
G1 X229.03Y207.606
G1 X228.857Y207.565
G1 X228.679Y207.526
G1 X228.495Y207.488
G1 X228.307Y207.453
G1 X228.114Y207.419
G1 X227.918Y207.386
G1 X227.513Y207.325
G1 X227.097Y207.271
G1 X226.672Y207.221
G1 X226.24Y207.177
G1 X225.804Y207.138
G1 X225.368Y207.104
G1 X224.933Y207.074
G1 X224.504Y207.047
G1 X224.082Y207.025
G1 X223.67Y207.006
G1 X222.889Y206.976
G1 X222.182Y206.957
G1 X221.574Y206.945
G1 X220.738
G1 X220.197Y207.005
G1 X219.662Y207.079
G1 X219.133Y207.159
G1 X218.61Y207.243
G1 X218.315Y207.294
G0 X219.861Y211.469
G1 X219.044Y211.57
G1 X218.233Y211.68
G1 X217.426Y211.802
G1 X216.622Y211.934
G1 X215.819Y212.079
G1 X215.018Y212.238
G1 X214.217Y212.41
G1 X213.816Y212.502
G1 X213.415Y212.598
G1 X213.014Y212.698
G1 X213.053Y212.818
G1 X213.087Y212.901
G1 X213.107Y212.943
G1 X213.132Y212.987
G1 X213.162Y213.037
G1 X213.241Y213.156
G1 X213.428Y213.413
G1 X213.722Y213.808
G1 X213.788
G1 X213.856
G1 X213.933
G1 X213.976
G1 X214.137Y213.776
G1 X214.45Y213.713
G1 X215.604Y213.468
G1 X216.543Y213.272
G1 X218.157Y212.947
G1 X218.665Y212.882
G1 X219.174Y212.822
G1 X219.684Y212.766
G1 X220.195Y212.715
G1 X220.706Y212.668
G1 X221.218Y212.624
G1 X221.731Y212.584
G1 X222.76Y212.516
G1 X223.793Y212.461
G1 X224.829Y212.418
G1 X225.869Y212.387
G1 X226.914Y212.365
G1 X227.963Y212.351
G1 X229.016
G1 X230.074
G1 X231.137
G1 X232.204
G1 X234.356Y212.383
G1 X234.483Y212.354
G1 X234.62Y212.316
G1 X234.891Y212.232
G1 X234.829Y212.093
G1 X234.799Y212.01
G1 X234.655Y211.975
G1 X234.223Y211.877
G1 X233.934Y211.815
G1 X233.354Y211.702
G1 X232.773Y211.601
G1 X232.19Y211.511
G1 X231.607Y211.432
G1 X231.023Y211.361
G1 X230.439Y211.299
G1 X229.855Y211.243
G1 X229.272Y211.194
G1 X228.69Y211.149
G1 X228.109Y211.108
G1 X227.529Y211.07
G1 X225.805Y210.96
G1 X224.924Y211.018
G1 X224.056Y211.08
G1 X223.198Y211.145
G1 X222.351Y211.216
G1 X221.513Y211.293
G1 X220.684Y211.377
G1 X219.861Y211.469
G1 X219.563Y211.506
G0 X220.112Y214.796
G1 X219.344Y214.907
G1 X218.578Y215.016
G1 X217.053Y215.228
G1 X214.234Y215.608
G1 X214.122Y215.679
G1 X214.063Y215.72
G1 X214.013Y215.758
G1 X213.972Y215.795
G1 X213.937Y215.83
G1 X213.908Y215.864
G1 X213.885Y215.898
G1 X213.866Y215.931
G1 X213.839Y216
G1 X213.818Y216.075
G1 X213.788Y216.2
G1 X214.577Y216.152
G1 X215.19Y216.122
G1 X215.803Y216.098
G1 X216.415Y216.081
G1 X217.027Y216.069
G1 X217.639
G1 X218.252
G1 X218.864
G1 X219.476
G1 X220.089Y216.094
G1 X220.702Y216.114
G1 X221.315Y216.139
G1 X221.928Y216.168
G1 X222.542Y216.201
G1 X223.772Y216.28
G1 X225.005Y216.374
G1 X226.241Y216.482
G1 X227.481Y216.601
G1 X228.726Y216.731
G1 X229.976Y216.869
G1 X231.232Y217.015
G1 X232.494Y217.167
G1 X233.129Y217.239
G1 X233.807Y217.32
G1 X234.756Y217.429
G1 X235.293Y217.485
G1 X235.852Y217.538
G1 X236.419Y217.583
G1 X236.976Y217.618
G1 X237.248Y217.631
G1 X237.511
G1 X237.764Y217.643
G1 X238.006
G1 X238.235
G1 X238.448Y217.625
G1 X238.644Y217.607
G1 X238.735Y217.596
G1 X238.82Y217.583
G1 X238.901Y217.568
G1 X238.976Y217.552
G1 X239.045Y217.533
G1 X239.109Y217.513
G1 X239.166Y217.491
G1 X239.216Y217.467
G1 X239.253Y217.444
G1 X239.212Y217.423
G1 X238.909Y217.285
G1 X238.628Y217.174
G1 X238.338Y217.074
G1 X238.041Y216.982
G1 X237.739Y216.899
G1 X237.432Y216.823
G1 X237.124Y216.753
G1 X236.815Y216.689
G1 X236.508Y216.628
G1 X235.325Y216.409
G1 X235.05Y216.354
G1 X234.754Y216.291
G1 X233.841Y216.147
G1 X233.354Y216.073
G1 X232.383Y215.932
G1 X231.418Y215.801
G1 X230.456Y215.678
G1 X229.5Y215.563
G1 X228.547Y215.456
G1 X227.598Y215.356
G1 X226.652Y215.264
G1 X225.71Y215.179
G1 X224.771Y215.1
G1 X223.835Y215.028
G1 X222.901Y214.961
G1 X221.969Y214.901
G1 X221.04Y214.846
G1 X220.112Y214.796
G1 X219.815Y214.839
G0 X218.187Y218.077
G1 X217.577Y218.066
G1 X216.841Y218.043
G1 X215.368Y217.981
G1 X215.232Y218.027
G1 X215.097Y218.071
G1 X214.961Y218.112
G1 X214.69Y218.188
G1 X214.33Y218.283
G1 Y218.294
G1 X214.633Y218.673
G1 X214.8Y218.895
G1 X214.956Y219.111
G1 X215.103Y219.321
G1 X215.241Y219.529
G1 X215.371Y219.735
G1 X215.494Y219.942
G1 X215.612Y220.151
G1 X215.725Y220.364
G1 X215.834Y220.583
G1 X215.941Y220.81
G1 X216.047Y221.047
G1 X216.152Y221.295
G1 X216.257Y221.555
G1 X216.324Y221.726
G1 X216.341Y221.746
G1 X216.429Y221.796
G1 X216.479Y221.821
G1 X216.592Y221.87
G1 X216.72Y221.918
G1 X216.862Y221.965
G1 X217.017Y222.01
G1 X217.184Y222.053
G1 X217.361Y222.095
G1 X217.547Y222.134
G1 X217.742Y222.17
G1 X217.944Y222.203
G1 X218.152Y222.234
G1 X218.364Y222.26
G1 X218.58Y222.283
G1 X218.799Y222.301
G1 X219.019Y222.315
G1 X219.239
G1 X219.458Y222.329
G1 X219.675
G1 X219.889
G1 X220.098Y222.31
G1 X220.302Y222.291
G1 X220.499Y222.266
G1 X220.688Y222.235
G1 X220.868Y222.196
G1 X221.038Y222.15
G1 X221.196Y222.096
G1 X221.271Y222.067
G1 X221.342Y222.035
G1 X221.41Y222.001
G1 X221.474Y221.965
G1 X221.535Y221.928
G1 X221.592Y221.887
G1 X221.645Y221.845
G1 X221.693Y221.801
G1 Y221.552
G1 Y221.317
G1 X221.668Y221.094
G1 X221.645Y220.884
G1 X221.613Y220.685
G1 X221.575Y220.498
G1 X221.528Y220.321
G1 X221.474Y220.155
G1 X221.413Y219.999
G1 X221.343Y219.852
G1 X221.267Y219.714
G1 X221.182Y219.584
G1 X221.09Y219.463
G1 X220.99Y219.348
G1 X220.882Y219.241
G1 X220.767Y219.139
G1 X220.644Y219.044
G1 X220.514Y218.954
G1 X220.376Y218.869
G1 X220.23Y218.789
G1 X220.076Y218.712
G1 X219.914Y218.639
G1 X219.745Y218.569
G1 X219.568Y218.502
G1 X219.384Y218.436
G1 X219.191Y218.372
G1 X218.991Y218.308
G1 X218.783Y218.246
G1 X218.344Y218.12
G1 X218.187Y218.077
G1 X217.887
G0 X223.3Y218.61
G1 X223.344Y218.793
G1 X223.394Y218.975
G1 X223.449Y219.155
G1 X223.509Y219.335
G1 X223.638Y219.69
G1 X223.908Y220.39
G1 X224.034Y220.737
G1 X224.092Y220.909
G1 X224.144Y221.081
G1 X224.168Y221.167
G1 X224.208Y221.323
G1 X224.22
G1 X226.801Y221.52
G1 X228.388Y221.644
G1 X229.11Y221.704
G1 X230.174Y221.796
G1 X231.288Y221.9
G1 X232.995Y222.069
G1 X235.139Y222.29
G1 X237.916Y222.582
G1 X239.386Y222.737
G1 X239.637Y222.773
G1 X240.121Y222.852
G1 X240.591Y222.934
G1 X241.056Y223.01
G1 X241.528Y223.073
G1 X241.769Y223.096
G1 X242.017Y223.114
G1 X242.271
G1 X242.534Y223.125
G1 X242.807
G1 X243.09Y223.099
G1 X243.173
G1 Y222.904
G1 X243.14Y222.887
G1 X242.89Y222.776
G1 X242.385Y222.559
G1 X241.873Y222.351
G1 X241.354Y222.152
G1 X240.83Y221.961
G1 X240.3Y221.778
G1 X239.766Y221.603
G1 X239.226Y221.435
G1 X238.683Y221.274
G1 X238.136Y221.119
G1 X237.586Y220.971
G1 X237.033Y220.83
G1 X236.478Y220.694
G1 X235.921Y220.563
G1 X235.362Y220.438
G1 X234.802Y220.318
G1 X234.242Y220.203
G1 X233.681Y220.092
G1 X233.121Y219.985
G1 X232.562Y219.883
G1 X232.004Y219.783
G1 X230.893Y219.594
G1 X229.791Y219.415
G1 X228.703Y219.245
G1 X226.423Y218.897
G1 X225.728Y218.844
G1 X224.913Y218.771
G1 X223.3Y218.61
G1 X223.344Y218.793
G1 X223.327Y218.718
G0 X221.573Y224.928
G1 X221.176Y224.889
G1 X220.787Y224.855
G1 X220.409Y224.826
G1 X220.043Y224.802
G1 X219.525Y224.773
G1 X218.763Y224.741
G1 X217.894Y224.714
G1 Y225.222
G1 X217.875Y225.554
G1 X217.86Y225.852
G1 X217.845Y226.037
G1 X217.827Y226.213
G1 X217.805Y226.382
G1 X217.778Y226.547
G1 X217.745Y226.71
G1 X217.707Y226.874
G1 X217.662Y227.041
G1 X217.61Y227.213
G1 X217.55Y227.393
G1 X217.453Y227.663
G1 X217.641Y227.674
G1 X218.378Y227.706
G1 X218.965Y227.74
G1 X219.551Y227.781
G1 X220.136Y227.829
G1 X220.721Y227.883
G1 X221.305Y227.945
G1 X221.89Y228.013
G1 X222.475Y228.088
G1 X223.061Y228.17
G1 X223.649Y228.258
G1 X224.239Y228.353
G1 X224.831Y228.455
G1 X225.425Y228.563
G1 X226.023Y228.678
G1 X226.542Y228.782
G1 X227.004Y228.942
G1 X227.206Y229.009
G1 X227.285Y229.034
G1 X227.409Y229.068
G1 X227.458Y229.079
G1 X227.539Y229.089
G1 X227.609
G1 X227.694Y229.078
G1 X227.735Y228.977
G1 X227.748Y228.932
G1 X227.767Y228.839
G1 X227.779Y228.739
G1 Y228.635
G1 Y228.526
G1 Y228.413
G1 X227.76Y228.296
G1 X227.74Y228.177
G1 X227.716Y228.055
G1 X227.686Y227.932
G1 X227.652Y227.807
G1 X227.615Y227.682
G1 X227.552Y227.495
G1 X227.496Y227.345
G1 X227.279
G1 X227.254Y227.257
G1 X227.236Y227.198
G1 X227.214Y227.14
G1 X227.164Y227.027
G1 X227.104Y226.918
G1 X227.035Y226.812
G1 X226.957Y226.71
G1 X226.87Y226.611
G1 X226.775Y226.516
G1 X226.672Y226.424
G1 X226.561Y226.335
G1 X226.442Y226.249
G1 X226.316Y226.167
G1 X226.184Y226.087
G1 X226.045Y226.011
G1 X225.899Y225.938
G1 X225.748Y225.867
G1 X225.591Y225.8
G1 X225.43Y225.735
G1 X225.263Y225.673
G1 X225.091Y225.613
G1 X224.915Y225.556
G1 X224.735Y225.502
G1 X224.365Y225.4
G1 X223.983Y225.309
G1 X223.59Y225.226
G1 X223.191Y225.151
G1 X222.787Y225.085
G1 X222.381Y225.026
G1 X221.976Y224.974
G1 X221.573Y224.928
G1 X221.275Y224.898
G0 X215.413Y225.275
G1 X215.397Y225.142
G1 X215.376Y225.013
G1 X215.351Y224.889
G1 X215.321Y224.769
G1 X215.288Y224.654
G1 X215.25Y224.544
G1 X215.208Y224.437
G1 X215.163Y224.335
G1 X215.114Y224.237
G1 X215.061Y224.143
G1 X215.004Y224.053
G1 X214.944Y223.967
G1 X214.881Y223.884
G1 X214.814Y223.806
G1 X214.745Y223.73
G1 X214.672Y223.659
G1 X214.596Y223.59
G1 X214.517Y223.526
G1 X214.436Y223.464
G1 X214.352Y223.405
G1 X214.266Y223.35
G1 X214.177Y223.297
G1 X213.992Y223.201
G1 X213.798Y223.115
G1 X213.597Y223.039
G1 X213.389Y222.973
G1 X213.174Y222.916
G1 X212.955Y222.866
G1 X212.73Y222.824
G1 X212.503Y222.788
G1 X212.272Y222.759
G1 X212.039Y222.734
G1 X211.57Y222.698
G1 X211.103Y222.674
G1 X210.198Y222.641
G1 X209.69Y222.698
G1 X209.186Y222.758
G1 X208.685Y222.821
G1 X208.189Y222.887
G1 X207.697Y222.958
G1 X207.208Y223.034
G1 X206.724Y223.114
G1 X206.243Y223.2
G1 X205.767Y223.291
G1 X205.294Y223.389
G1 X204.825Y223.494
G1 X204.36Y223.605
G1 X203.899Y223.724
G1 X203.442Y223.851
G1 X203.215Y223.918
G1 X202.848Y224.03
G1 X203.169Y224.839
G1 X203.257Y225.042
G1 X203.326Y225.188
G1 X203.357Y225.246
G1 X203.386Y225.297
G1 X203.416Y225.344
G1 X203.447Y225.39
G1 X203.542Y225.518
G1 X204.429Y225.563
G1 X204.815Y225.585
G1 X205.203Y225.61
G1 X205.595Y225.638
G1 X205.988Y225.67
G1 X206.383Y225.707
G1 X206.778Y225.75
G1 X207.174Y225.799
G1 X207.57Y225.854
G1 X207.965Y225.917
G1 X208.359Y225.987
G1 X208.751Y226.066
G1 X209.141Y226.154
G1 X209.528Y226.252
G1 X209.781Y226.355
G1 X210.031Y226.464
G1 X210.278Y226.579
G1 X210.523Y226.698
G1 X211.003Y226.941
G1 X211.47Y227.181
G1 X211.698Y227.295
G1 X211.922Y227.405
G1 X212.143Y227.507
G1 X212.359Y227.6
G1 X212.571Y227.683
G1 X212.779Y227.754
G1 X212.881Y227.785
G1 X212.981Y227.812
G1 X213.081Y227.835
G1 X213.18Y227.855
G1 X213.277Y227.87
G1 X213.373Y227.881
G1 X213.468
G1 X213.561
G1 X213.653
G1 X213.744
G1 X213.833Y227.863
G1 X213.921Y227.844
G1 X214.008Y227.819
G1 X214.093Y227.788
G1 X214.177Y227.752
G1 X214.259Y227.708
G1 X214.34Y227.658
G1 X214.42Y227.602
G1 X214.498Y227.539
G1 X214.574Y227.468
G1 X214.649Y227.39
G1 X214.722Y227.305
G1 X214.793Y227.212
G1 X214.863Y227.112
G1 X214.931Y227.003
G1 X214.998Y226.886
G1 X215.063Y226.76
G1 X215.126Y226.626
G1 X215.188Y226.483
G1 X215.247Y226.33
G1 X215.305Y226.169
G1 X215.362Y225.998
G1 X215.389Y225.909
G1 X215.434Y225.752
G1 Y225.557
G1 Y225.413
G1 X215.413Y225.275
G1 X215.397Y225.142
G1 Y225.111
G0 X211.414Y228.722
G1 X211.258Y228.647
G1 X210.938Y228.503
G1 X210.609Y228.37
G1 X210.272Y228.247
G1 X209.93Y228.132
G1 X209.582Y228.027
G1 X209.231Y227.93
G1 X208.878Y227.842
G1 X208.524Y227.762
G1 X208.17Y227.689
G1 X207.818Y227.624
G1 X207.469Y227.565
G1 X207.124Y227.514
G1 X206.785Y227.468
G1 X206.454Y227.428
G1 X206.13Y227.395
G1 X205.816Y227.366
G1 X205.513Y227.342
G1 X205.223Y227.323
G1 X204.946Y227.308
G1 X204.684Y227.297
G1 Y227.38
G1 Y227.464
G1 X204.707Y227.551
G1 X204.726Y227.64
G1 X204.751Y227.73
G1 X204.781Y227.822
G1 X204.816Y227.916
G1 X204.855Y228.011
G1 X204.9Y228.108
G1 X204.949Y228.206
G1 X205.002Y228.305
G1 X205.06Y228.405
G1 X205.188Y228.608
G1 X205.33Y228.815
G1 X205.486Y229.024
G1 X205.655Y229.236
G1 X205.834Y229.449
G1 X206.024Y229.662
G1 X206.221Y229.875
G1 X206.426Y230.087
G1 X206.637Y230.298
G1 X206.853Y230.506
G1 X207.071Y230.711
G1 X207.292Y230.912
G1 X207.513Y231.109
G1 X207.733Y231.3
G1 X207.951Y231.486
G1 X208.166Y231.664
G1 X208.377Y231.836
G1 X208.581Y231.999
G1 X208.778Y232.154
G1 X208.967Y232.298
G1 X209.313Y232.556
G1 X209.609Y232.768
G1 X210.022Y232.888
G1 X210.225Y232.943
G1 X210.423Y232.995
G1 X210.618Y233.043
G1 X210.81Y233.085
G1 X210.997Y233.121
G1 X211.18Y233.151
G1 X211.358Y233.173
G1 X211.532Y233.188
G1 X211.701
G1 X211.865
G1 X212.023Y233.175
G1 X212.176Y233.151
G1 X212.323Y233.114
G1 X212.464Y233.066
G1 X212.599Y233.004
G1 X212.727Y232.929
G1 X212.789Y232.886
G1 X212.849Y232.839
G1 X212.907Y232.789
G1 X212.964Y232.735
G1 X213.018Y232.677
G1 X213.071Y232.614
G1 X213.122Y232.548
G1 X213.171Y232.478
G1 X213.219Y232.403
G1 X213.264Y232.324
G1 X213.307Y232.24
G1 X213.349Y232.152
G1 X213.388Y232.059
G1 X213.426Y231.962
G1 X213.461Y231.859
G1 X213.494Y231.752
G1 X213.525Y231.64
G1 X213.554Y231.522
G1 X213.581Y231.4
G1 X213.606Y231.272
G1 X213.628Y231.139
G1 X213.648Y231.001
G1 X213.666Y230.857
G1 X213.681Y230.707
G1 X213.605Y230.574
G1 X213.522Y230.445
G1 X213.435Y230.318
G1 X213.341Y230.196
G1 X213.243Y230.076
G1 X213.14Y229.96
G1 X213.031Y229.847
G1 X212.918Y229.737
G1 X212.801Y229.63
G1 X212.679Y229.526
G1 X212.553Y229.425
G1 X212.423Y229.327
G1 X212.289Y229.232
G1 X212.152Y229.14
G1 X212.011Y229.051
G1 X211.866Y228.965
G1 X211.718Y228.881
G1 X211.568Y228.801
G1 X211.414Y228.722
G1 X211.258Y228.647
G1 X211.299Y228.67
G0 X216.45Y230.048
G1 Y230.298
G1 X218.447Y230.79
G1 X219.298Y231.004
G1 X219.66Y231.097
G1 X220.31Y231.273
G1 X220.62Y231.361
G1 X221.265Y231.552
G1 X222.014Y231.782
G1 X222.954Y232.075
G1 X223.104Y232.136
G1 X223.262Y232.204
G1 X223.427Y232.278
G1 X223.599Y232.358
G1 X224.737Y232.907
G1 X225.147Y233.098
G1 X225.566Y233.281
G1 X225.99Y233.45
G1 X226.203Y233.527
G1 X226.416Y233.599
G1 X226.628Y233.664
G1 X226.839Y233.721
G1 X227.048Y233.771
G1 X227.256Y233.811
G1 X227.461Y233.841
G1 X227.663Y233.86
G1 X227.861
G1 X228.055
G1 X228.246Y233.846
G1 X228.431Y233.814
G1 X228.521Y233.793
G1 X228.611Y233.768
G1 X228.699Y233.739
G1 X228.785Y233.706
G1 X228.89Y233.659
G1 Y233.52
G1 Y233.44
G1 X228.865Y233.283
G1 X228.83Y233.131
G1 X228.782Y232.983
G1 X228.722Y232.84
G1 X228.65Y232.7
G1 X228.568Y232.565
G1 X228.474Y232.434
G1 X228.37Y232.306
G1 X228.256Y232.183
G1 X228.132Y232.064
G1 X227.999Y231.948
G1 X227.857Y231.836
G1 X227.707Y231.728
G1 X227.548Y231.623
G1 X227.382Y231.522
G1 X227.209Y231.424
G1 X227.029Y231.33
G1 X226.842Y231.24
G1 X226.65Y231.152
G1 X226.451Y231.068
G1 X226.248Y230.987
G1 X226.039Y230.909
G1 X225.827Y230.834
G1 X225.61Y230.763
G1 X225.389Y230.694
G1 X225.165Y230.628
G1 X224.939Y230.565
G1 X224.709Y230.504
G1 X224.245Y230.392
G1 X223.776Y230.289
G1 X223.305Y230.197
G1 X222.835Y230.113
G1 X222.37Y230.039
G1 X221.913Y229.973
G1 X221.466Y229.915
G1 X221.034Y229.864
G1 X220.618Y229.82
G1 X220.035Y229.765
G1 X219.508Y229.724
G1 X218.913Y229.685
G1 X218.463Y229.662
G1 X218.194Y229.719
G1 X217.928Y229.773
G1 X217.401Y229.874
G1 X216.45Y230.048
G1 Y230.298
G1 X216.497Y230.065
G0 X216.548Y232.472
G1 X216.219Y232.945
G1 X215.94Y233.336
G1 X215.525Y233.906
G1 X215.388Y234.102
G1 X215.36Y234.143
G1 X215.295Y234.249
G1 X215.265Y234.308
G1 X215.246Y234.358
G1 Y234.38
G1 Y234.407
G1 X217.895Y235.319
G1 X218.611Y235.561
G1 X219.332Y235.798
G1 X220.06Y236.028
G1 X220.793Y236.249
G1 X221.531Y236.459
G1 X221.902Y236.559
G1 X222.273Y236.655
G1 X222.646Y236.747
G1 X223.02Y236.835
G1 X223.395Y236.918
G1 X223.77Y236.996
G1 X224.146Y237.069
G1 X224.524Y237.136
G1 X224.902Y237.197
G1 X225.28Y237.252
G1 X225.659Y237.301
G1 X226.039Y237.342
G1 X226.325Y237.369
G1 X226.348
G1 X226.613Y237.306
G1 X226.698Y237.283
G1 X226.773Y237.258
G1 X226.839Y237.229
G1 X226.897Y237.194
G1 X226.946Y237.149
G1 X226.988Y237.095
G1 X227.023Y237.027
G1 X227.037Y236.987
G1 X227.051Y236.944
G1 X227.062Y236.896
G1 X227.073Y236.844
G1 Y236.787
G1 X227.095Y236.658
G1 Y236.505
G1 X227.109Y236.317
G1 Y236.303
G1 X227.031Y236.242
G1 X226.706Y235.973
G1 X226.407Y235.748
G1 X226.101Y235.534
G1 X225.787Y235.331
G1 X225.466Y235.138
G1 X225.138Y234.956
G1 X224.805Y234.783
G1 X224.466Y234.62
G1 X224.121Y234.465
G1 X223.773Y234.319
G1 X223.419Y234.181
G1 X223.063Y234.05
G1 X222.703Y233.927
G1 X222.34Y233.81
G1 X221.975Y233.699
G1 X221.608Y233.594
G1 X221.24Y233.494
G1 X220.871Y233.399
G1 X220.132Y233.221
G1 X219.395Y233.057
G1 X218.665Y232.904
G1 X217.237Y232.615
G1 X216.548Y232.472
G1 X216.377Y232.718
G0 X202.958Y231.126
G1 Y231.136
G1 X202.492Y231.55
G1 X202.153Y231.846
G1 X201.81Y232.138
G1 X201.464Y232.426
G1 X201.115Y232.711
G1 X200.763Y232.991
G1 X200.407Y233.267
G1 X200.048Y233.54
G1 X199.686Y233.808
G1 X199.321Y234.072
G1 X198.952Y234.332
G1 X198.581Y234.588
G1 X198.206Y234.84
G1 X197.829Y235.087
G1 X197.448Y235.33
G1 X197.065Y235.569
G1 X196.678Y235.803
G1 X196.289Y236.034
G1 X195.897Y236.259
G1 X195.502Y236.48
G1 X195.105Y236.697
G1 X194.704Y236.909
G1 X194.301Y237.117
G1 X193.895Y237.32
G1 X193.487Y237.519
G1 X193.076Y237.712
G1 X192.663Y237.901
G1 X192.247Y238.086
G1 X191.828Y238.265
G1 X191.407Y238.44
G1 X190.984Y238.61
G1 X190.558Y238.776
G1 X190.13Y238.936
G1 X189.7Y239.091
G1 X189.267Y239.242
G1 X188.832Y239.387
G1 X188.395Y239.527
G1 X187.955Y239.663
G1 X187.514Y239.793
G1 X187.07Y239.918
G1 X186.625Y240.038
G1 X186.177Y240.153
G1 X185.727Y240.262
G1 X185.276Y240.366
G1 X184.822Y240.465
G1 X184.366Y240.559
G1 X183.909Y240.647
G1 X183.45Y240.73
G1 X182.989Y240.807
G1 X182.526Y240.879
G1 X182.062Y240.945
G1 X181.596Y241.006
G1 X181.128Y241.062
G1 X180.658Y241.111
G1 X180.187Y241.155
G1 X179.715Y241.194
G1 X179.241Y241.226
G1 X178.765Y241.253
G1 X178.288Y241.274
G1 X177.81Y241.29
G1 X177.33
G1 X176.849Y241.303
G1 X176.201
G1 X175.632Y241.286
G1 X175.349
G1 X174.783Y241.251
G1 X174.219Y241.218
G1 X173.658Y241.177
G1 X173.099Y241.128
G1 X172.542Y241.071
G1 X171.987Y241.006
G1 X171.435Y240.933
G1 X170.885Y240.853
G1 X170.338Y240.765
G1 X169.793Y240.669
G1 X169.251Y240.566
G1 X168.712Y240.455
G1 X168.175Y240.337
G1 X167.641Y240.211
G1 X167.11Y240.078
G1 X166.582Y239.938
G1 X166.057Y239.79
G1 X165.534Y239.635
G1 X165.015Y239.474
G1 X164.499Y239.305
G1 X163.986Y239.129
G1 X163.477Y238.946
G1 X162.97Y238.756
G1 X162.467Y238.56
G1 X161.968Y238.357
G1 X161.472Y238.147
G1 X160.979Y237.93
G1 X160.49Y237.707
G1 X160.004Y237.477
G1 X159.523Y237.241
G1 Y237.143
G1 X159.506Y237.009
G1 X159.41Y236.211
G1 X159.384Y235.973
G1 X159.362Y235.73
G1 X159.344Y235.487
G1 X159.333Y235.25
G1 Y235.135
G1 Y235.024
G1 Y234.917
G1 Y234.814
G1 X159.348Y234.717
G1 X159.361Y234.626
G1 X159.377Y234.542
G1 X159.396Y234.465
G1 X159.42Y234.396
G1 X159.449Y234.336
G1 X159.465Y234.31
G1 X159.482Y234.286
G1 X159.505Y234.259
G1 X159.742Y234.488
G1 X159.914Y234.653
G1 X160.077Y234.801
G1 X160.229Y234.931
G1 X160.372Y235.045
G1 X160.507Y235.142
G1 X160.57Y235.185
G1 X160.632Y235.223
G1 X160.691Y235.258
G1 X160.749Y235.289
G1 X160.804Y235.315
G1 X160.858Y235.338
G1 X160.909Y235.357
G1 X160.958Y235.372
G1 X161.006Y235.383
G1 X161.052
G1 X161.096Y235.395
G1 X161.138
G1 X161.178
G1 X161.217Y235.384
G1 X161.254Y235.373
G1 X161.289Y235.358
G1 X161.355Y235.319
G1 X161.415Y235.265
G1 X161.469Y235.197
G1 X161.517Y235.116
G1 X161.561Y235.022
G1 X161.599Y234.915
G1 X161.633Y234.795
G1 X161.663Y234.662
G1 X161.688Y234.518
G1 X161.71Y234.361
G1 X161.728Y234.192
G1 X161.743Y234.012
G1 X161.756Y233.821
G1 Y233.618
G1 X161.774Y233.405
G1 X161.787Y232.834
G1 X161.902
G1 X161.99Y232.857
G1 X162.076Y232.877
G1 X162.161Y232.903
G1 X162.508Y233.021
G1 X162.601Y233.048
G1 X162.699Y233.072
G1 X162.803Y233.09
G1 X162.913Y233.103
G1 X163.032
G1 X163.159
G1 X163.226
G1 X163.295Y233.088
G1 X163.377Y233.074
G1 X163.443Y232.834
G1 X163.475Y232.665
G1 X163.499Y232.496
G1 X163.515Y232.328
G1 Y232.158
G1 X163.527Y231.988
G1 Y231.815
G1 X163.516Y231.639
G1 X163.503Y231.46
G1 X163.486Y231.277
G1 X163.467Y231.09
G1 X163.444Y230.897
G1 X163.36Y230.225
G1 Y230.178
G1 X163.395
G1 X163.569Y230.231
G1 X163.699Y230.27
G1 X163.823Y230.311
G1 X164.175Y230.432
G1 X164.41Y230.498
G1 X164.533Y230.522
G1 X164.662Y230.54
G1 X164.798
G1 X164.943
G1 X165.02
G1 X165.099
G1 X165.182Y230.524
G1 X165.268Y230.51
G1 X165.358Y230.492
G1 X165.499Y230.459
G1 X165.518
G1 X165.535Y230.411
G1 X165.584Y230.283
G1 X165.614Y230.185
G1 X165.637Y230.089
G1 X165.654Y229.993
G1 X165.665Y229.896
G1 Y229.798
G1 X165.677Y229.697
G1 Y229.364
G1 X165.688Y229.105
G1 Y228.96
G1 X165.706Y228.804
G1 X165.724Y228.614
G1 X165.734Y228.6
G1 X165.997
G1 X166.126
G1 X166.451Y228.628
G1 X166.546
G1 X166.639
G1 X166.731Y228.612
G1 X166.826Y228.59
G1 X166.925Y228.557
G1 X166.977Y228.535
G1 X167.031Y228.511
G1 X167.087Y228.482
G1 X167.146Y228.45
G1 X167.208Y228.413
G1 X167.273Y228.372
G1 X167.414Y228.275
G1 X167.571Y228.159
G1 X167.583Y228.101
G1 Y228.045
G1 Y227.822
G1 X167.553Y227.598
G1 X167.522Y227.368
G1 X167.481Y227.126
G1 X167.456Y226.999
G1 X167.399Y226.732
G1 X167.278Y226.204
G1 Y226.132
G1 X167.65
G1 X167.867Y226.119
G1 X167.97
G1 X168.071Y226.103
G1 X168.173Y226.09
G1 X168.277Y226.071
G1 X168.386Y226.047
G1 X168.499Y226.016
G1 X168.62Y225.977
G1 X168.751Y225.93
G1 X168.82Y225.903
G1 X168.967Y225.842
G1 X169.171Y225.75
G1 Y225.736
G1 Y225.658
G1 Y225.595
G1 X169.15Y225.467
G1 X169.125Y225.338
G1 X169.094Y225.208
G1 X169.058Y225.076
G1 X168.977Y224.811
G1 X168.799Y224.27
G1 X168.719Y223.996
G1 X168.685Y223.859
G1 X168.656Y223.722
G1 X168.64Y223.636
G1 X168.725Y223.623
G1 X169.214Y223.598
G1 X169.329
G1 X169.445Y223.576
G1 X169.562Y223.559
G1 X169.68Y223.535
G1 X169.8Y223.504
G1 X169.92Y223.465
G1 X170.04Y223.416
G1 X170.16Y223.356
G1 X170.281Y223.285
G1 X170.401Y223.2
G1 X170.461Y223.152
G1 Y223.12
G1 Y222.961
G1 Y222.716
G1 X170.434Y222.478
G1 X170.419Y222.359
G1 X170.4Y222.24
G1 X170.378Y222.119
G1 X170.352Y221.996
G1 X170.321Y221.87
G1 X170.287Y221.739
G1 X170.248Y221.604
G1 X170.205Y221.464
G1 X170.157Y221.317
G1 X170.083Y221.103
G1 X170.622Y220.971
G1 X170.802Y220.924
G1 X170.986Y220.864
G1 X171.081Y220.827
G1 X171.18Y220.785
G1 X171.283Y220.736
G1 X171.39Y220.68
G1 X171.504Y220.615
G1 X171.655Y220.521
G1 Y220.506
G1 Y220.307
G1 X171.641Y220.068
G1 X171.614Y219.831
G1 X171.596Y219.711
G1 X171.575Y219.591
G1 X171.55Y219.468
G1 X171.522Y219.342
G1 X171.49Y219.212
G1 X171.455Y219.079
G1 X171.375Y218.797
G1 X171.274Y218.47
G1 X171.29
G1 X171.459Y218.416
G1 X172.272Y218.2
G1 X172.373Y218.17
G1 X172.468Y218.139
G1 X172.556Y218.107
G1 X172.639Y218.073
G1 X172.715Y218.035
G1 X172.785Y217.995
G1 X172.85Y217.95
G1 X172.908Y217.901
G1 X172.961Y217.847
G1 X173.008Y217.787
G1 X173.049Y217.721
G1 X173.084Y217.648
G1 X173.114Y217.567
G1 X173.138Y217.478
G1 X173.157Y217.38
G1 X173.171Y217.273
G1 Y217.156
G1 X173.182Y217.028
G1 Y216.889
G1 X173.172Y216.738
G1 X173.159Y216.575
G1 X173.141Y216.398
G1 X173.118Y216.208
G1 X173.091Y216.004
G1 X173.359Y215.903
G1 X173.486Y215.852
G1 X173.55Y215.824
G1 X173.615Y215.792
G1 X173.682Y215.756
G1 X173.751Y215.715
G1 X173.822Y215.668
G1 X173.897Y215.614
G1 X173.976Y215.553
G1 X174.102Y215.444
G1 X174.217Y215.336
G1 X174.228Y215.304
G1 Y215.025
G1 Y214.808
G1 Y214.634
G1 X174.217Y214.485
G1 X174.199Y214.343
G1 X174.171Y214.19
G1 X174.09Y213.813
G1 X174.25
G1 X174.682
G1 X174.977
G1 X175.243Y213.796
G1 X175.257
G1 Y213.773
G1 X175.302Y213.708
G1 X175.329Y213.632
G1 X175.349Y213.544
G1 X175.362Y213.447
G1 Y213.342
G1 Y213.229
G1 Y213.11
G1 X175.351Y212.987
G1 X175.334Y212.86
G1 X175.312Y212.73
G1 X175.285Y212.6
G1 X175.253Y212.469
G1 X175.218Y212.339
G1 X175.178Y212.212
G1 X175.124Y212.057
G1 Y212.03
G1 X175.354Y211.895
G1 X175.456Y211.832
G1 X175.547Y211.767
G1 X175.638Y211.693
G1 X175.742Y211.599
G1 X176.056Y211.295
G1 Y211.277
G1 X176.015Y211.252
G1 X175.975Y211.234
G1 X175.923Y211.218
G1 X175.86Y211.204
G1 X175.737Y211.184
G1 X175.446Y211.148
G1 X174.695Y211.062
G1 X174.159Y210.996
G1 X173.844Y210.955
G1 X173.777Y210.944
G1 Y210.743
G1 X173.791Y210.624
G1 Y210.565
G1 X173.814Y210.476
G1 X174.36Y210.606
G1 X174.961Y210.741
G1 X176.57Y211.089
G1 X177.234Y211.236
G1 X177.898Y211.391
G1 X178.553Y211.555
G1 X178.854Y211.636
G1 X178.866Y211.653
G1 X178.884Y211.671
G1 X178.914Y211.691
G1 X178.935Y211.703
G1 X179.037Y211.75
G1 X179.21Y211.819
G1 X179.72Y212.008
G1 X180.387Y212.247
G1 X183.218Y213.246
G1 X183.33Y213.295
G1 X183.921Y213.592
G1 X184.391Y213.832
G1 X184.858Y214.075
G1 X185.322Y214.321
G1 X185.784Y214.571
G1 X186.242Y214.824
G1 X186.698Y215.081
G1 X187.151Y215.342
G1 X187.601Y215.606
G1 X188.048Y215.874
G1 X188.492Y216.147
G1 X188.934Y216.423
G1 X189.372Y216.704
G1 X189.807Y216.99
G1 X190.239Y217.279
G1 X190.668Y217.574
G1 X191.093Y217.873
G1 X191.516Y218.178
G1 X191.935Y218.487
G1 X192.351Y218.801
G1 X192.764Y219.121
G1 X193.173Y219.447
G1 X193.579Y219.777
G1 X193.982Y220.114
G1 X194.381Y220.456
G1 X194.777Y220.804
G1 X195.169Y221.159
G1 X195.558Y221.519
G1 X195.944Y221.886
G1 X196.326Y222.259
G1 X196.515Y222.448
G1 X196.832Y222.768
G1 X196.885Y222.797
G1 X196.93Y222.831
G1 X196.983Y222.877
G1 X197.013Y222.907
G1 X197.124Y223.023
G1 X197.334Y223.259
G1 X198.071Y224.112
G1 X198.652Y224.782
G1 X199.633Y225.898
G1 X199.693Y225.985
G1 X199.847Y226.227
G1 X199.948Y226.392
G1 X200.147Y226.726
G1 X200.341Y227.066
G1 X201.107Y228.454
G1 X201.302Y228.799
G1 X201.501Y229.141
G1 X201.705Y229.477
G1 X201.917Y229.806
G1 X202.136Y230.127
G1 X202.365Y230.437
G1 X202.483Y230.587
G1 X202.605Y230.735
G1 X202.729Y230.879
G1 X202.856Y231.019
G1 X202.958Y231.126
G1 Y231.136
G1 X202.745Y231.32
G0 X202.445Y221.853
G1 X202.656
G1 X202.871Y221.834
G1 X203.089Y221.82
G1 X203.311Y221.801
G1 X203.764Y221.756
G1 X204.228Y221.702
G1 X204.701Y221.639
G1 X205.182Y221.571
G1 X206.652Y221.353
G1 X207.145Y221.283
G1 X207.637Y221.217
G1 X208.126Y221.158
G1 X208.369Y221.132
G1 X208.611Y221.108
G1 X208.897Y221.083
G1 X208.617Y220.986
G1 X208.415Y220.922
G1 X208.213Y220.863
G1 X208.009Y220.809
G1 X207.806Y220.76
G1 X207.602Y220.714
G1 X207.192Y220.636
G1 X206.782Y220.573
G1 X206.372Y220.522
G1 X205.963Y220.482
G1 X205.554Y220.452
G1 X205.148Y220.429
G1 X204.744Y220.412
G1 X204.344Y220.398
G1 X203.169Y220.365
G1 X202.788Y220.351
G1 X202.614Y220.397
G1 X202.441Y220.44
G1 X202.097Y220.52
G1 X201.504Y220.649
G1 Y220.871
G1 Y220.975
G1 Y221.067
G1 X201.515Y221.15
G1 X201.526Y221.224
G1 X201.539Y221.292
G1 X201.556Y221.356
G1 X201.577Y221.416
G1 X201.6Y221.476
G1 X201.628Y221.536
G1 X201.659Y221.598
G1 X201.796Y221.847
G1 X201.812
G1 X202.035
G1 X202.238Y221.857
G1 X202.445
G1 X202.656Y221.846
G1 X202.533
G0 X202.735Y218.803
G1 X203.561
G1 X203.98Y218.817
G1 X204.403Y218.827
G1 X204.829Y218.842
G1 X205.259Y218.862
G1 X205.692Y218.887
G1 X206.129Y218.919
G1 X206.568Y218.959
G1 X206.789Y218.982
G1 X207.955Y219.289
G1 X208.622Y219.462
G1 X209.291Y219.632
G1 X210.632Y219.968
G1 X211.983Y220.302
G1 X212.618Y220.57
G1 X212.824Y220.653
G1 X212.907Y220.683
G1 X212.98Y220.708
G1 X213.046Y220.728
G1 X213.107Y220.744
G1 X213.222Y220.766
G1 X213.344Y220.781
G1 X213.452
G1 X213.412Y220.677
G1 X213.366Y220.565
G1 X213.313Y220.455
G1 X213.253Y220.347
G1 X213.188Y220.24
G1 X213.117Y220.136
G1 X213.04Y220.033
G1 X212.958Y219.932
G1 X212.871Y219.832
G1 X212.778Y219.734
G1 X212.681Y219.638
G1 X212.579Y219.544
G1 X212.472Y219.452
G1 X212.361Y219.361
G1 X212.246Y219.272
G1 X212.127Y219.184
G1 X212.004Y219.098
G1 X211.878Y219.014
G1 X211.616Y218.85
G1 X211.341Y218.693
G1 X211.056Y218.542
G1 X210.762Y218.398
G1 X210.46Y218.26
G1 X210.152Y218.127
G1 X209.84Y218.001
G1 X209.525Y217.881
G1 X209.209Y217.766
G1 X208.893Y217.657
G1 X208.578Y217.554
G1 X208.267Y217.457
G1 X207.96Y217.364
G1 X207.659Y217.278
G1 X207.366Y217.196
G1 X207.082Y217.12
G1 X206.547Y216.982
G1 X206.067Y216.864
G1 X205.654Y216.765
G1 X204.957Y216.753
G1 X204.17Y216.729
G1 X202.611Y216.667
G1 X201.478Y216.883
G1 X201.102Y216.96
G1 X200.946Y216.994
G1 X200.804Y217.028
G1 X200.547Y217.096
G1 X200.293Y217.173
G1 X200.156Y217.218
G1 X199.748Y217.357
G1 Y217.422
G1 Y217.545
G1 X199.77Y217.658
G1 X199.791Y217.763
G1 X199.819Y217.86
G1 X199.853Y217.95
G1 X199.892Y218.036
G1 X199.935Y218.118
G1 X199.982Y218.197
G1 X200.085Y218.353
G1 X200.194Y218.512
G1 X200.249Y218.596
G1 X200.305Y218.685
G1 X200.359Y218.78
G1 X200.551
G1 X201.133Y218.795
G1 X201.527
G1 X202.735
G1 X203.035Y218.806
G0 X203.742Y214.482
G1 X204.779Y214.625
G1 X205.241Y214.694
G1 X205.705Y214.769
G1 X206.17Y214.849
G1 X206.635Y214.936
G1 X207.103Y215.031
G1 X207.571Y215.136
G1 X208.042Y215.25
G1 X208.514Y215.374
G1 X208.987Y215.511
G1 X209.463Y215.661
G1 X209.94Y215.825
G1 X210.18Y215.912
G1 X210.42Y216.003
G1 X210.66Y216.098
G1 X210.901Y216.198
G1 X210.981
G1 X211.053Y216.184
G1 X211.119Y216.165
G1 X211.179Y216.139
G1 X211.232Y216.107
G1 X211.28Y216.068
G1 X211.322Y216.023
G1 X211.359Y215.972
G1 X211.39Y215.916
G1 X211.417Y215.855
G1 X211.44Y215.79
G1 X211.458Y215.721
G1 X211.472Y215.648
G1 X211.482Y215.571
G1 Y215.492
G1 X211.492Y215.41
G1 Y215.24
G1 X211.479Y215.064
G1 X211.459Y214.886
G1 X211.434Y214.708
G1 X211.405Y214.534
G1 X211.336Y214.17
G1 Y214.154
G1 X211.059Y214.024
G1 X210.894Y213.952
G1 X210.73Y213.886
G1 X210.566Y213.826
G1 X210.402Y213.771
G1 X210.238Y213.721
G1 X210.075Y213.675
G1 X209.912Y213.634
G1 X209.749Y213.598
G1 X209.586Y213.565
G1 X209.261Y213.511
G1 X208.938Y213.47
G1 X208.617Y213.44
G1 X208.296Y213.419
G1 X207.978Y213.406
G1 X207.661
G1 X206.724Y213.383
G1 X206.416
G1 X205.168Y213.59
G1 X204.774Y213.662
G1 X204.487Y213.72
G1 X204.372Y213.747
G1 X204.27Y213.773
G1 X204.178Y213.8
G1 X204.09Y213.827
G1 X204.002Y213.858
G1 X203.782Y213.939
G1 X203.732Y214.185
G1 X203.714Y214.325
G1 Y214.392
G1 X203.704Y214.475
G1 X203.742
G1 X204.039Y214.523
G0 X202.139Y214.137
G1 X202.122Y213.122
G1 X202.112Y212.729
G1 Y212.547
G1 X202.092Y212.374
G1 X202.077Y212.211
G1 X202.057Y212.057
G1 X202.033Y211.91
G1 X202.002Y211.773
G1 X201.965Y211.642
G1 X201.921Y211.519
G1 X201.869Y211.403
G1 X201.809Y211.294
G1 X201.739Y211.191
G1 X201.66Y211.093
G1 X201.569Y211.001
G1 X201.467Y210.914
G1 X201.354Y210.832
G1 X201.227Y210.754
G1 X201.087Y210.68
G1 X200.933Y210.61
G1 X200.851Y210.576
G1 X200.765Y210.543
G1 X200.58Y210.479
G1 X200.38Y210.417
G1 X200.162Y210.358
G1 X199.928Y210.3
G1 X199.674Y210.243
G1 X198.981Y210.711
G1 X198.728Y210.884
G1 X198.473Y211.065
G1 X198.219Y211.253
G1 X197.971Y211.445
G1 X197.734Y211.642
G1 X197.62Y211.742
G1 X197.512Y211.843
G1 X197.408Y211.944
G1 X197.309Y212.046
G1 X197.217Y212.148
G1 X197.132Y212.251
G1 X197.053Y212.353
G1 X196.983Y212.456
G1 X196.921Y212.558
G1 X196.867Y212.66
G1 X196.824Y212.762
G1 X196.79Y212.864
G1 X196.767Y212.964
G1 X196.755Y213.065
G1 Y213.089
G1 Y213.111
G1 X198.315Y215.086
G1 X198.342Y215.106
G1 X198.371
G1 X198.474Y215.095
G1 X198.556Y215.084
G1 X198.648Y215.068
G1 X198.858Y215.025
G1 X199.097Y214.969
G1 X199.362Y214.903
G1 X199.792Y214.789
G1 X200.093Y214.705
G1 X201.29Y214.367
G1 X201.806Y214.226
G1 X201.919Y214.197
G1 X202.132Y214.145
G1 Y213.837
G0 X203.709Y212.117
G1 X203.876
G1 X204.219Y212.094
G1 X204.585Y212.064
G1 X204.793Y212.045
G1 X205.497Y211.975
G1 X206.284Y211.89
G1 X207.107Y211.794
G1 X207.651Y211.727
G1 X208.428Y211.626
G1 X209.112Y211.53
G1 X209.494Y211.471
G1 X209.863Y211.406
G1 X210.016Y211.372
G1 X210.124Y211.325
G1 X210.226Y211.274
G1 X210.321Y211.218
G1 X210.41Y211.158
G1 X210.493Y211.095
G1 X210.569Y211.027
G1 X210.64Y210.956
G1 X210.704Y210.882
G1 X210.762Y210.804
G1 X210.814Y210.723
G1 X210.86Y210.639
G1 X210.9Y210.552
G1 X210.934Y210.462
G1 X210.962Y210.37
G1 X210.985Y210.275
G1 X211.001Y210.178
G1 X211.011Y210.079
G1 Y209.977
G1 Y209.874
G1 Y209.769
G1 X210.995Y209.662
G1 X210.977Y209.554
G1 X210.952Y209.445
G1 X210.923Y209.334
G1 X210.887Y209.223
G1 X210.846Y209.11
G1 X210.8Y208.997
G1 X210.748Y208.883
G1 X210.69Y208.769
G1 X210.628Y208.654
G1 X210.581Y208.578
G1 X210.212Y208.52
G1 X209.298Y208.374
G1 X209.076Y208.431
G1 X208.859Y208.49
G1 X208.646Y208.552
G1 X208.437Y208.615
G1 X208.233Y208.681
G1 X208.032Y208.748
G1 X207.835Y208.818
G1 X207.642Y208.889
G1 X207.265Y209.038
G1 X206.9Y209.194
G1 X206.545Y209.356
G1 X206.197Y209.525
G1 X205.857Y209.7
G1 X205.521Y209.88
G1 X205.189Y210.066
G1 X204.858Y210.256
G1 X204.527Y210.451
G1 X203.753Y210.916
G1 X203.73Y211.134
G1 Y211.293
G1 X203.709Y211.608
G1 Y212.113
G1 X203.876
G1 X203.842
G0 X203.353Y209.279
G1 X203.368
G1 X203.932Y208.93
G1 X204.272Y208.718
G1 X204.644Y208.478
G1 X204.905Y208.304
G1 X205.172Y208.121
G1 X205.444Y207.928
G1 X205.716Y207.726
G1 X205.987Y207.516
G1 X206.253Y207.3
G1 X206.511Y207.077
G1 X206.759Y206.849
G1 X206.993Y206.616
G1 X207.104Y206.498
G1 X207.211Y206.379
G1 X207.313Y206.26
G1 X207.409Y206.139
G1 X207.501Y206.019
G1 X207.586Y205.897
G1 X207.665Y205.776
G1 X207.737Y205.654
G1 X207.803Y205.532
G1 X207.861Y205.409
G1 X207.911Y205.287
G1 X207.953Y205.165
G1 X207.987Y205.043
G1 X208.012Y204.922
G1 X208.028Y204.801
G1 Y204.68
G1 Y204.56
G1 X208.017Y204.441
G1 X207.993Y204.322
G1 X207.957Y204.204
G1 X207.91Y204.088
G1 X207.852Y203.972
G1 X207.782Y203.858
G1 X207.699Y203.745
G1 X207.603Y203.633
G1 X207.494Y203.523
G1 X207.372Y203.414
G1 X207.236Y203.307
G1 X207.085Y203.202
G1 X206.92Y203.099
G1 X206.849Y203.058
G1 X206.632
G1 X206.36Y203.035
G1 X205.816Y202.983
G1 X205.634Y203.07
G1 X205.453Y203.171
G1 X205.27Y203.287
G1 X205.088Y203.417
G1 X204.907Y203.558
G1 X204.726Y203.711
G1 X204.546Y203.875
G1 X204.369Y204.048
G1 X204.193Y204.23
G1 X204.02Y204.42
G1 X203.85Y204.616
G1 X203.683Y204.818
G1 X203.52Y205.025
G1 X203.362Y205.236
G1 X203.208Y205.45
G1 X203.059Y205.666
G1 X202.916Y205.884
G1 X202.778Y206.101
G1 X202.647Y206.318
G1 X202.523Y206.533
G1 X202.406Y206.745
G1 X202.297Y206.954
G1 X202.195Y207.159
G1 X202.102Y207.358
G1 X202.018Y207.551
G1 X201.943Y207.736
G1 X201.878Y207.914
G1 X201.823Y208.082
G1 X201.8Y208.162
G1 X201.761Y208.315
G1 X201.739Y208.422
G1 Y208.446
G1 X201.966Y208.585
G1 X202.076Y208.659
G1 X202.442Y208.921
G1 X202.612Y209.031
G1 X202.703Y209.08
G1 X202.799Y209.125
G1 X202.904Y209.167
G1 X203.02Y209.204
G1 X203.083Y209.222
G1 X203.22Y209.254
G1 X203.353Y209.279
G1 X203.368
G1 X203.597Y209.132
G0 X199.022Y207.678
G1 X199.123Y207.542
G1 X199.213Y207.404
G1 X199.292Y207.262
G1 X199.357Y207.116
G1 X199.41Y206.964
G1 X199.448Y206.807
G1 X199.462Y206.726
G1 X199.473Y206.643
G1 Y206.558
G1 Y206.471
G1 Y206.381
G1 Y206.29
G1 Y206.196
G1 X199.456Y206.1
G1 X199.439Y206.001
G1 X199.418Y205.899
G1 X199.393Y205.795
G1 X199.363Y205.687
G1 X199.329Y205.577
G1 X199.291Y205.463
G1 X199.248Y205.347
G1 X199.201Y205.227
G1 X199.149Y205.103
G1 X199.092Y204.976
G1 X199.031Y204.846
G1 X198.929Y204.643
G1 Y204.632
G1 X198.839Y204.6
G1 X198.645Y204.529
G1 X198.574Y204.506
G1 X198.503Y204.486
G1 X198.428Y204.469
G1 X198.347Y204.453
G1 X198.256Y204.438
G1 X198.153Y204.425
G1 X197.898Y204.397
G1 X197.557Y204.366
G1 X197.108Y204.328
G1 X196.912Y204.407
G1 X196.719Y204.495
G1 X196.529Y204.591
G1 X196.341Y204.696
G1 X196.156Y204.808
G1 X195.975Y204.928
G1 X195.797Y205.054
G1 X195.623Y205.188
G1 X195.453Y205.327
G1 X195.288Y205.472
G1 X195.127Y205.623
G1 X194.971Y205.779
G1 X194.821Y205.94
G1 X194.676Y206.105
G1 X194.537Y206.273
G1 X194.404Y206.446
G1 X194.278Y206.621
G1 X194.159Y206.799
G1 X194.046Y206.98
G1 X193.941Y207.162
G1 X193.843Y207.346
G1 X193.753Y207.531
G1 X193.672Y207.717
G1 X193.599Y207.904
G1 X193.534Y208.09
G1 X193.479Y208.276
G1 X193.433Y208.461
G1 X193.397Y208.646
G1 X193.37Y208.828
G1 X193.354Y209.009
G1 Y209.054
G1 Y209.163
G1 X193.871Y209.776
G1 X194.329Y210.304
G1 X195.114Y211.197
G1 X195.489
G1 X196.019Y210.547
G1 X196.301Y210.207
G1 X196.537Y209.932
G1 X196.587Y209.878
G1 X196.897Y209.591
G1 X197.099Y209.412
G1 X197.297Y209.241
G1 X197.49Y209.078
G1 X198.2Y208.485
G1 X198.359Y208.347
G1 X198.51Y208.212
G1 X198.653Y208.078
G1 X198.786Y207.945
G1 X198.909Y207.812
G1 X199.022Y207.678
G1 X199.123Y207.542
G1 X199.096Y207.571
G0 X201.345Y204.221
G1 X201.657
G1 X201.968Y203.825
G1 X202.253Y203.468
G1 X202.565Y203.072
G1 X202.725Y202.863
G1 X202.887Y202.648
G1 X203.046Y202.428
G1 X203.201Y202.203
G1 X203.351Y201.977
G1 X203.493Y201.749
G1 X203.625Y201.52
G1 X203.745Y201.293
G1 X203.8Y201.18
G1 X203.85Y201.067
G1 X203.897Y200.956
G1 X203.94Y200.845
G1 X203.978Y200.735
G1 X204.011Y200.627
G1 X204.039Y200.52
G1 X204.062Y200.415
G1 X204.079Y200.311
G1 X204.09Y200.209
G1 Y200.109
G1 Y200.011
G1 Y199.916
G1 X204.07Y199.823
G1 X204.048Y199.732
G1 X204.019Y199.644
G1 X203.981Y199.559
G1 X203.936Y199.477
G1 X203.882Y199.398
G1 X203.82Y199.323
G1 X203.75Y199.251
G1 X203.67Y199.182
G1 X203.581Y199.117
G1 X203.482Y199.056
G1 X203.374Y198.999
G1 X203.255Y198.946
G1 X203.127Y198.898
G1 X202.987Y198.854
G1 X202.837Y198.814
G1 X202.676Y198.779
G1 X202.504Y198.75
G1 X202.319Y198.725
G1 X202.066Y198.905
G1 X201.824Y199.093
G1 X201.594Y199.288
G1 X201.375Y199.489
G1 X201.167Y199.695
G1 X200.968Y199.905
G1 X200.779Y200.119
G1 X200.599Y200.335
G1 X200.426Y200.553
G1 X200.262Y200.771
G1 X200.104Y200.988
G1 X199.953Y201.204
G1 X199.808Y201.418
G1 X199.501Y201.885
G1 X199.491Y201.906
G1 X199.508Y201.973
G1 X199.543Y202.073
G1 X199.589Y202.164
G1 X199.643Y202.248
G1 X199.705Y202.325
G1 X199.774Y202.397
G1 X199.849Y202.464
G1 X199.929Y202.528
G1 X200.013Y202.59
G1 X200.371Y202.833
G1 X200.46Y202.898
G1 X200.549Y202.967
G1 X200.592Y203.004
G1 X200.622Y203.043
G1 X200.863Y203.445
G1 X201.152Y203.917
G1 X201.345Y204.221
G1 X201.645
G0 X195.351Y202.353
G1 X195.417Y202.257
G1 X195.479Y202.161
G1 X195.535Y202.064
G1 X195.587Y201.967
G1 X195.634Y201.87
G1 X195.674Y201.773
G1 X195.709Y201.675
G1 X195.738Y201.577
G1 X195.761Y201.478
G1 X195.777Y201.38
G1 Y201.281
G1 X195.789Y201.181
G1 Y201.082
G1 X195.771Y200.982
G1 X195.75Y200.882
G1 X195.722Y200.781
G1 X195.685Y200.68
G1 X195.639Y200.579
G1 X195.585Y200.478
G1 X195.521Y200.376
G1 X195.448Y200.275
G1 X195.366Y200.173
G1 X195.273Y200.07
G1 X195.171Y199.968
G1 X195.058Y199.865
G1 X194.934Y199.762
G1 X194.8Y199.658
G1 X194.654Y199.555
G1 X194.497Y199.451
G1 X194.179
G1 X193.814Y199.424
G1 X193.086Y199.371
G1 X192.872Y199.491
G1 X192.667Y199.61
G1 X192.296Y199.834
G1 X192.23Y199.915
G1 X191.893Y200.318
G1 X191.618Y200.634
G1 X191.338Y200.945
G1 X191.054Y201.248
G1 X190.765Y201.545
G1 X190.473Y201.833
G1 X190.178Y202.112
G1 X189.879Y202.382
G1 X189.578Y202.641
G1 X189.274Y202.889
G1 X188.969Y203.125
G1 X188.661Y203.348
G1 X188.351Y203.558
G1 X188.041Y203.754
G1 X187.885Y203.846
G1 X187.73Y203.935
G1 X187.711Y204.025
G1 X187.678Y204.202
G1 X187.665Y204.311
G1 Y204.374
G1 X188.518Y204.975
G1 X188.885Y205.237
G1 X189.219Y205.483
G1 X189.564Y205.745
G1 X189.966Y206.057
G1 X191.114Y206.964
G1 X191.146Y206.947
G1 X191.178Y206.925
G1 X191.211Y206.899
G1 X191.246Y206.869
G1 X191.317Y206.798
G1 X191.392Y206.713
G1 X191.469Y206.616
G1 X191.549Y206.509
G1 X191.63Y206.393
G1 X191.711Y206.271
G1 X191.794Y206.144
G1 X191.875Y206.013
G1 X192.036Y205.748
G1 X192.295Y205.31
G1 X192.368Y205.227
G1 X192.445Y205.143
G1 X192.608Y204.975
G1 X192.785Y204.805
G1 X192.972Y204.633
G1 X193.167Y204.459
G1 X193.99Y203.749
G1 X194.196Y203.568
G1 X194.398Y203.385
G1 X194.595Y203.2
G1 X194.783Y203.014
G1 X194.962Y202.827
G1 X195.128Y202.638
G1 X195.206Y202.543
G1 X195.281Y202.448
G1 X195.351Y202.353
G1 X195.417Y202.257
G1 X195.453Y202.2
G0 X197.942Y200.121
G1 X198.023Y200.142
G1 X198.348Y200.22
G1 X198.808Y199.681
G1 X199.046Y199.392
G1 X199.279Y199.091
G1 X199.392Y198.937
G1 X199.501Y198.78
G1 X199.605Y198.62
G1 X199.703Y198.458
G1 X199.795Y198.294
G1 X199.88Y198.128
G1 X199.956Y197.959
G1 X200.023Y197.789
G1 X200.08Y197.617
G1 X200.126Y197.443
G1 X200.161Y197.267
G1 X200.182Y197.09
G1 Y196.911
G1 Y196.732
G1 Y196.641
G1 X200.161Y196.551
G1 X200.143Y196.46
G1 X200.122Y196.368
G1 X200.096Y196.277
G1 X200.066Y196.185
G1 X200.031Y196.093
G1 X199.992Y196.001
G1 X199.948Y195.909
G1 X199.899Y195.816
G1 X199.845Y195.724
G1 X199.786Y195.631
G1 X199.722Y195.538
G1 X199.652Y195.445
G1 X199.577Y195.352
G1 X199.497Y195.258
G1 X199.411Y195.165
G1 X199.378Y195.134
G1 X197.844Y195.022
G1 X197.301Y195.512
G1 X197.117Y195.681
G1 X196.935Y195.853
G1 X196.758Y196.026
G1 X196.588Y196.202
G1 X196.427Y196.378
G1 X196.279Y196.556
G1 X196.145Y196.733
G1 X196.084Y196.822
G1 X196.028Y196.911
G1 X195.976Y197
G1 X195.93Y197.089
G1 X195.889Y197.177
G1 X195.854Y197.265
G1 X195.825Y197.353
G1 X195.802Y197.441
G1 X195.785Y197.528
G1 Y197.615
G1 X195.774Y197.669
G1 X196.104Y197.917
G1 X196.29Y198.059
G1 X196.466Y198.2
G1 X196.633Y198.34
G1 X196.791Y198.481
G1 X196.941Y198.623
G1 X197.082Y198.769
G1 X197.217Y198.92
G1 X197.343Y199.075
G1 X197.463Y199.238
G1 X197.577Y199.408
G1 X197.684Y199.588
G1 X197.785Y199.778
G1 X197.88Y199.98
G1 X197.942Y200.121
G1 X198.023Y200.142
G1 X198.152Y200.172
G0 X193.902Y196.706
G1 X193.962Y196.62
G1 X194.341Y196.09
G1 X194.513Y195.84
G1 X194.685Y195.573
G1 X194.85Y195.293
G1 X194.927Y195.149
G1 X195Y195.002
G1 X195.068Y194.854
G1 X195.129Y194.704
G1 X195.183Y194.554
G1 X195.229Y194.403
G1 X195.265Y194.252
G1 X195.292Y194.101
G1 X195.307Y193.951
G1 Y193.803
G1 Y193.656
G1 X195.278Y193.51
G1 X195.261Y193.439
G1 X195.24Y193.368
G1 X195.215Y193.297
G1 X195.187Y193.228
G1 X195.154Y193.159
G1 X195.117Y193.091
G1 X195.075Y193.024
G1 X195.029Y192.958
G1 X194.978Y192.893
G1 X194.923Y192.829
G1 X194.863Y192.766
G1 X194.798Y192.705
G1 X194.727Y192.644
G1 X194.7Y192.623
G1 X194.516Y192.569
G1 X194.193Y192.478
G1 X194.026Y192.436
G1 X193.875Y192.405
G1 X193.718Y192.381
G1 X193.535Y192.359
G1 X193.169Y192.323
G1 X192.961Y192.449
G1 X192.758Y192.586
G1 X192.56Y192.73
G1 X192.367Y192.88
G1 X192.18Y193.033
G1 X191.998Y193.188
G1 X191.822Y193.341
G1 X191.331Y193.777
G1 X191.179Y193.907
G1 X191.035Y194.024
G1 X190.897Y194.129
G1 X190.831Y194.175
G1 X190.767Y194.217
G1 X190.704Y194.255
G1 X190.613Y194.302
G1 Y194.313
G1 Y194.331
G1 Y194.403
G1 X190.624Y194.476
G1 X190.645Y194.552
G1 X190.672Y194.628
G1 X190.707Y194.706
G1 X190.747Y194.785
G1 X190.792Y194.865
G1 X190.843Y194.946
G1 X190.898Y195.028
G1 X191.019Y195.194
G1 X191.153Y195.361
G1 X191.295Y195.531
G1 X191.736Y196.037
G1 X191.875Y196.203
G1 X192.004Y196.366
G1 X192.064Y196.447
G1 X192.119Y196.526
G1 X192.17Y196.604
G1 X192.216Y196.681
G1 X192.266Y196.775
G1 X192.278
G1 X193.902Y196.706
G1 X193.962Y196.62
G1 X194.015Y196.547
G0 X189.799Y197.456
G1 X189.713Y197.288
G1 X189.621Y197.129
G1 X189.523Y196.98
G1 X189.418Y196.841
G1 X189.308Y196.711
G1 X189.192Y196.59
G1 X189.071Y196.477
G1 X188.943Y196.372
G1 X188.811Y196.275
G1 X188.673Y196.184
G1 X188.53Y196.101
G1 X188.381Y196.024
G1 X188.228Y195.952
G1 X188.07Y195.886
G1 X187.906Y195.826
G1 X187.738Y195.77
G1 X187.566Y195.718
G1 X187.389Y195.671
G1 X187.207Y195.626
G1 X187.021Y195.585
G1 X186.831Y195.547
G1 X186.637Y195.511
G1 X186.439Y195.477
G1 X186.237Y195.445
G1 X185.821Y195.383
G1 X185.523Y195.458
G1 X185.238Y195.54
G1 X184.965Y195.63
G1 X184.703Y195.727
G1 X184.453Y195.831
G1 X184.214Y195.942
G1 X183.985Y196.061
G1 X183.766Y196.186
G1 X183.556Y196.317
G1 X183.354Y196.455
G1 X183.161Y196.599
G1 X182.976Y196.75
G1 X182.797Y196.905
G1 X182.626Y197.067
G1 X182.46Y197.234
G1 X182.3Y197.406
G1 X182.145Y197.583
G1 X181.995Y197.765
G1 X181.849Y197.952
G1 X181.706Y198.143
G1 X181.566Y198.339
G1 X181.429Y198.539
G1 X181.294Y198.742
G1 X181.161Y198.95
G1 X180.896Y199.376
G1 X180.631Y199.814
G1 X180.271Y200.419
G1 Y200.508
G1 Y200.629
G1 Y200.685
G1 X180.29Y200.728
G1 X180.309Y200.765
G1 X180.337Y200.801
G1 X180.39Y200.857
G1 X181.681Y201.325
G1 X182.235Y201.53
G1 X182.698Y201.708
G1 X182.912Y201.793
G1 X183.126Y201.881
G1 X183.579Y202.074
G1 X184.116Y202.309
G1 X184.795Y202.61
G1 X184.872
G1 X184.952
G1 X185.034Y202.597
G1 X185.119Y202.586
G1 X185.297Y202.555
G1 X185.483Y202.511
G1 X185.678Y202.455
G1 X185.879Y202.387
G1 X186.087Y202.308
G1 X186.299Y202.219
G1 X186.515Y202.12
G1 X186.734Y202.011
G1 X186.955Y201.892
G1 X187.176Y201.765
G1 X187.397Y201.63
G1 X187.617Y201.487
G1 X187.834Y201.337
G1 X188.048Y201.18
G1 X188.257Y201.016
G1 X188.461Y200.847
G1 X188.658Y200.672
G1 X188.847Y200.492
G1 X189.028Y200.308
G1 X189.199Y200.12
G1 X189.359Y199.928
G1 X189.507Y199.734
G1 X189.643Y199.536
G1 X189.764Y199.337
G1 X189.819Y199.237
G1 X189.871Y199.136
G1 X189.918Y199.035
G1 X189.961Y198.934
G1 X190Y198.832
G1 X190.035Y198.731
G1 X190.065Y198.629
G1 X190.09Y198.528
G1 X190.115Y198.401
G1 Y198.383
G1 X190.08Y198.243
G1 X190.02Y198.029
G1 X189.953Y197.827
G1 X189.879Y197.636
G1 X189.799Y197.456
G1 X189.713Y197.288
G1 X189.747Y197.359
G0 X188.816Y193.499
G1 X188.83
G1 X189.391Y192.965
G1 X189.691Y192.665
G1 X189.832Y192.508
G1 X189.964Y192.344
G1 X190.026Y192.259
G1 X190.086Y192.172
G1 X190.143Y192.082
G1 X190.196Y191.989
G1 X190.246Y191.893
G1 X190.293Y191.794
G1 X190.336Y191.691
G1 X190.375Y191.584
G1 X190.41Y191.474
G1 X190.44Y191.359
G1 X190.466Y191.24
G1 X190.487Y191.116
G1 X190.504Y190.988
G1 X190.515Y190.854
G1 Y190.715
G1 Y190.686
G1 X190.441Y190.624
G1 X190.381Y190.582
G1 X190.254Y190.509
G1 X190.12Y190.446
G1 X189.979Y190.392
G1 X189.833Y190.348
G1 X189.683Y190.312
G1 X189.531Y190.283
G1 X189.378Y190.26
G1 X189.226Y190.242
G1 X189.075Y190.228
G1 X188.927
G1 X188.393Y190.19
G1 X188.11Y190.355
G1 X187.815Y190.532
G1 X187.511Y190.722
G1 X187.202Y190.922
G1 X186.892Y191.132
G1 X186.586Y191.351
G1 X186.289Y191.577
G1 X186.003Y191.811
G1 X185.866Y191.93
G1 X185.733Y192.05
G1 X185.606Y192.172
G1 X185.484Y192.295
G1 X185.369Y192.419
G1 X185.26Y192.543
G1 X185.158Y192.669
G1 X185.064Y192.795
G1 X184.979Y192.921
G1 X184.902Y193.048
G1 X184.834Y193.175
G1 X184.776Y193.302
G1 X184.729Y193.43
G1 X184.693Y193.557
G1 X184.682Y193.605
G1 X184.898Y193.556
G1 X185.162Y193.503
G1 X185.422Y193.464
G1 X185.679Y193.436
G1 X185.934Y193.418
G1 X186.188
G1 X186.443Y193.407
G1 X186.7
G1 X186.962Y193.421
G1 X188.076Y193.477
G1 X188.379Y193.489
G1 X188.816
G1 X188.83
G1 X189.025Y193.305
G0 X183.512Y192.157
G1 X183.761Y191.772
G1 X184.559Y190.82
G1 X184.8Y190.526
G1 X184.961Y190.321
G1 X185.04Y190.21
G1 X185.092Y190.126
G1 X185.115Y190.078
G1 X185.133Y190.035
G1 X185.147Y189.992
G1 X185.162Y189.935
G1 X184.85
G1 X184.705Y190
G1 X184.557Y190.077
G1 X184.404Y190.16
G1 X184.249Y190.249
G1 X184.09Y190.341
G1 X183.93Y190.438
G1 X183.768Y190.54
G1 X183.606Y190.645
G1 X183.28Y190.865
G1 X182.957Y191.096
G1 X182.642Y191.337
G1 X182.339Y191.583
G1 X182.194Y191.708
G1 X182.053Y191.833
G1 X181.917Y191.959
G1 X181.788Y192.085
G1 X181.665Y192.21
G1 X181.548Y192.335
G1 X181.44Y192.459
G1 X181.339Y192.581
G1 X181.247Y192.702
G1 X181.165Y192.821
G1 X181.092Y192.938
G1 X181.03Y193.053
G1 X180.978Y193.164
G1 X180.938Y193.273
G1 X180.92Y193.339
G1 X181.254Y193.278
G1 X181.452Y193.245
G1 X181.633Y193.223
G1 X181.821Y193.209
G1 X182.043
G1 X182.324
G1 X182.825
G1 X182.836
G1 X183.145Y192.718
G1 X183.512Y192.157
G1 X183.675Y191.905
G0 X181.114Y195.234
G1 X180.802
G1 X180.535Y195.362
G1 X180.277Y195.493
G1 X180.028Y195.623
G1 X179.788Y195.754
G1 X179.556Y195.885
G1 X179.332Y196.017
G1 X179.117Y196.149
G1 X178.908Y196.283
G1 X178.707Y196.419
G1 X178.513Y196.556
G1 X178.326Y196.696
G1 X178.146Y196.839
G1 X177.972Y196.985
G1 X177.804Y197.135
G1 X177.641Y197.288
G1 X177.485Y197.445
G1 X177.333Y197.607
G1 X177.187Y197.774
G1 X177.045Y197.946
