; LightBurn 1.7.04
; GRBL device profile, absolute coords
; Bounds: X158.75 Y87.41 to X247.25 Y110.59
G00 G17 G40 G21 G54
G90
M4
; Cut @ 2 mm/sec, 100% power
M8
G0 X170.713Y110.594
; Layer C01 Pass 1 of 4
G1 X169.49Y110.574S1000F120
G1 X168.303Y110.515
G1 X167.157Y110.419
G1 X166.058Y110.288
G1 X165.013Y110.124
G1 X164.027Y109.929
G1 X163.106Y109.705
G1 X162.257Y109.454
G1 X161.485Y109.177
G1 X160.797Y108.877
G1 X160.198Y108.556
G1 X159.694Y108.216
G1 X159.48Y108.039
G1 X159.292Y107.858
G1 X159.131Y107.674
G1 X158.998Y107.485
G1 X158.892Y107.294
G1 X158.816Y107.099
G1 X158.77Y106.901
G1 X158.755Y106.701
G1 Y91.271
G1 X158.77Y91.072
G1 X158.817Y90.876
G1 X158.893Y90.682
G1 X158.998Y90.492
G1 X159.132Y90.305
G1 X159.294Y90.121
G1 X159.483Y89.942
G1 X159.698Y89.766
G1 X160.203Y89.429
G1 X160.804Y89.11
G1 X161.495Y88.812
G1 X162.27Y88.538
G1 X163.122Y88.289
G1 X164.046Y88.066
G1 X165.036Y87.873
G1 X166.085Y87.71
G1 X167.188Y87.58
G1 X168.338Y87.485
G1 X169.53Y87.426
G1 X170.757Y87.406
G1 X235.243
G1 X236.47Y87.426
G1 X237.662Y87.485
G1 X238.812Y87.582
G1 X239.915Y87.713
G1 X240.964Y87.878
G1 X241.954Y88.073
G1 X242.878Y88.298
G1 X243.73Y88.55
G1 X244.505Y88.828
G1 X245.196Y89.128
G1 X245.797Y89.45
G1 X246.302Y89.792
G1 X246.517Y89.969
G1 X246.706Y90.151
G1 X246.868Y90.336
G1 X247.002Y90.525
G1 X247.107Y90.717
G1 X247.183Y90.913
G1 X247.23Y91.111
G1 X247.245Y91.312
G1 Y106.715
G1 X247.23Y106.915
G1 X247.183Y107.112
G1 X247.107Y107.306
G1 X247.001Y107.497
G1 X246.866Y107.684
G1 X246.704Y107.868
G1 X246.514Y108.049
G1 X246.299Y108.225
G1 X245.791Y108.564
G1 X245.188Y108.884
G1 X244.494Y109.182
G1 X243.717Y109.458
G1 X242.861Y109.708
G1 X241.934Y109.931
G1 X240.941Y110.126
G1 X239.888Y110.289
G1 X238.781Y110.419
G1 X237.627Y110.515
G1 X236.43Y110.574
G1 X235.199Y110.594
G1 X169.816
; Layer C01 Pass 2 of 4
G1 X235.199
G1 X236.43Y110.574
G1 X237.627Y110.515
G1 X238.781Y110.419
G1 X239.888Y110.289
G1 X240.941Y110.126
G1 X241.934Y109.931
G1 X242.861Y109.708
G1 X243.717Y109.458
G1 X244.494Y109.182
G1 X245.188Y108.884
G1 X245.791Y108.564
G1 X246.299Y108.225
G1 X246.514Y108.049
G1 X246.704Y107.868
G1 X246.866Y107.684
G1 X247.001Y107.497
G1 X247.107Y107.306
G1 X247.183Y107.112
G1 X247.23Y106.915
G1 X247.245Y106.715
G1 Y91.312
G1 X247.23Y91.111
G1 X247.183Y90.913
G1 X247.107Y90.717
G1 X247.002Y90.525
G1 X246.868Y90.336
G1 X246.706Y90.151
G1 X246.517Y89.969
G1 X246.302Y89.792
G1 X245.797Y89.45
G1 X245.196Y89.128
G1 X244.505Y88.828
G1 X243.73Y88.55
G1 X242.878Y88.298
G1 X241.954Y88.073
G1 X240.964Y87.878
G1 X239.915Y87.713
G1 X238.812Y87.582
G1 X237.662Y87.485
G1 X236.47Y87.426
G1 X235.243Y87.406
G1 X170.757
G1 X169.53Y87.426
G1 X168.338Y87.485
G1 X167.188Y87.58
G1 X166.085Y87.71
G1 X165.036Y87.873
G1 X164.046Y88.066
G1 X163.122Y88.289
G1 X162.27Y88.538
G1 X161.495Y88.812
G1 X160.804Y89.11
G1 X160.203Y89.429
G1 X159.698Y89.766
G1 X159.483Y89.942
G1 X159.294Y90.121
G1 X159.132Y90.305
G1 X158.998Y90.492
G1 X158.893Y90.682
G1 X158.817Y90.876
G1 X158.77Y91.072
G1 X158.755Y91.271
G1 Y106.701
G1 X158.77Y106.901
G1 X158.816Y107.099
G1 X158.892Y107.294
G1 X158.998Y107.485
G1 X159.131Y107.674
G1 X159.292Y107.858
G1 X159.48Y108.039
G1 X159.694Y108.216
G1 X160.198Y108.556
G1 X160.797Y108.877
G1 X161.485Y109.177
G1 X162.257Y109.454
G1 X163.106Y109.705
G1 X164.027Y109.929
G1 X165.013Y110.124
G1 X166.058Y110.288
G1 X167.157Y110.419
G1 X168.303Y110.515
G1 X169.49Y110.574
G1 X170.713Y110.594
; Layer C01 Pass 3 of 4
G1 X169.49Y110.574
G1 X168.303Y110.515
G1 X167.157Y110.419
G1 X166.058Y110.288
G1 X165.013Y110.124
G1 X164.027Y109.929
G1 X163.106Y109.705
G1 X162.257Y109.454
G1 X161.485Y109.177
G1 X160.797Y108.877
G1 X160.198Y108.556
G1 X159.694Y108.216
G1 X159.48Y108.039
G1 X159.292Y107.858
G1 X159.131Y107.674
G1 X158.998Y107.485
G1 X158.892Y107.294
G1 X158.816Y107.099
G1 X158.77Y106.901
G1 X158.755Y106.701
G1 Y91.271
G1 X158.77Y91.072
G1 X158.817Y90.876
G1 X158.893Y90.682
G1 X158.998Y90.492
G1 X159.132Y90.305
G1 X159.294Y90.121
G1 X159.483Y89.942
G1 X159.698Y89.766
G1 X160.203Y89.429
G1 X160.804Y89.11
G1 X161.495Y88.812
G1 X162.27Y88.538
G1 X163.122Y88.289
G1 X164.046Y88.066
G1 X165.036Y87.873
G1 X166.085Y87.71
G1 X167.188Y87.58
G1 X168.338Y87.485
G1 X169.53Y87.426
G1 X170.757Y87.406
G1 X235.243
G1 X236.47Y87.426
G1 X237.662Y87.485
G1 X238.812Y87.582
G1 X239.915Y87.713
G1 X240.964Y87.878
G1 X241.954Y88.073
G1 X242.878Y88.298
G1 X243.73Y88.55
G1 X244.505Y88.828
G1 X245.196Y89.128
G1 X245.797Y89.45
G1 X246.302Y89.792
G1 X246.517Y89.969
G1 X246.706Y90.151
G1 X246.868Y90.336
G1 X247.002Y90.525
G1 X247.107Y90.717
G1 X247.183Y90.913
G1 X247.23Y91.111
G1 X247.245Y91.312
G1 Y106.715
G1 X247.23Y106.915
G1 X247.183Y107.112
G1 X247.107Y107.306
G1 X247.001Y107.497
G1 X246.866Y107.684
G1 X246.704Y107.868
G1 X246.514Y108.049
G1 X246.299Y108.225
G1 X245.791Y108.564
G1 X245.188Y108.884
G1 X244.494Y109.182
G1 X243.717Y109.458
G1 X242.861Y109.708
G1 X241.934Y109.931
G1 X240.941Y110.126
G1 X239.888Y110.289
G1 X238.781Y110.419
G1 X237.627Y110.515
G1 X236.43Y110.574
G1 X235.199Y110.594
G1 X169.816
; Layer C01 Pass 4 of 4
G1 X235.199
G1 X236.43Y110.574
G1 X237.627Y110.515
G1 X238.781Y110.419
G1 X239.888Y110.289
G1 X240.941Y110.126
G1 X241.934Y109.931
G1 X242.861Y109.708
G1 X243.717Y109.458
G1 X244.494Y109.182
G1 X245.188Y108.884
G1 X245.791Y108.564
G1 X246.299Y108.225
G1 X246.514Y108.049
G1 X246.704Y107.868
G1 X246.866Y107.684
G1 X247.001Y107.497
G1 X247.107Y107.306
G1 X247.183Y107.112
G1 X247.23Y106.915
G1 X247.245Y106.715
G1 Y91.312
G1 X247.23Y91.111
G1 X247.183Y90.913
G1 X247.107Y90.717
G1 X247.002Y90.525
G1 X246.868Y90.336
G1 X246.706Y90.151
G1 X246.517Y89.969
G1 X246.302Y89.792
G1 X245.797Y89.45
G1 X245.196Y89.128
G1 X244.505Y88.828
G1 X243.73Y88.55
G1 X242.878Y88.298
G1 X241.954Y88.073
G1 X240.964Y87.878
G1 X239.915Y87.713
G1 X238.812Y87.582
G1 X237.662Y87.485
G1 X236.47Y87.426
G1 X235.243Y87.406
G1 X170.757
G1 X169.53Y87.426
G1 X168.338Y87.485
G1 X167.188Y87.58
G1 X166.085Y87.71
G1 X165.036Y87.873
G1 X164.046Y88.066
G1 X163.122Y88.289
G1 X162.27Y88.538
G1 X161.495Y88.812
G1 X160.804Y89.11
G1 X160.203Y89.429
G1 X159.698Y89.766
G1 X159.483Y89.942
G1 X159.294Y90.121
G1 X159.132Y90.305
G1 X158.998Y90.492
G1 X158.893Y90.682
G1 X158.817Y90.876
G1 X158.77Y91.072
G1 X158.755Y91.271
G1 Y106.701
G1 X158.77Y106.901
G1 X158.816Y107.099
G1 X158.892Y107.294
G1 X158.998Y107.485
G1 X159.131Y107.674
G1 X159.292Y107.858
G1 X159.48Y108.039
G1 X159.694Y108.216
G1 X160.198Y108.556
G1 X160.797Y108.877
G1 X161.485Y109.177
G1 X162.257Y109.454
G1 X163.106Y109.705
G1 X164.027Y109.929
G1 X165.013Y110.124
G1 X166.058Y110.288
G1 X167.157Y110.419
G1 X168.303Y110.515
G1 X169.49Y110.574
G1 X170.713Y110.594
; Scan @ 100 mm/sec, 50% power
M8
G0 X163.07Y93.281
; Layer C16
G91
G1 X2.5F6000S0
G1 X0.387S500
G1 X4.288S0
G1 X0.498S500
G1 X4.258S0
G1 X0.385S500
G1 X6.831S0
G1 X0.85S500
G1 X8.329S0
G1 X0.889S500
G1 X3.484S0
G1 X0.415S500
G1 X5.381S0
G1 X0.409S500
G1 X4.364S0
G1 X0.38S500
G1 X11.142S0
G1 X0.741S500
G1 X4.156S0
G1 X0.342S500
G1 X5.633S0
G1 X0.685S500
G1 X3.505S0
G1 X0.379S500
G1 X2.5S0
G1 X0.3Y0.1
G1 X-2.5
G1 X-0.975S500
G1 X-2.628S0
G1 X-1.831S500
G1 X-4.779S0
G1 X-0.889S500
G1 X-3.238S0
G1 X-1.986S500
G1 X-10.22S0
G1 X-1.064S500
G1 X-3.697S0
G1 X-1.061S500
G1 X-4.72S0
G1 X-1.076S500
G1 X-2.472S0
G1 X-2.207S500
G1 X-6.981S0
G1 X-2.263S500
G1 X-5.804S0
G1 X-1.02S500
G1 X-3.595S0
G1 X-1.207S500
G1 X-3.61S0
G1 X-1.023S500
G1 X-2.5S0
G1 X-0.162Y0.1
G1 X2.5
G1 X1.348S500
G1 X3.27S0
G1 X1.564S500
G1 X3.254S0
G1 X1.346S500
G1 X5.25S0
G1 X3.047S500
G1 X6.277S0
G1 X2.857S500
G1 X1.971S0
G1 X1.4S500
G1 X4.395S0
G1 X1.385S500
G1 X3.359S0
G1 X1.412S500
G1 X9.732S0
G1 X2.669S500
G1 X2.718S0
G1 X1.205S500
G1 X4.298S0
G1 X2.462S500
G1 X2.159S0
G1 X1.286S500
G1 X2.5S0
G1 X0.113Y0.1
G1 X-2.5
G1 X-1.509S500
G1 X-1.81S0
G1 X-2.936S500
G1 X-3.94S0
G1 X-1.446S500
G1 X-2.317S0
G1 X-3.18S500
G1 X-9.393S0
G1 X-1.634S500
G1 X-3.137S0
G1 X-1.6S500
G1 X-4.183S0
G1 X-1.613S500
G1 X-1.633S0
G1 X-3.286S500
G1 X-5.783S0
G1 X-3.637S500
G1 X-4.848S0
G1 X-1.566S500
G1 X-3.015S0
G1 X-1.824S500
G1 X-3.029S0
G1 X-1.571S500
G1 X-2.5S0
G1 X-0.081Y0.1
G1 X2.5
G1 X1.734S500
G1 X2.841S0
G1 X2.03S500
G1 X2.832S0
G1 X1.731S500
G1 X4.54S0
G1 X4.091S500
G1 X5.401S0
G1 X3.602S500
G1 X1.397S0
G1 X1.768S500
G1 X4.028S0
G1 X1.756S500
G1 X2.96S0
G1 X1.825S500
G1 X9.115S0
G1 X3.578S500
G1 X2.003S0
G1 X1.642S500
G1 X3.651S0
G1 X3.326S500
G1 X1.533S0
G1 X1.661S500
G1 X2.5S0
G1 X0.067Y0.1
G1 X-2.5
G1 X-1.799S500
G1 X-1.287S0
G1 X-3.677S500
G1 X-3.405S0
G1 X-1.805S500
G1 X-1.702S0
G1 X-3.952S500
G1 X-8.877S0
G1 X-1.967S500
G1 X-2.821S0
G1 X-1.888S500
G1 X-3.897S0
G1 X-1.899S500
G1 X-1.216S0
G1 X-3.848S500
G1 X-5.058S0
G1 X-4.521S500
G1 X-4.256S0
G1 X-1.87S500
G1 X-2.679S0
G1 X-2.199S500
G1 X-2.686S0
G1 X-1.874S500
G1 X-2.5S0
G1 X-0.047Y0.1
G1 X2.5
G1 X1.969S500
G1 X2.571S0
G1 X2.341S500
G1 X2.555S0
G1 X1.967S500
G1 X4.04S0
G1 X4.86S500
G1 X4.786S0
G1 X4.045S500
G1 X1.078S0
G1 X1.989S500
G1 X3.807S0
G1 X1.979S500
G1 X2.71S0
G1 X2.093S500
G1 X8.683S0
G1 X4.262S500
G1 X1.441S0
G1 X1.943S500
G1 X3.205S0
G1 X3.967S500
G1 X1.096S0
G1 X1.885S500
G1 X2.5S0
G1 X0.042Y0.1
G1 X-2.5
G1 X-1.969S500
G1 X-0.922S0
G1 X-4.236S500
G1 X-3.03S0
G1 X-2.063S500
G1 X-1.18S0
G1 X-4.566S500
G1 X-8.516S0
G1 X-2.176S500
G1 X-2.628S0
G1 X-2.057S500
G1 X-3.73S0
G1 X-2.066S500
G1 X-0.979S0
G1 X-4.196S500
G1 X-4.527S0
G1 X-5.198S500
G1 X-3.831S0
G1 X-2.049S500
G1 X-2.455S0
G1 X-2.456S500
G1 X-2.474S0
G1 X-2.051S500
G1 X-2.5S0
G1 X-0.033Y0.1
G1 X2.5
G1 X2.117S500
G1 X2.393S0
G1 X2.554S500
G1 X2.371S0
G1 X2.116S500
G1 X3.658S0
G1 X5.476S500
G1 X4.312S0
G1 X4.323S500
G1 X0.9S0
G1 X2.128S500
G1 X3.668S0
G1 X2.119S500
G1 X2.553S0
G1 X2.261S500
G1 X8.369S0
G1 X4.824S500
G1 X0.954S0
G1 X2.155S500
G1 X2.889S0
G1 X4.476S500
G1 X0.776S0
G1 X2.019S500
G1 X2.5S0
G1 X0.022Y0.1
G1 X-2.5
G1 X-2.063S500
G1 X-0.635S0
G1 X-4.704S500
G1 X-2.768S0
G1 X-2.238S500
G1 X-0.729S0
G1 X-5.072S500
G1 X-8.247S0
G1 X-2.315S500
G1 X-2.506S0
G1 X-2.159S500
G1 X-3.628S0
G1 X-2.167S500
G1 X-0.85S0
G1 X-4.414S500
G1 X-4.118S0
G1 X-5.745S500
G1 X-3.503S0
G1 X-2.157S500
G1 X-2.309S0
G1 X-2.645S500
G1 X-2.323S0
G1 X-2.158S500
G1 X-2.5S0
G1 X-0.021Y0.1
G1 X2.5
G1 X2.2S500
G1 X2.261S0
G1 X2.719S500
G1 X2.255S0
G1 X2.199S500
G1 X3.356S0
G1 X5.995S500
G1 X3.935S0
G1 X4.487S500
G1 X0.817S0
G1 X2.206S500
G1 X3.59S0
G1 X2.198S500
G1 X2.464S0
G1 X2.358S500
G1 X8.135S0
G1 X5.308S500
G1 X0.513S0
G1 X2.297S500
G1 X2.669S0
G1 X4.932S500
G1 X0.497S0
G1 X2.098S500
G1 X2.5S0
G1 X0.007Y0.1
G1 X-2.5
G1 X-2.112S500
G1 X-0.389S0
G1 X-5.122S500
G1 X-2.597S0
G1 X-2.345S500
G1 X-0.312S0
G1 X-5.515S500
G1 X-8.044S0
G1 X-2.401S500
G1 X-2.431S0
G1 X-2.219S500
G1 X-3.568S0
G1 X-2.228S500
G1 X-0.792S0
G1 X-4.544S500
G1 X-3.784S0
G1 X-6.212S500
G1 X-3.236S0
G1 X-2.224S500
G1 X-2.21S0
G1 X-2.784S500
G1 X-2.216S0
G1 X-2.224S500
G1 X-2.5S0
G1 X-0.006Y0.1
G1 X2.5
G1 X2.236S500
G1 X2.176S0
G1 X2.848S500
G1 X2.174S0
G1 X2.236S500
G1 X3.122S0
G1 X6.428S500
G1 X3.639S0
G1 X4.574S500
G1 X0.794S0
G1 X2.239S500
G1 X3.556S0
G1 X2.231S500
G1 X2.416S0
G1 X2.422S500
G1 X7.961S0
G1 X5.722S500
G1 X0.112S0
G1 X2.388S500
G1 X2.53S0
G1 X5.305S500
G1 X0.288S0
G1 X2.124S500
G1 X2.5S0
G1 X0.004Y0.1
G1 X-2.5
G1 X-2.133S500
G1 X-0.187S0
G1 X-5.489S500
G1 X-2.467S0
G1 X-8.259S500
G1 X-7.893S0
G1 X-2.434S500
G1 X-2.403S0
G1 X-2.243S500
G1 X-3.545S0
G1 X-2.251S500
G1 X-0.805S0
G1 X-4.593S500
G1 X-3.506S0
G1 X-6.625S500
G1 X-3.016S0
G1 X-2.248S500
G1 X-2.139S0
G1 X-2.909S500
G1 X-2.138S0
G1 X-2.248S500
G1 X-2.5S0
G1 X-0.005Y0.1
G1 X2.5
G1 X2.258S500
G1 X2.106S0
G1 X2.964S500
G1 X2.106S0
G1 X2.257S500
G1 X2.925S0
G1 X6.8S500
G1 X3.393S0
G1 X4.589S500
G1 X0.831S0
G1 X2.257S500
G1 X3.539S0
G1 X2.249S500
G1 X2.394S0
G1 X2.446S500
G1 X7.835S0
G1 X8.285S500
G1 X2.421S0
G1 X5.657S500
G1 X0.091S0
G1 X2.133S500
G1 X2.5S0
G1 Y0.1
G1 X-2.5
G1 X-7.952S500
G1 X-2.377S0
G1 X-4.43S500
G1 X-0.796S0
G1 X-3.084S500
G1 X-7.778S0
G1 X-2.455S500
G1 X-2.39S0
G1 X-2.249S500
G1 X-3.539S0
G1 X-2.257S500
G1 X-0.883S0
G1 X-4.559S500
G1 X-3.284S0
G1 X-6.975S500
G1 X-2.837S0
G1 X-2.257S500
G1 X-2.078S0
G1 X-3.018S500
G1 X-2.08S0
G1 X-2.258S500
G1 X-2.5S0
G1 Y0.1
G1 X2.5
G1 X2.258S500
G1 X2.053S0
G1 X3.072S500
G1 X2.051S0
G1 X2.257S500
G1 X2.753S0
G1 X7.141S500
G1 X3.18S0
G1 X4.508S500
G1 X0.956S0
G1 X2.257S500
G1 X3.539S0
G1 X2.249S500
G1 X2.39S0
G1 X2.455S500
G1 X7.733S0
G1 X2.818S500
G1 X1.524S0
G1 X3.984S500
G1 X2.335S0
G1 X8.023S500
G1 X2.5S0
G1 Y0.1
G1 X-2.5
G1 X-8.086S500
G1 X-2.301S0
G1 X-3.7S500
G1 X-1.964S0
G1 X-2.668S500
G1 X-7.698S0
G1 X-2.455S500
G1 X-2.39S0
G1 X-2.249S500
G1 X-3.539S0
G1 X-2.257S500
G1 X-1.056S0
G1 X-4.426S500
G1 X-3.092S0
G1 X-3.23S500
G1 X-0.831S0
G1 X-3.22S500
G1 X-2.683S0
G1 X-2.257S500
G1 X-2.024S0
G1 X-3.125S500
G1 X-2.027S0
G1 X-2.258S500
G1 X-2.5S0
G1 Y0.1
G1 X2.5
G1 X2.258S500
G1 X2S0
G1 X3.177S500
G1 X1.999S0
G1 X2.257S500
G1 X2.613S0
G1 X2.931S500
G1 X1.551S0
G1 X2.938S500
G1 X3.009S0
G1 X2.567S500
G1 X0.925S0
G1 X0.798S500
G1 X1.206S0
G1 X2.257S500
G1 X3.539S0
G1 X2.249S500
G1 X2.39S0
G1 X2.455S500
G1 X7.662S0
G1 X2.571S500
G1 X2.297S0
G1 X3.47S500
G1 X2.274S0
G1 X3.196S500
G1 X1.07S0
G1 X3.877S500
G1 X2.5S0
G1 Y0.1
G1 X-2.5
G1 X-3.593S500
G1 X-1.632S0
G1 X-2.976S500
G1 X-2.243S0
G1 X-3.275S500
G1 X-2.564S0
G1 X-2.503S500
G1 X-7.631S0
G1 X-2.455S500
G1 X-2.39S0
G1 X-2.249S500
G1 X-3.539S0
G1 X-2.257S500
G1 X-3.074S0
G1 X-2.435S500
G1 X-2.926S0
G1 X-2.79S500
G1 X-1.991S0
G1 X-2.779S500
G1 X-2.543S0
G1 X-2.257S500
G1 X-1.973S0
G1 X-3.229S500
G1 X-1.974S0
G1 X-2.258S500
G1 X-2.5S0
G1 Y0.1
G1 X2.5
G1 X2.258S500
G1 X1.947S0
G1 X3.282S500
G1 X1.947S0
G1 X2.257S500
G1 X2.483S0
G1 X2.669S500
G1 X2.327S0
G1 X2.682S500
G1 X2.854S0
G1 X2.371S500
G1 X3.152S0
G1 X2.257S500
G1 X3.539S0
G1 X2.249S500
G1 X2.39S0
G1 X2.455S500
G1 X7.611S0
G1 X2.433S500
G1 X2.786S0
G1 X3.117S500
G1 X2.212S0
G1 X2.847S500
G1 X2.005S0
G1 X3.406S500
G1 X2.5S0
G1 Y0.1
G1 X-2.5
G1 X-3.253S500
G1 X-2.313S0
G1 X-2.737S500
G1 X-2.194S0
G1 X-2.965S500
G1 X-2.973S0
G1 X-2.392S500
G1 X-7.59S0
G1 X-2.455S500
G1 X-2.39S0
G1 X-2.249S500
G1 X-3.539S0
G1 X-2.257S500
G1 X-3.205S0
G1 X-2.329S500
G1 X-2.788S0
G1 X-2.599S500
G1 X-2.592S0
G1 X-2.598S500
G1 X-2.427S0
G1 X-2.257S500
G1 X-1.922S0
G1 X-3.332S500
G1 X-1.922S0
G1 X-2.258S500
G1 X-2.5S0
G1 Y0.1
G1 X2.5
G1 X2.258S500
G1 X1.896S0
G1 X3.383S500
G1 X1.897S0
G1 X2.257S500
G1 X2.372S0
G1 X2.533S500
G1 X2.821S0
G1 X2.545S500
G1 X2.726S0
G1 X2.3S500
G1 X3.241S0
G1 X2.257S500
G1 X3.539S0
G1 X2.249S500
G1 X2.39S0
G1 X2.455S500
G1 X7.571S0
G1 X2.352S500
G1 X3.126S0
G1 X2.849S500
G1 X2.171S0
G1 X2.654S500
G1 X2.574S0
G1 X3.12S500
G1 X2.5S0
G1 Y0.1
G1 X-2.5
G1 X-3.019S500
G1 X-2.781S0
G1 X-2.594S500
G1 X-2.145S0
G1 X-2.736S500
G1 X-3.256S0
G1 X-2.322S500
G1 X-7.564S0
G1 X-2.455S500
G1 X-2.39S0
G1 X-2.249S500
G1 X-3.539S0
G1 X-2.257S500
G1 X-3.265S0
G1 X-2.283S500
G1 X-2.664S0
G1 X-2.501S500
G1 X-3.011S0
G1 X-2.498S500
G1 X-2.316S0
G1 X-2.257S500
G1 X-1.871S0
G1 X-3.434S500
G1 X-1.871S0
G1 X-2.258S500
G1 X-2.5S0
G1 Y0.1
G1 X2.5
G1 X2.258S500
G1 X1.846S0
G1 X3.484S500
G1 X1.846S0
G1 X2.257S500
G1 X2.272S0
G1 X2.453S500
G1 X3.187S0
G1 X2.457S500
G1 X2.614S0
G1 X2.273S500
G1 X3.282S0
G1 X2.257S500
G1 X3.539S0
G1 X2.249S500
G1 X2.39S0
G1 X2.455S500
G1 X7.558S0
G1 X2.296S500
G1 X3.356S0
G1 X2.648S500
G1 X2.122S0
G1 X2.543S500
G1 X2.971S0
G1 X2.923S500
G1 X2.5S0
G1 Y0.1
G1 X-2.5
G1 X-2.844S500
G1 X-3.133S0
G1 X-2.495S500
G1 X-2.104S0
G1 X-2.563S500
G1 X-3.444S0
G1 X-2.283S500
G1 X-7.551S0
G1 X-2.455S500
G1 X-2.39S0
G1 X-2.249S500
G1 X-3.539S0
G1 X-2.257S500
G1 X-3.292S0
G1 X-2.27S500
G1 X-2.565S0
G1 X-2.422S500
G1 X-3.338S0
G1 X-2.421S500
G1 X-2.23S0
G1 X-2.257S500
G1 X-1.821S0
G1 X-3.534S500
G1 X-1.821S0
G1 X-2.258S500
G1 X-2.5S0
G1 Y0.1
G1 X2.5
G1 X2.258S500
G1 X1.796S0
G1 X3.584S500
G1 X1.796S0
G1 X2.257S500
G1 X2.187S0
G1 X2.398S500
G1 X3.474S0
G1 X2.395S500
G1 X2.52S0
G1 X2.265S500
G1 X3.299S0
G1 X2.257S500
G1 X3.539S0
G1 X2.249S500
G1 X2.39S0
G1 X2.455S500
G1 X7.555S0
G1 X2.269S500
G1 X3.502S0
G1 X2.503S500
G1 X2.081S0
G1 X2.46S500
G1 X3.274S0
G1 X2.773S500
G1 X2.5S0
G1 Y0.1
G1 X-2.5
G1 X-2.704S500
G1 X-3.412S0
G1 X-2.426S500
G1 X-2.058S0
G1 X-2.446S500
G1 X-3.556S0
G1 X-2.252S500
G1 X-7.563S0
G1 X-2.455S500
G1 X-2.39S0
G1 X-2.249S500
G1 X-3.539S0
G1 X-2.257S500
G1 X-3.305S0
G1 X-2.261S500
G1 X-2.476S0
G1 X-2.376S500
G1 X-3.6S0
G1 X-2.376S500
G1 X-2.144S0
G1 X-2.257S500
G1 X-1.771S0
G1 X-3.634S500
G1 X-1.771S0
G1 X-2.258S500
G1 X-2.5S0
G1 Y0.1
G1 X2.5
G1 X2.258S500
G1 X1.746S0
G1 X3.684S500
G1 X1.746S0
G1 X2.257S500
G1 X2.111S0
G1 X2.359S500
G1 X3.706S0
G1 X2.353S500
G1 X2.44S0
G1 X2.26S500
G1 X3.309S0
G1 X2.257S500
G1 X3.539S0
G1 X2.249S500
G1 X2.39S0
G1 X2.455S500
G1 X7.571S0
G1 X2.253S500
G1 X3.592S0
G1 X2.389S500
G1 X2.035S0
G1 X2.405S500
G1 X3.521S0
G1 X2.651S500
G1 X2.5S0
G1 Y0.1
G1 X-2.5
G1 X-2.598S500
G1 X-3.625S0
G1 X-2.381S500
G1 X-2.012S0
G1 X-2.357S500
G1 X-3.611S0
G1 X-2.253S500
G1 X-7.58S0
G1 X-2.455S500
G1 X-2.39S0
G1 X-2.249S500
G1 X-3.539S0
G1 X-2.257S500
G1 X-3.312S0
G1 X-2.259S500
G1 X-2.406S0
G1 X-2.334S500
G1 X-3.805S0
G1 X-2.342S500
G1 X-2.08S0
G1 X-2.257S500
G1 X-1.72S0
G1 X-3.736S500
G1 X-1.72S0
G1 X-2.258S500
G1 X-2.5S0
G1 Y0.1
G1 X2.5
G1 X2.258S500
G1 X1.695S0
G1 X3.786S500
G1 X1.695S0
G1 X2.257S500
G1 X2.048S0
G1 X2.326S500
G1 X3.896S0
G1 X2.322S500
G1 X2.373S0
G1 X2.259S500
G1 X3.314S0
G1 X2.257S500
G1 X3.539S0
G1 X2.249S500
G1 X2.39S0
G1 X2.455S500
G1 X7.592S0
G1 X2.265S500
G1 X3.612S0
G1 X2.328S500
G1 X1.99S0
G1 X2.355S500
G1 X3.729S0
G1 X2.546S500
G1 X2.5S0
G1 Y0.1
G1 X-2.5
G1 X-2.509S500
G1 X-3.806S0
G1 X-2.341S500
G1 X-1.968S0
G1 X-2.299S500
G1 X-3.607S0
G1 X-2.268S500
G1 X-7.619S0
G1 X-2.455S500
G1 X-2.39S0
G1 X-2.249S500
G1 X-3.539S0
G1 X-2.257S500
G1 X-3.315S0
G1 X-2.258S500
G1 X-2.341S0
G1 X-2.31S500
G1 X-3.977S0
G1 X-2.32S500
G1 X-2.017S0
G1 X-2.257S500
G1 X-1.67S0
G1 X-3.836S500
G1 X-1.67S0
G1 X-2.258S500
G1 X-2.5S0
G1 Y0.1
G1 X2.5
G1 X2.258S500
G1 X1.645S0
G1 X3.886S500
G1 X1.645S0
G1 X2.257S500
G1 X1.991S0
G1 X2.312S500
G1 X4.044S0
G1 X2.303S500
G1 X2.315S0
G1 X2.258S500
G1 X3.315S0
G1 X2.257S500
G1 X3.539S0
G1 X2.249S500
G1 X2.39S0
G1 X2.455S500
G1 X7.646S0
G1 X2.288S500
G1 X3.584S0
G1 X2.275S500
G1 X1.942S0
G1 X2.33S500
G1 X3.881S0
G1 X2.471S500
G1 X2.5S0
G1 Y0.1
G1 X-2.5
G1 X-2.433S500
G1 X-3.956S0
G1 X-2.314S500
G1 X-1.92S0
G1 X-2.264S500
G1 X-3.538S0
G1 X-2.32S500
G1 X-7.672S0
G1 X-2.455S500
G1 X-2.39S0
G1 X-2.249S500
G1 X-3.539S0
G1 X-2.257S500
G1 X-3.315S0
G1 X-2.258S500
G1 X-2.293S0
G1 X-2.292S500
G1 X-4.112S0
G1 X-2.299S500
G1 X-1.969S0
G1 X-2.257S500
G1 X-1.62S0
G1 X-3.936S500
G1 X-1.62S0
G1 X-2.258S500
G1 X-2.5S0
G1 Y0.1
G1 X2.5
G1 X2.258S500
G1 X1.595S0
G1 X3.986S500
G1 X1.595S0
G1 X2.257S500
G1 X1.948S0
G1 X2.29S500
G1 X4.171S0
G1 X2.284S500
G1 X2.272S0
G1 X2.258S500
G1 X3.315S0
G1 X2.257S500
G1 X3.539S0
G1 X2.249S500
G1 X2.39S0
G1 X2.455S500
G1 X7.702S0
G1 X2.379S500
G1 X3.462S0
G1 X2.252S500
G1 X1.901S0
G1 X2.3S500
G1 X4.016S0
G1 X2.405S500
G1 X2.5S0
G1 Y0.1
G1 X-2.5
G1 X-2.381S500
G1 X-4.064S0
G1 X-2.293S500
G1 X-1.883S0
G1 X-2.241S500
G1 X-3.367S0
G1 X-2.437S500
G1 X-7.751S0
G1 X-2.455S500
G1 X-2.39S0
G1 X-2.249S500
G1 X-3.539S0
G1 X-2.257S500
G1 X-3.315S0
G1 X-2.258S500
G1 X-2.25S0
G1 X-2.282S500
G1 X-4.218S0
G1 X-2.289S500
G1 X-1.926S0
G1 X-2.257S500
G1 X-1.569S0
G1 X-4.038S500
G1 X-1.569S0
G1 X-2.258S500
G1 X-2.5S0
G1 Y0.1
G1 X2.5
G1 X2.258S500
G1 X1.544S0
G1 X4.088S500
G1 X1.544S0
G1 X2.257S500
G1 X1.905S0
G1 X2.288S500
G1 X4.264S0
G1 X2.279S500
G1 X2.229S0
G1 X2.258S500
G1 X3.315S0
G1 X2.257S500
G1 X3.539S0
G1 X2.249S500
G1 X2.39S0
G1 X2.455S500
G1 X7.799S0
G1 X2.522S500
G1 X3.246S0
G1 X2.23S500
G1 X1.864S0
G1 X2.287S500
G1 X4.112S0
G1 X2.357S500
G1 X2.5S0
G1 Y0.1
G1 X-2.5
G1 X-2.333S500
G1 X-4.16S0
G1 X-2.281S500
G1 X-1.845S0
G1 X-2.222S500
G1 X-3.09S0
G1 X-2.638S500
G1 X-7.848S0
G1 X-2.455S500
G1 X-2.39S0
G1 X-2.249S500
G1 X-3.539S0
G1 X-2.257S500
G1 X-3.315S0
G1 X-2.258S500
G1 X-2.216S0
G1 X-2.273S500
G1 X-4.306S0
G1 X-2.277S500
G1 X-1.893S0
G1 X-2.257S500
G1 X-1.519S0
G1 X-4.138S500
G1 X-1.519S0
G1 X-2.258S500
G1 X-2.5S0
G1 Y0.1
G1 X2.5
G1 X2.258S500
G1 X1.494S0
G1 X4.188S500
G1 X1.494S0
G1 X2.257S500
G1 X1.881S0
G1 X2.272S500
G1 X4.339S0
G1 X2.27S500
G1 X2.203S0
G1 X2.258S500
G1 X3.315S0
G1 X2.257S500
G1 X3.539S0
G1 X2.249S500
G1 X2.39S0
G1 X2.455S500
G1 X7.905S0
G1 X2.813S500
G1 X2.861S0
G1 X2.22S500
G1 X1.834S0
G1 X2.274S500
G1 X4.191S0
G1 X2.319S500
G1 X2.5S0
G1 Y0.1
G1 X-2.5
G1 X-2.305S500
G1 X-4.218S0
G1 X-2.271S500
G1 X-1.823S0
G1 X-2.217S500
G1 X-2.499S0
G1 X-3.104S500
G1 X-7.98S0
G1 X-2.455S500
G1 X-2.39S0
G1 X-2.249S500
G1 X-3.539S0
G1 X-2.257S500
G1 X-3.315S0
G1 X-2.258S500
G1 X-2.191S0
G1 X-2.266S500
G1 X-4.367S0
G1 X-2.273S500
G1 X-1.868S0
G1 X-2.257S500
G1 X-1.469S0
G1 X-4.238S500
G1 X-1.469S0
G1 X-2.258S500
G1 X-2.5S0
G1 Y0.1
G1 X2.5
G1 X2.258S500
G1 X1.444S0
G1 X4.288S500
G1 X1.444S0
G1 X2.257S500
G1 X1.856S0
G1 X2.272S500
G1 X4.391S0
G1 X2.267S500
G1 X2.179S0
G1 X2.258S500
G1 X3.315S0
G1 X2.257S500
G1 X3.539S0
G1 X2.249S500
G1 X2.39S0
G1 X2.455S500
G1 X8.055S0
G1 X3.466S500
G1 X2.065S0
G1 X2.215S500
G1 X1.811S0
G1 X2.269S500
G1 X4.244S0
G1 X2.292S500
G1 X2.5S0
G1 Y0.1
G1 X-2.5
G1 X-2.279S500
G1 X-4.27S0
G1 X-2.266S500
G1 X-1.8S0
G1 X-2.212S500
G1 X-1.612S0
G1 X-3.848S500
G1 X-8.13S0
G1 X-2.455S500
G1 X-2.39S0
G1 X-2.249S500
G1 X-3.539S0
G1 X-2.257S500
G1 X-3.315S0
G1 X-2.258S500
G1 X-2.168S0
G1 X-2.269S500
G1 X-4.412S0
G1 X-2.27S500
G1 X-1.846S0
G1 X-2.257S500
G1 X-1.418S0
G1 X-2.157S500
G1 X-0.026S0
G1 X-2.157S500
G1 X-1.418S0
G1 X-2.258S500
G1 X-2.5S0
G1 Y0.1
G1 X2.5
G1 X2.258S500
G1 X1.393S0
G1 X2.155S500
G1 X0.08S0
G1 X2.155S500
G1 X1.393S0
G1 X2.257S500
G1 X1.842S0
G1 X2.266S500
G1 X4.429S0
G1 X2.264S500
G1 X2.164S0
G1 X2.258S500
G1 X3.315S0
G1 X2.257S500
G1 X3.539S0
G1 X2.249S500
G1 X2.39S0
G1 X2.455S500
G1 X8.234S0
G1 X4.195S500
G1 X1.164S0
G1 X2.211S500
G1 X1.79S0
G1 X2.266S500
G1 X4.284S0
G1 X2.273S500
G1 X2.5S0
G1 Y0.1
G1 X-2.5
G1 X-2.269S500
G1 X-4.292S0
G1 X-2.266S500
G1 X-1.785S0
G1 X-2.212S500
G1 X-0.748S0
G1 X-4.504S500
G1 X-8.341S0
G1 X-2.455S500
G1 X-2.39S0
G1 X-2.249S500
G1 X-3.539S0
G1 X-2.257S500
G1 X-3.315S0
G1 X-2.258S500
G1 X-2.16S0
G1 X-2.263S500
G1 X-4.438S0
G1 X-2.266S500
G1 X-1.838S0
G1 X-2.257S500
G1 X-1.368S0
G1 X-2.154S500
G1 X-0.132S0
G1 X-2.154S500
G1 X-1.368S0
G1 X-2.258S500
G1 X-2.5S0
G1 Y0.1
G1 X2.5
G1 X2.258S500
G1 X1.343S0
G1 X2.152S500
G1 X0.186S0
G1 X2.152S500
G1 X1.343S0
G1 X2.257S500
G1 X1.834S0
G1 X2.266S500
G1 X4.445S0
G1 X2.264S500
G1 X2.156S0
G1 X2.258S500
G1 X3.315S0
G1 X2.258S500
G1 X3.538S0
G1 X2.249S500
G1 X2.39S0
G1 X2.455S500
G1 X8.448S0
G1 X4.765S500
G1 X0.38S0
G1 X2.212S500
G1 X1.782S0
G1 X2.265S500
G1 X4.3S0
G1 X2.265S500
G1 X2.5S0
G1 Y0.1
G1 X-2.5
G1 X-2.261S500
G1 X-4.309S0
G1 X-2.263S500
G1 X-1.778S0
G1 X-2.213S500
G1 X-0.065S0
G1 X-4.931S500
G1 X-8.597S0
G1 X-2.455S500
G1 X-2.39S0
G1 X-2.249S500
G1 X-3.537S0
G1 X-2.259S500
G1 X-3.315S0
G1 X-2.258S500
G1 X-2.152S0
G1 X-2.265S500
G1 X-4.452S0
G1 X-2.265S500
G1 X-1.831S0
G1 X-2.257S500
G1 X-1.318S0
G1 X-2.151S500
G1 X-0.238S0
G1 X-2.151S500
G1 X-1.318S0
G1 X-2.258S500
G1 X-2.5S0
G1 Y0.1
G1 X2.5
G1 X2.258S500
G1 X1.293S0
G1 X2.149S500
G1 X0.292S0
G1 X2.149S500
G1 X1.293S0
G1 X2.257S500
G1 X1.829S0
G1 X2.265S500
G1 X4.455S0
G1 X2.265S500
G1 X2.151S0
G1 X2.258S500
G1 X3.315S0
G1 X2.26S500
G1 X3.536S0
G1 X2.249S500
G1 X2.39S0
G1 X2.455S500
G1 X8.75S0
G1 X7.056S500
G1 X1.774S0
G1 X2.264S500
G1 X4.315S0
G1 X2.258S500
G1 X2.5S0
G1 Y0.1
G1 X-2.5
G1 X-2.262S500
G1 X-4.307S0
G1 X-2.268S500
G1 X-1.774S0
G1 X-6.871S500
G1 X-8.935S0
G1 X-2.455S500
G1 X-2.39S0
G1 X-2.249S500
G1 X-3.534S0
G1 X-2.262S500
G1 X-3.315S0
G1 X-2.258S500
G1 X-2.154S0
G1 X-2.265S500
G1 X-4.448S0
G1 X-2.265S500
G1 X-1.833S0
G1 X-2.257S500
G1 X-1.268S0
G1 X-2.148S500
G1 X-0.344S0
G1 X-2.149S500
G1 X-1.267S0
G1 X-2.258S500
G1 X-2.5S0
G1 Y0.1
G1 X2.5
G1 X2.258S500
G1 X1.242S0
G1 X2.147S500
G1 X0.398S0
G1 X2.147S500
G1 X1.242S0
G1 X2.257S500
G1 X1.837S0
G1 X2.265S500
G1 X4.442S0
G1 X2.263S500
G1 X2.158S0
G1 X2.258S500
G1 X3.315S0
G1 X2.265S500
G1 X3.531S0
G1 X2.249S500
G1 X2.39S0
G1 X2.455S500
G1 X9.159S0
G1 X6.647S500
G1 X1.777S0
G1 X2.269S500
G1 X4.299S0
G1 X2.266S500
G1 X2.5S0
G1 Y0.1
G1 X-2.5
G1 X-2.27S500
G1 X-4.291S0
G1 X-2.27S500
G1 X-1.779S0
G1 X-6.356S500
G1 X-9.451S0
G1 X-2.455S500
G1 X-2.39S0
G1 X-2.249S500
G1 X-3.528S0
G1 X-2.268S500
G1 X-3.315S0
G1 X-2.258S500
G1 X-2.162S0
G1 X-2.262S500
G1 X-4.435S0
G1 X-2.265S500
G1 X-1.841S0
G1 X-2.257S500
G1 X-1.217S0
G1 X-2.146S500
G1 X-0.45S0
G1 X-2.146S500
G1 X-1.217S0
G1 X-2.258S500
G1 X-2.5S0
G1 Y0.1
G1 X2.5
G1 X2.258S500
G1 X1.192S0
G1 X2.144S500
G1 X0.504S0
G1 X2.144S500
G1 X1.192S0
G1 X2.257S500
G1 X1.845S0
G1 X2.265S500
G1 X4.422S0
G1 X2.267S500
G1 X2.166S0
G1 X2.258S500
G1 X3.315S0
G1 X2.272S500
G1 X3.524S0
G1 X2.249S500
G1 X2.39S0
G1 X5.953S500
G1 X6.319S0
G1 X5.99S500
G1 X1.782S0
G1 X2.271S500
G1 X4.282S0
G1 X2.275S500
G1 X2.5S0
G1 Y0.1
G1 X-2.5
G1 X-2.286S500
G1 X-4.259S0
G1 X-2.28S500
G1 X-1.785S0
G1 X-5.517S500
G1 X-6.271S0
G1 X-6.474S500
G1 X-2.39S0
G1 X-2.249S500
G1 X-3.518S0
G1 X-2.278S500
G1 X-3.315S0
G1 X-2.258S500
G1 X-2.173S0
G1 X-2.269S500
G1 X-4.4S0
G1 X-2.272S500
G1 X-1.851S0
G1 X-2.257S500
G1 X-1.167S0
G1 X-2.143S500
G1 X-0.556S0
G1 X-2.143S500
G1 X-1.167S0
G1 X-2.258S500
G1 X-2.5S0
G1 Y0.1
G1 X2.5
G1 X2.258S500
G1 X1.142S0
G1 X2.141S500
G1 X0.61S0
G1 X2.141S500
G1 X1.142S0
G1 X2.257S500
G1 X1.863S0
G1 X2.272S500
G1 X4.379S0
G1 X2.266S500
G1 X2.185S0
G1 X2.258S500
G1 X3.315S0
G1 X2.283S500
G1 X3.512S0
G1 X2.25S500
G1 X2.39S0
G1 X6.836S500
G1 X6.393S0
G1 X5.034S500
G1 X1.789S0
G1 X2.288S500
G1 X4.232S0
G1 X2.3S500
G1 X2.5S0
G1 Y0.1
G1 X-2.5
G1 X-2.313S500
G1 X-4.206S0
G1 X-2.291S500
G1 X-1.799S0
G1 X-4.55S500
G1 X-6.586S0
G1 X-7.127S500
G1 X-2.39S0
G1 X-2.254S500
G1 X-3.5S0
G1 X-2.291S500
G1 X-3.315S0
G1 X-2.258S500
G1 X-2.197S0
G1 X-2.268S500
G1 X-4.352S0
G1 X-2.273S500
G1 X-1.875S0
G1 X-2.257S500
G1 X-1.117S0
G1 X-2.14S500
G1 X-0.662S0
G1 X-2.141S500
G1 X-1.116S0
G1 X-2.258S500
G1 X-2.5S0
G1 Y0.1
G1 X2.5
G1 X2.258S500
G1 X1.091S0
G1 X2.139S500
G1 X0.716S0
G1 X2.139S500
G1 X1.091S0
G1 X2.257S500
G1 X1.888S0
G1 X2.273S500
G1 X4.323S0
G1 X2.272S500
G1 X2.209S0
G1 X2.258S500
G1 X3.315S0
G1 X2.3S500
G1 X3.487S0
G1 X2.258S500
G1 X2.39S0
G1 X7.354S500
G1 X6.821S0
G1 X4.088S500
G1 X1.809S0
G1 X2.294S500
G1 X4.179S0
G1 X2.327S500
G1 X2.5S0
G1 Y0.1
G1 X-2.5
G1 X-2.349S500
G1 X-4.135S0
G1 X-2.306S500
G1 X-1.819S0
G1 X-3.648S500
G1 X-7.062S0
G1 X-7.553S500
G1 X-2.39S0
G1 X-2.262S500
G1 X-3.472S0
G1 X-2.311S500
G1 X-3.315S0
G1 X-2.258S500
G1 X-2.222S0
G1 X-2.275S500
G1 X-4.286S0
G1 X-2.282S500
G1 X-1.9S0
G1 X-2.257S500
G1 X-1.066S0
G1 X-2.138S500
G1 X-0.768S0
G1 X-2.138S500
G1 X-1.066S0
G1 X-2.258S500
G1 X-2.5S0
G1 Y0.1
G1 X2.5
G1 X2.258S500
G1 X1.041S0
G1 X2.136S500
G1 X0.822S0
G1 X2.136S500
G1 X1.041S0
G1 X2.257S500
G1 X1.916S0
G1 X2.289S500
G1 X4.241S0
G1 X2.28S500
G1 X2.239S0
G1 X2.258S500
G1 X3.315S0
G1 X2.323S500
G1 X3.456S0
G1 X2.266S500
G1 X2.39S0
G1 X7.727S500
G1 X7.293S0
G1 X3.244S500
G1 X1.828S0
G1 X2.319S500
G1 X4.088S0
G1 X2.373S500
G1 X2.5S0
G1 Y0.1
G1 X-2.5
G1 X-2.398S500
G1 X-4.04S0
G1 X-2.329S500
G1 X-1.841S0
G1 X-2.853S500
G1 X-7.533S0
G1 X-7.878S500
G1 X-2.391S0
G1 X-2.271S500
G1 X-3.436S0
G1 X-2.337S500
G1 X-3.315S0
G1 X-2.258S500
G1 X-2.26S0
G1 X-2.283S500
G1 X-4.194S0
G1 X-2.29S500
G1 X-1.938S0
G1 X-2.257S500
G1 X-1.016S0
G1 X-2.135S500
G1 X-0.874S0
G1 X-2.135S500
G1 X-1.016S0
G1 X-2.258S500
G1 X-2.5S0
G1 Y0.1
G1 X2.5
G1 X2.258S500
G1 X0.991S0
G1 X2.133S500
G1 X0.928S0
G1 X2.133S500
G1 X0.991S0
G1 X2.257S500
G1 X1.959S0
G1 X2.293S500
G1 X4.146S0
G1 X2.286S500
G1 X2.281S0
G1 X2.258S500
G1 X3.315S0
G1 X2.354S500
G1 X3.405S0
G1 X2.282S500
G1 X2.394S0
G1 X8.014S500
G1 X7.755S0
G1 X2.491S500
G1 X1.862S0
G1 X2.338S500
G1 X3.989S0
G1 X2.423S500
G1 X2.5S0
G1 Y0.1
G1 X-2.5
G1 X-2.461S500
G1 X-3.917S0
G1 X-2.354S500
G1 X-1.884S0
G1 X-2.21S500
G1 X-4.353S0
G1 X-0.621S500
G1 X-2.933S0
G1 X-8.139S500
G1 X-2.398S0
G1 X-2.291S500
G1 X-3.371S0
G1 X-2.375S500
G1 X-3.315S0
G1 X-2.258S500
G1 X-2.303S0
G1 X-2.297S500
G1 X-4.079S0
G1 X-2.305S500
G1 X-1.981S0
G1 X-2.257S500
G1 X-0.966S0
G1 X-2.132S500
G1 X-0.981S0
G1 X-2.131S500
G1 X-0.966S0
G1 X-2.258S500
G1 X-2.5S0
G1 Y0.1
G1 X2.5
G1 X2.258S500
G1 X0.94S0
G1 X2.131S500
G1 X1.034S0
G1 X2.131S500
G1 X0.94S0
G1 X2.257S500
G1 X2.002S0
G1 X2.318S500
G1 X4.012S0
G1 X2.309S500
G1 X2.324S0
G1 X2.258S500
G1 X3.315S0
G1 X2.398S500
G1 X3.334S0
G1 X2.302S500
G1 X2.401S0
G1 X8.245S500
G1 X2.584S0
G1 X1.047S500
G1 X4.161S0
G1 X2.216S500
G1 X1.905S0
G1 X2.371S500
G1 X3.845S0
G1 X2.498S500
G1 X2.5S0
G1 Y0.1
G1 X-2.5
G1 X-2.536S500
G1 X-3.773S0
G1 X-2.388S500
G1 X-1.926S0
G1 X-2.221S500
G1 X-4.068S0
G1 X-1.267S500
G1 X-2.343S0
G1 X-8.35S500
G1 X-2.404S0
G1 X-2.312S500
G1 X-3.29S0
G1 X-2.429S500
G1 X-3.315S0
G1 X-2.258S500
G1 X-2.356S0
G1 X-2.314S500
G1 X-3.94S0
G1 X-2.323S500
G1 X-2.032S0
G1 X-2.257S500
G1 X-0.915S0
G1 X-2.129S500
G1 X-1.088S0
G1 X-2.129S500
G1 X-0.915S0
G1 X-2.258S500
G1 X-2.5S0
G1 Y0.1
G1 X2.5
G1 X2.258S500
G1 X0.89S0
G1 X2.128S500
G1 X1.14S0
G1 X2.128S500
G1 X0.89S0
G1 X2.257S500
G1 X2.064S0
G1 X2.334S500
G1 X3.853S0
G1 X2.327S500
G1 X2.387S0
G1 X2.258S500
G1 X3.315S0
G1 X2.471S500
G1 X3.225S0
G1 X2.331S500
G1 X2.408S0
G1 X8.437S500
G1 X2.161S0
G1 X1.434S500
G1 X3.987S0
G1 X2.226S500
G1 X1.955S0
G1 X2.409S500
G1 X3.68S0
G1 X2.583S500
G1 X2.5S0
G1 Y0.1
G1 X-2.5
G1 X-2.635S500
G1 X-3.58S0
G1 X-2.43S500
G1 X-1.986S0
G1 X-2.232S500
G1 X-3.907S0
G1 X-1.575S500
G1 X-2.007S0
G1 X-8.52S500
G1 X-2.411S0
G1 X-2.354S500
G1 X-3.151S0
G1 X-2.519S500
G1 X-3.315S0
G1 X-2.258S500
G1 X-2.418S0
G1 X-2.34S500
G1 X-3.761S0
G1 X-2.351S500
G1 X-2.095S0
G1 X-2.257S500
G1 X-0.865S0
G1 X-2.126S500
G1 X-1.194S0
G1 X-2.126S500
G1 X-0.865S0
G1 X-2.258S500
G1 X-2.5S0
G1 Y0.1
G1 X2.5
G1 X2.258S500
G1 X0.84S0
G1 X2.125S500
G1 X1.246S0
G1 X2.125S500
G1 X0.84S0
G1 X2.257S500
G1 X2.127S0
G1 X2.367S500
G1 X3.657S0
G1 X2.364S500
G1 X2.45S0
G1 X2.258S500
G1 X3.315S0
G1 X2.567S500
G1 X3.076S0
G1 X2.369S500
G1 X2.423S0
G1 X8.602S500
G1 X1.871S0
G1 X1.696S500
G1 X3.82S0
G1 X2.24S500
G1 X2.024S0
G1 X2.452S500
G1 X3.48S0
G1 X2.687S500
G1 X2.5S0
G1 Y0.1
G1 X-2.5
G1 X-2.749S500
G1 X-3.358S0
G1 X-2.485S500
G1 X-2.063S0
G1 X-2.249S500
G1 X-3.732S0
G1 X-1.794S500
G1 X-1.776S0
G1 X-8.666S500
G1 X-2.434S0
G1 X-2.384S500
G1 X-2.987S0
G1 X-2.63S500
G1 X-3.315S0
G1 X-2.258S500
G1 X-2.489S0
G1 X-2.38S500
G1 X-3.545S0
G1 X-2.387S500
G1 X-2.164S0
G1 X-2.257S500
G1 X-0.815S0
G1 X-2.123S500
G1 X-1.3S0
G1 X-2.123S500
G1 X-0.815S0
G1 X-2.258S500
G1 X-2.5S0
G1 Y0.1
G1 X2.5
G1 X2.258S500
G1 X0.789S0
G1 X2.123S500
G1 X1.352S0
G1 X2.123S500
G1 X0.789S0
G1 X2.257S500
G1 X2.207S0
G1 X2.41S500
G1 X3.411S0
G1 X2.406S500
G1 X2.531S0
G1 X2.258S500
G1 X3.315S0
G1 X2.696S500
G1 X2.879S0
G1 X2.414S500
G1 X2.446S0
G1 X8.729S500
G1 X1.693S0
G1 X1.879S500
G1 X3.647S0
G1 X2.256S500
G1 X2.108S0
G1 X2.518S500
G1 X3.223S0
G1 X2.819S500
G1 X2.5S0
G1 Y0.1
G1 X-2.5
G1 X-2.888S500
G1 X-3.088S0
G1 X-2.548S500
G1 X-2.156S0
G1 X-2.272S500
G1 X-3.55S0
G1 X-1.958S500
G1 X-1.619S0
G1 X-8.793S500
G1 X-2.457S0
G1 X-2.446S500
G1 X-2.762S0
G1 X-2.77S500
G1 X-3.315S0
G1 X-2.258S500
G1 X-2.573S0
G1 X-2.435S500
G1 X-3.275S0
G1 X-2.433S500
G1 X-2.249S0
G1 X-2.257S500
G1 X-0.764S0
G1 X-2.121S500
G1 X-1.406S0
G1 X-2.121S500
G1 X-0.764S0
G1 X-2.258S500
G1 X-2.5S0
G1 Y0.1
G1 X2.5
G1 X2.258S500
G1 X0.739S0
G1 X2.12S500
G1 X1.458S0
G1 X2.12S500
G1 X0.739S0
G1 X2.257S500
G1 X2.291S0
G1 X2.476S500
G1 X3.106S0
G1 X2.476S500
G1 X2.616S0
G1 X2.258S500
G1 X3.315S0
G1 X2.859S500
G1 X2.629S0
G1 X2.478S500
G1 X2.469S0
G1 X2.455S500
G1 X2.36S0
G1 X4.027S500
G1 X1.574S0
G1 X2.027S500
G1 X3.441S0
G1 X2.296S500
G1 X2.205S0
G1 X2.598S500
G1 X2.911S0
G1 X2.978S500
G1 X2.5S0
G1 Y0.1
G1 X-2.5
G1 X-3.07S500
G1 X-2.732S0
G1 X-2.649S500
G1 X-2.261S0
G1 X-2.312S500
G1 X-3.328S0
G1 X-2.095S500
G1 X-1.536S0
G1 X-3.503S500
G1 X-2.931S0
G1 X-2.455S500
G1 X-2.487S0
G1 X-2.519S500
G1 X-2.475S0
G1 X-2.954S500
G1 X-3.315S0
G1 X-2.258S500
G1 X-2.666S0
G1 X-2.514S500
G1 X-2.929S0
G1 X-2.517S500
G1 X-2.339S0
G1 X-2.257S500
G1 X-0.714S0
G1 X-2.118S500
G1 X-1.512S0
G1 X-2.118S500
G1 X-0.714S0
G1 X-2.258S500
G1 X-2.5S0
G1 Y0.1
G1 X2.5
G1 X2.258S500
G1 X0.689S0
G1 X2.117S500
G1 X1.564S0
G1 X2.117S500
G1 X0.689S0
G1 X2.257S500
G1 X2.394S0
G1 X2.567S500
G1 X2.715S0
G1 X2.568S500
G1 X2.721S0
G1 X2.258S500
G1 X3.315S0
G1 X3.075S500
G1 X2.281S0
G1 X2.571S500
G1 X2.508S0
G1 X2.455S500
G1 X3.249S0
G1 X3.233S500
G1 X1.496S0
G1 X2.179S500
G1 X3.189S0
G1 X2.335S500
G1 X2.328S0
G1 X2.715S500
G1 X2.511S0
G1 X3.182S500
G1 X2.5S0
G1 Y0.1
G1 X-2.5
G1 X-3.306S500
G1 X-2.268S0
G1 X-2.785S500
G1 X-2.4S0
G1 X-2.372S500
G1 X-3.029S0
G1 X-2.256S500
G1 X-1.479S0
G1 X-3.054S500
G1 X-3.468S0
G1 X-2.455S500
G1 X-2.531S0
G1 X-2.643S500
G1 X-2.053S0
G1 X-3.208S500
G1 X-3.315S0
G1 X-2.258S500
G1 X-2.776S0
G1 X-2.636S500
G1 X-2.468S0
G1 X-2.636S500
G1 X-2.449S0
G1 X-2.257S500
G1 X-0.664S0
G1 X-2.115S500
G1 X-1.618S0
G1 X-2.115S500
G1 X-0.664S0
G1 X-2.258S500
G1 X-2.5S0
G1 Y0.1
G1 X2.5
G1 X2.258S500
G1 X0.638S0
G1 X2.115S500
G1 X1.67S0
G1 X2.115S500
G1 X0.638S0
G1 X2.257S500
G1 X2.504S0
G1 X2.732S500
G1 X2.173S0
G1 X2.725S500
G1 X2.831S0
G1 X2.258S500
G1 X3.315S0
G1 X3.374S500
G1 X1.756S0
G1 X2.744S500
G1 X2.561S0
G1 X2.455S500
G1 X3.638S0
G1 X2.918S500
G1 X1.472S0
G1 X2.347S500
G1 X2.848S0
G1 X2.412S500
G1 X2.471S0
G1 X2.89S500
G1 X1.958S0
G1 X3.463S500
G1 X2.5S0
G1 Y0.1
G1 X-2.5
G1 X-3.649S500
G1 X-1.588S0
G1 X-3.026S500
G1 X-2.542S0
G1 X-2.487S500
G1 X-2.607S0
G1 X-2.463S500
G1 X-1.464S0
G1 X-2.827S500
G1 X-3.764S0
G1 X-2.455S500
G1 X-2.592S0
G1 X-2.912S500
G1 X-1.329S0
G1 X-3.602S500
G1 X-3.315S0
G1 X-2.258S500
G1 X-2.899S0
G1 X-2.841S500
G1 X-1.812S0
G1 X-2.845S500
G1 X-2.568S0
G1 X-2.257S500
G1 X-0.613S0
G1 X-2.113S500
G1 X-1.724S0
G1 X-2.113S500
G1 X-0.613S0
G1 X-2.258S500
G1 X-2.5S0
G1 Y0.1
G1 X2.5
G1 X2.258S500
G1 X0.588S0
G1 X2.112S500
G1 X1.776S0
G1 X2.112S500
G1 X0.588S0
G1 X2.257S500
G1 X2.637S0
G1 X3.039S500
G1 X1.276S0
G1 X3.044S500
G1 X2.221S0
G1 X4.109S500
G1 X2.212S0
G1 X4.032S500
G1 X0.484S0
G1 X3.287S500
G1 X2.632S0
G1 X2.455S500
G1 X3.87S0
G1 X2.755S500
G1 X1.473S0
G1 X2.601S500
G1 X2.279S0
G1 X2.597S500
G1 X2.639S0
G1 X3.237S500
G1 X1.045S0
G1 X3.921S500
G1 X2.5S0
G1 Y0.1
G1 X-2.5
G1 X-8.141S500
G1 X-2.739S0
G1 X-2.788S500
G1 X-1.77S0
G1 X-2.835S500
G1 X-1.495S0
G1 X-2.69S500
G1 X-3.959S0
G1 X-2.455S500
G1 X-2.673S0
G1 X-7.762S500
G1 X-1.902S0
G1 X-4.622S500
G1 X-2.087S0
G1 X-7.22S500
G1 X-2.707S0
G1 X-2.257S500
G1 X-0.563S0
G1 X-2.11S500
G1 X-1.83S0
G1 X-2.11S500
G1 X-0.563S0
G1 X-2.258S500
G1 X-2.5S0
G1 Y0.1
G1 X2.5
G1 X2.258S500
G1 X0.538S0
G1 X2.109S500
G1 X1.882S0
G1 X2.109S500
G1 X0.538S0
G1 X2.257S500
G1 X2.779S0
G1 X7.072S500
G1 X2.04S0
G1 X4.907S500
G1 X1.74S0
G1 X7.713S500
G1 X2.722S0
G1 X2.455S500
G1 X4.03S0
G1 X2.641S500
G1 X1.519S0
G1 X3.565S500
G1 X0.377S0
G1 X3.368S500
G1 X2.838S0
G1 X8.079S500
G1 X2.5S0
G1 Y0.1
G1 X-2.5
G1 X-8.009S500
G1 X-2.945S0
G1 X-7.209S500
G1 X-1.56S0
G1 X-2.604S500
G1 X-4.09S0
G1 X-2.455S500
G1 X-2.775S0
G1 X-7.66S500
G1 X-1.646S0
G1 X-5.087S500
G1 X-2.042S0
G1 X-6.897S500
G1 X-2.866S0
G1 X-2.257S500
G1 X-0.513S0
G1 X-2.107S500
G1 X-1.936S0
G1 X-2.107S500
G1 X-0.513S0
G1 X-2.258S500
G1 X-2.5S0
G1 Y0.1
G1 X2.5
G1 X2.258S500
G1 X0.487S0
G1 X2.106S500
G1 X1.989S0
G1 X2.106S500
G1 X0.488S0
G1 X2.257S500
G1 X2.953S0
G1 X6.723S500
G1 X2.071S0
G1 X5.21S500
G1 X1.581S0
G1 X2.257S500
G1 X0.004S0
G1 X5.34S500
G1 X2.834S0
G1 X2.455S500
G1 X4.142S0
G1 X2.575S500
G1 X1.602S0
G1 X7.088S500
G1 X3.079S0
G1 X5.778S500
G1 X0.02S0
G1 X2.133S500
G1 X2.5S0
G1 Y0.1
G1 X-2.5
G1 X-2.133S500
G1 X-0.119S0
G1 X-5.601S500
G1 X-3.215S0
G1 X-6.962S500
G1 X-1.657S0
G1 X-2.551S500
G1 X-4.179S0
G1 X-2.455S500
G1 X-2.898S0
G1 X-5.185S500
G1 X-0.095S0
G1 X-2.257S500
G1 X-1.543S0
G1 X-5.287S500
G1 X-2.122S0
G1 X-6.546S500
G1 X-3.04S0
G1 X-2.257S500
G1 X-0.462S0
G1 X-2.105S500
G1 X-2.042S0
G1 X-2.105S500
G1 X-0.462S0
G1 X-2.258S500
G1 X-2.5S0
G1 Y0.1
G1 X2.5
G1 X2.258S500
G1 X0.437S0
G1 X2.103S500
G1 X2.095S0
G1 X2.104S500
G1 X0.437S0
G1 X2.257S500
G1 X3.148S0
G1 X6.33S500
G1 X2.203S0
G1 X5.336S500
G1 X1.521S0
G1 X2.257S500
G1 X0.185S0
G1 X5.031S500
G1 X2.962S0
G1 X2.455S500
G1 X4.217S0
G1 X2.525S500
G1 X1.735S0
G1 X6.813S500
G1 X3.359S0
G1 X5.418S500
G1 X0.217S0
G1 X2.133S500
G1 X2.5S0
G1 Y0.1
G1 X-2.5
G1 X-2.133S500
G1 X-0.316S0
G1 X-5.222S500
G1 X-3.524S0
G1 X-6.656S500
G1 X-1.811S0
G1 X-2.515S500
G1 X-4.24S0
G1 X-2.455S500
G1 X-3.033S0
G1 X-4.862S500
G1 X-0.283S0
G1 X-2.257S500
G1 X-1.51S0
G1 X-5.356S500
G1 X-2.303S0
G1 X-6.112S500
G1 X-3.257S0
G1 X-2.257S500
G1 X-0.412S0
G1 X-2.102S500
G1 X-2.148S0
G1 X-2.102S500
G1 X-0.412S0
G1 X-2.258S500
G1 X-2.5S0
G1 Y0.1
G1 X2.5
G1 X2.258S500
G1 X0.387S0
G1 X2.1S500
G1 X2.202S0
G1 X2.1S500
G1 X0.387S0
G1 X2.257S500
G1 X3.369S0
G1 X5.885S500
G1 X2.418S0
G1 X5.357S500
G1 X1.509S0
G1 X2.257S500
G1 X0.384S0
G1 X4.675S500
G1 X3.119S0
G1 X2.455S500
G1 X4.26S0
G1 X2.508S500
G1 X1.902S0
G1 X6.464S500
G1 X3.709S0
G1 X5.01S500
G1 X0.431S0
G1 X2.133S500
G1 X2.5S0
G1 Y0.1
G1 X-2.5
G1 X-2.133S500
G1 X-0.547S0
G1 X-4.783S500
G1 X-3.909S0
G1 X-6.252S500
G1 X-2.019S0
G1 X-2.494S500
G1 X-4.28S0
G1 X-2.455S500
G1 X-3.204S0
G1 X-4.482S500
G1 X-0.492S0
G1 X-2.257S500
G1 X-1.519S0
G1 X-5.337S500
G1 X-2.563S0
G1 X-5.614S500
G1 X-3.505S0
G1 X-2.257S500
G1 X-0.362S0
G1 X-2.099S500
G1 X-2.254S0
G1 X-2.099S500
G1 X-0.362S0
G1 X-2.258S500
G1 X-2.5S0
G1 Y0.1
G1 X2.5
G1 X2.258S500
G1 X0.336S0
G1 X2.098S500
G1 X2.308S0
G1 X2.097S500
G1 X0.337S0
G1 X2.257S500
G1 X3.641S0
G1 X5.343S500
G1 X2.726S0
G1 X5.283S500
G1 X1.545S0
G1 X2.257S500
G1 X0.606S0
G1 X4.268S500
G1 X3.304S0
G1 X2.455S500
G1 X4.286S0
G1 X2.492S500
G1 X2.138S0
G1 X6.028S500
G1 X4.131S0
G1 X4.542S500
G1 X0.667S0
G1 X2.133S500
G1 X2.5S0
G1 Y0.1
G1 X-2.5
G1 X-2.133S500
G1 X-0.807S0
G1 X-4.275S500
G1 X-4.39S0
G1 X-5.733S500
G1 X-2.297S0
G1 X-2.49S500
G1 X-4.292S0
G1 X-2.455S500
G1 X-3.418S0
G1 X-4.027S500
G1 X-0.733S0
G1 X-2.257S500
G1 X-1.582S0
G1 X-5.207S500
G1 X-2.926S0
G1 X-5.024S500
G1 X-3.799S0
G1 X-2.257S500
G1 X-0.311S0
G1 X-2.097S500
G1 X-2.36S0
G1 X-2.097S500
G1 X-0.311S0
G1 X-2.258S500
G1 X-2.5S0
G1 Y0.1
G1 X2.5
G1 X2.258S500
G1 X0.286S0
G1 X2.095S500
G1 X2.414S0
G1 X2.095S500
G1 X0.286S0
G1 X2.257S500
G1 X3.972S0
G1 X4.68S500
G1 X3.158S0
G1 X5.089S500
G1 X1.639S0
G1 X2.257S500
G1 X0.868S0
G1 X3.775S500
G1 X3.535S0
G1 X2.455S500
G1 X4.298S0
G1 X2.488S500
G1 X2.457S0
G1 X5.438S500
G1 X4.673S0
G1 X3.983S500
G1 X0.947S0
G1 X2.133S500
G1 X2.5S0
G1 Y0.1
G1 X-2.5
G1 X-2.133S500
G1 X-1.115S0
G1 X-3.654S500
G1 X-5.015S0
G1 X-5.052S500
G1 X-2.661S0
G1 X-2.493S500
G1 X-4.294S0
G1 X-2.455S500
G1 X-3.691S0
G1 X-3.464S500
G1 X-1.023S0
G1 X-2.257S500
G1 X-1.726S0
G1 X-4.91S500
G1 X-3.447S0
G1 X-4.287S500
G1 X-4.168S0
G1 X-2.257S500
G1 X-0.261S0
G1 X-2.094S500
G1 X-2.466S0
G1 X-2.094S500
G1 X-0.261S0
G1 X-2.258S500
G1 X-2.5S0
G1 Y0.1
G1 X2.5
G1 X2.258S500
G1 X0.236S0
G1 X2.092S500
G1 X2.52S0
G1 X2.092S500
G1 X0.236S0
G1 X2.257S500
G1 X4.39S0
G1 X3.845S500
G1 X3.799S0
G1 X4.655S500
G1 X1.849S0
G1 X2.257S500
G1 X1.205S0
G1 X3.125S500
G1 X3.848S0
G1 X2.455S500
G1 X4.286S0
G1 X2.497S500
G1 X2.879S0
G1 X4.643S500
G1 X5.408S0
G1 X3.28S500
G1 X1.291S0
G1 X2.133S500
G1 X2.5S0
G1 Y0.1
G1 X-2.5
G1 X-2.133S500
G1 X-1.526S0
G1 X-2.809S500
G1 X-5.92S0
G1 X-4.08S500
G1 X-3.17S0
G1 X-2.501S500
G1 X-4.278S0
G1 X-2.455S500
G1 X-4.065S0
G1 X-2.691S500
G1 X-1.422S0
G1 X-2.257S500
G1 X-2.054S0
G1 X-4.231S500
G1 X-4.292S0
G1 X-3.297S500
G1 X-4.664S0
G1 X-2.257S500
G1 X-0.211S0
G1 X-2.091S500
G1 X-2.572S0
G1 X-2.091S500
G1 X-0.211S0
G1 X-2.258S500
G1 X-2.5S0
G1 Y0.1
G1 X2.5
G1 X2.258S500
G1 X0.186S0
G1 X2.089S500
G1 X2.626S0
G1 X2.089S500
G1 X0.186S0
G1 X2.257S500
G1 X4.997S0
G1 X2.631S500
G1 X5.337S0
G1 X2.258S500
G1 X3.315S0
G1 X2.257S500
G1 X1.698S0
G1 X2.15S500
G1 X4.33S0
G1 X2.455S500
G1 X4.271S0
G1 X2.504S500
G1 X3.518S0
G1 X3.393S500
G1 X6.563S0
G1 X2.208S500
G1 X1.827S0
G1 X2.133S500
G1 X2.5S0
G1 Y0.1
G1 X-2.5
G1 X-2.133S500
G1 X-2.326S0
G1 X-1.216S500
G1 X-7.603S0
G1 X-2.326S500
G1 X-4.043S0
G1 X-2.524S500
G1 X-4.246S0
G1 X-2.455S500
G1 X-4.731S0
G1 X-1.328S500
G1 X-2.119S0
G1 X-2.257S500
G1 X-3.315S0
G1 X-2.258S500
G1 X-5.849S0
G1 X-1.608S500
G1 X-5.508S0
G1 X-2.257S500
G1 X-0.16S0
G1 X-2.089S500
G1 X-2.678S0
G1 X-2.089S500
G1 X-0.16S0
G1 X-2.258S500
G1 X-2.5S0
G1 Y0.1
G1 X2.5
G1 X2.258S500
G1 X0.135S0
G1 X2.087S500
G1 X2.732S0
G1 X2.087S500
G1 X0.135S0
G1 X2.257S500
G1 X12.965S0
G1 X2.258S500
G1 X3.315S0
G1 X2.257S500
G1 X8.178S0
G1 X2.455S500
G1 X4.22S0
G1 X2.537S500
G1 X17.527S0
G1 X2.133S500
G1 X2.987S0
G1 X0.435S500
G1 X1.301S0
G1 X0.41S500
G1 X1.079S0
G1 X0.338S500
G1 X1.148S0
G1 X0.42S500
G1 X2.5S0
G1 X-0.006Y0.1
G1 X-2.5
G1 X-0.42S500
G1 X-1.106S0
G1 X-0.408S500
G1 X-1.039S0
G1 X-0.409S500
G1 X-1.308S0
G1 X-0.435S500
G1 X-2.987S0
G1 X-2.133S500
G1 X-17.54S0
G1 X-2.549S500
G1 X-4.195S0
G1 X-2.455S500
G1 X-8.178S0
G1 X-2.257S500
G1 X-3.315S0
G1 X-2.258S500
G1 X-12.965S0
G1 X-2.257S500
G1 X-0.11S0
G1 X-2.086S500
G1 X-2.784S0
G1 X-2.086S500
G1 X-0.11S0
G1 X-2.258S500
G1 X-2.5S0
G1 Y0.1
G1 X2.5
G1 X2.258S500
G1 X0.085S0
G1 X2.084S500
G1 X2.838S0
G1 X2.084S500
G1 X0.085S0
G1 X2.257S500
G1 X12.965S0
G1 X2.258S500
G1 X3.315S0
G1 X2.257S500
G1 X8.178S0
G1 X2.455S500
G1 X4.158S0
G1 X2.573S500
G1 X17.553S0
G1 X2.133S500
G1 X2.987S0
G1 X0.435S500
G1 X1.315S0
G1 X0.408S500
G1 X0.999S0
G1 X0.478S500
G1 X1.065S0
G1 X0.419S500
G1 X2.5S0
G1 X-0.007Y0.1
G1 X-2.5
G1 X-0.418S500
G1 X-1.022S0
G1 X-0.549S500
G1 X-0.959S0
G1 X-0.407S500
G1 X-1.322S0
G1 X-0.435S500
G1 X-2.987S0
G1 X-2.133S500
G1 X-17.566S0
G1 X-2.608S500
G1 X-4.11S0
G1 X-2.455S500
G1 X-8.178S0
G1 X-2.257S500
G1 X-3.315S0
G1 X-2.258S500
G1 X-12.965S0
G1 X-2.257S500
G1 X-0.06S0
G1 X-2.083S500
G1 X-2.89S0
G1 X-2.083S500
G1 X-0.06S0
G1 X-2.258S500
G1 X-2.5S0
G1 Y0.1
G1 X2.5
G1 X2.258S500
G1 X0.035S0
G1 X2.081S500
G1 X2.944S0
G1 X2.081S500
G1 X0.035S0
G1 X2.257S500
G1 X12.965S0
G1 X2.258S500
G1 X3.315S0
G1 X2.257S500
G1 X8.178S0
G1 X2.455S500
G1 X4.063S0
G1 X2.631S500
G1 X17.59S0
G1 X2.133S500
G1 X2.987S0
G1 X0.435S500
G1 X1.329S0
G1 X0.407S500
G1 X0.919S0
G1 X0.618S500
G1 X0.98S0
G1 X0.418S500
G1 X2.5S0
G1 X-0.006Y0.1
G1 X-2.5
G1 X-0.418S500
G1 X-0.937S0
G1 X-0.689S500
G1 X-0.879S0
G1 X-0.406S500
G1 X-1.336S0
G1 X-0.435S500
G1 X-2.987S0
G1 X-2.133S500
G1 X-17.613S0
G1 X-2.668S500
G1 X-4.003S0
G1 X-2.455S500
G1 X-8.178S0
G1 X-2.257S500
G1 X-3.315S0
G1 X-2.258S500
G1 X-12.965S0
G1 X-2.257S500
G1 X-0.009S0
G1 X-2.081S500
G1 X-2.996S0
G1 X-2.081S500
G1 X-0.009S0
G1 X-2.258S500
G1 X-2.5S0
G1 Y0.1
G1 X2.5
G1 X4.321S500
G1 X3.05S0
G1 X4.32S500
G1 X12.965S0
G1 X2.258S500
G1 X3.315S0
G1 X2.257S500
G1 X8.178S0
G1 X2.455S500
G1 X3.927S0
G1 X2.721S500
G1 X17.636S0
G1 X2.133S500
G1 X2.987S0
G1 X0.435S500
G1 X1.343S0
G1 X0.405S500
G1 X0.839S0
G1 X0.386S500
G1 X0.036S0
G1 X0.337S500
G1 X0.896S0
G1 X0.417S500
G1 X2.5S0
G1 X-0.007Y0.1
G1 X-2.5
G1 X-0.416S500
G1 X-0.854S0
G1 X-0.344S500
G1 X-0.092S0
G1 X-0.393S500
G1 X-0.799S0
G1 X-0.404S500
G1 X-1.35S0
G1 X-0.435S500
G1 X-2.987S0
G1 X-2.133S500
G1 X-17.662S0
G1 X-2.771S500
G1 X-3.851S0
G1 X-2.455S500
G1 X-8.178S0
G1 X-2.257S500
G1 X-3.315S0
G1 X-2.258S500
G1 X-12.965S0
G1 X-4.294S500
G1 X-3.103S0
G1 X-4.294S500
G1 X-2.5S0
G1 Y0.1
G1 X2.5
G1 X4.268S500
G1 X3.156S0
G1 X4.267S500
G1 X12.965S0
G1 X2.258S500
G1 X3.315S0
G1 X2.257S500
G1 X8.178S0
G1 X2.455S500
G1 X3.744S0
G1 X2.844S500
G1 X17.696S0
G1 X2.133S500
G1 X2.987S0
G1 X0.435S500
G1 X1.357S0
G1 X0.404S500
G1 X0.758S0
G1 X0.399S500
G1 X0.148S0
G1 X0.353S500
G1 X0.811S0
G1 X0.416S500
G1 X2.5S0
G1 X-0.006Y0.1
G1 X-2.5
G1 X-0.416S500
G1 X-0.769S0
G1 X-0.36S500
G1 X-0.204S0
G1 X-0.406S500
G1 X-0.718S0
G1 X-0.403S500
G1 X-1.364S0
G1 X-0.435S500
G1 X-2.987S0
G1 X-2.133S500
G1 X-17.73S0
G1 X-2.951S500
G1 X-3.603S0
G1 X-2.455S500
G1 X-8.178S0
G1 X-2.257S500
G1 X-3.315S0
G1 X-2.258S500
G1 X-12.965S0
G1 X-4.24S500
G1 X-3.21S0
G1 X-4.241S500
G1 X-2.5S0
G1 Y0.1
G1 X2.5
G1 X4.215S500
G1 X3.262S0
G1 X4.214S500
G1 X12.965S0
G1 X2.258S500
G1 X3.315S0
G1 X2.257S500
G1 X8.178S0
G1 X2.455S500
G1 X3.41S0
G1 X3.109S500
G1 X17.765S0
G1 X2.133S500
G1 X2.987S0
G1 X0.435S500
G1 X1.371S0
G1 X0.402S500
G1 X0.678S0
G1 X0.412S500
G1 X0.261S0
G1 X0.368S500
G1 X0.727S0
G1 X0.415S500
G1 X2.5S0
G1 X-0.007Y0.1
G1 X-2.5
G1 X-0.414S500
G1 X-0.685S0
G1 X-0.375S500
G1 X-0.318S0
G1 X-0.418S500
G1 X-0.638S0
G1 X-0.401S500
G1 X-1.378S0
G1 X-0.435S500
G1 X-2.987S0
G1 X-2.133S500
G1 X-17.807S0
G1 X-3.348S500
G1 X-3.129S0
G1 X-2.455S500
G1 X-8.178S0
G1 X-2.257S500
G1 X-3.315S0
G1 X-2.258S500
G1 X-12.965S0
G1 X-4.187S500
G1 X-3.316S0
G1 X-4.188S500
G1 X-2.5S0
G1 Y0.1
G1 X2.5
G1 X4.162S500
G1 X3.368S0
G1 X4.161S500
G1 X12.966S0
G1 X2.257S500
G1 X3.315S0
G1 X2.257S500
G1 X8.178S0
G1 X2.455S500
G1 X2.663S0
G1 X3.767S500
G1 X17.854S0
G1 X2.133S500
G1 X2.987S0
G1 X0.435S500
G1 X1.385S0
G1 X0.4S500
G1 X0.598S0
G1 X0.42S500
G1 X0.383S0
G1 X0.378S500
G1 X0.643S0
G1 X0.414S500
G1 X2.5S0
G1 X-0.006Y0.1
G1 X-2.5
G1 X-0.413S500
G1 X-0.601S0
G1 X-0.381S500
G1 X-0.449S0
G1 X-0.422S500
G1 X-0.557S0
G1 X-0.4S500
G1 X-1.392S0
G1 X-0.435S500
G1 X-2.987S0
G1 X-2.133S500
G1 X-17.901S0
G1 X-8.838S500
G1 X-8.178S0
G1 X-2.257S500
G1 X-3.315S0
G1 X-2.257S500
G1 X-12.966S0
G1 X-4.134S500
G1 X-3.422S0
G1 X-4.135S500
G1 X-2.5S0
G1 Y0.1
G1 X2.5
G1 X4.109S500
G1 X3.474S0
G1 X4.108S500
G1 X12.968S0
G1 X2.253S500
G1 X3.317S0
G1 X2.257S500
G1 X8.178S0
G1 X8.786S500
G1 X17.953S0
G1 X2.133S500
G1 X2.987S0
G1 X0.435S500
G1 X1.399S0
G1 X0.399S500
G1 X0.517S0
G1 X0.424S500
G1 X0.515S0
G1 X0.383S500
G1 X0.559S0
G1 X0.413S500
G1 X2.5S0
G1 X-0.006Y0.1
G1 X-2.5
G1 X-0.412S500
G1 X-0.517S0
G1 X-0.387S500
G1 X-0.58S0
G1 X-0.426S500
G1 X-0.478S0
G1 X-0.397S500
G1 X-1.406S0
G1 X-0.435S500
G1 X-2.987S0
G1 X-2.133S500
G1 X-18.014S0
G1 X-8.725S500
G1 X-8.178S0
G1 X-2.257S500
G1 X-3.318S0
G1 X-2.25S500
G1 X-12.97S0
G1 X-4.081S500
G1 X-3.528S0
G1 X-4.082S500
G1 X-2.5S0
G1 Y0.1
G1 X2.5
G1 X4.055S500
G1 X3.582S0
G1 X4.054S500
G1 X12.972S0
G1 X2.245S500
G1 X3.321S0
G1 X2.257S500
G1 X8.178S0
G1 X8.663S500
G1 X18.076S0
G1 X2.133S500
G1 X2.987S0
G1 X0.435S500
G1 X1.413S0
G1 X0.395S500
G1 X0.44S0
G1 X0.427S500
G1 X0.646S0
G1 X0.389S500
G1 X0.476S0
G1 X0.41S500
G1 X2.5S0
G1 X-0.006Y0.1
G1 X-2.5
G1 X-0.409S500
G1 X-0.436S0
G1 X-0.39S500
G1 X-0.713S0
G1 X-0.427S500
G1 X-0.402S0
G1 X-0.393S500
G1 X-1.42S0
G1 X-0.435S500
G1 X-2.987S0
G1 X-2.133S500
G1 X-18.142S0
G1 X-8.592S500
G1 X-8.183S0
G1 X-2.257S500
G1 X-3.326S0
G1 X-2.235S500
G1 X-12.977S0
G1 X-4.027S500
G1 X-3.636S0
G1 X-4.028S500
G1 X-2.5S0
G1 X0.003Y0.1
G1 X2.5
G1 X3.997S500
G1 X3.692S0
G1 X3.997S500
G1 X12.983S0
G1 X2.226S500
G1 X3.331S0
G1 X2.257S500
G1 X8.19S0
G1 X8.506S500
G1 X18.221S0
G1 X2.133S500
G1 X2.987S0
G1 X0.435S500
G1 X1.427S0
G1 X0.391S500
G1 X0.365S0
G1 X0.424S500
G1 X0.785S0
G1 X0.388S500
G1 X0.396S0
G1 X0.408S500
G1 X2.5S0
G1 X-0.006Y0.1
G1 X-2.5
G1 X-0.407S500
G1 X-0.356S0
G1 X-0.386S500
G1 X-0.858S0
G1 X-0.42S500
G1 X-0.327S0
G1 X-0.39S500
G1 X-1.434S0
G1 X-0.435S500
G1 X-2.987S0
G1 X-2.133S500
G1 X-18.3S0
G1 X-8.421S500
G1 X-8.196S0
G1 X-2.257S500
G1 X-3.34S0
G1 X-2.209S500
G1 X-12.998S0
G1 X-3.961S500
G1 X-3.75S0
G1 X-3.961S500
G1 X-2.5S0
G1 X0.007Y0.1
G1 X2.5
G1 X3.923S500
G1 X3.812S0
G1 X3.923S500
G1 X13.015S0
G1 X2.189S500
G1 X3.353S0
G1 X2.251S500
G1 X8.208S0
G1 X8.323S500
G1 X18.394S0
G1 X2.128S500
G1 X2.987S0
G1 X0.435S500
G1 X1.441S0
G1 X0.388S500
G1 X0.29S0
G1 X0.417S500
G1 X0.93S0
G1 X0.384S500
G1 X0.316S0
G1 X0.405S500
G1 X2.5S0
G1 X-0.006Y0.1
G1 X-2.5
G1 X-0.403S500
G1 X-0.277S0
G1 X-0.383S500
G1 X-1.001S0
G1 X-0.414S500
G1 X-0.253S0
G1 X-0.386S500
G1 X-1.448S0
G1 X-0.435S500
G1 X-2.991S0
G1 X-2.119S500
G1 X-18.499S0
G1 X-8.201S500
G1 X-8.236S0
G1 X-2.239S500
G1 X-3.374S0
G1 X-2.155S500
G1 X-13.041S0
G1 X-3.886S500
G1 X-3.872S0
G1 X-3.886S500
G1 X-2.5S0
G1 X0.021Y0.1
G1 X2.5
G1 X3.831S500
G1 X3.94S0
G1 X3.831S500
G1 X13.081S0
G1 X2.118S500
G1 X3.398S0
G1 X2.227S500
G1 X8.264S0
G1 X8.078S500
G1 X18.605S0
G1 X2.108S500
G1 X2.997S0
G1 X0.435S500
G1 X1.454S0
G1 X0.384S500
G1 X0.217S0
G1 X0.41S500
G1 X1.074S0
G1 X0.381S500
G1 X0.238S0
G1 X0.401S500
G1 X2.5S0
G1 X-0.006Y0.1
G1 X-2.5
G1 X-0.397S500
G1 X-0.202S0
G1 X-0.378S500
G1 X-1.146S0
G1 X-0.404S500
G1 X-0.184S0
G1 X-0.381S500
G1 X-1.461S0
G1 X-0.435S500
G1 X-3.003S0
G1 X-2.088S500
G1 X-18.744S0
G1 X-7.932S500
G1 X-8.296S0
G1 X-2.206S500
G1 X-3.436S0
G1 X-2.062S500
G1 X-13.135S0
G1 X-3.77S500
G1 X-4.01S0
G1 X-3.77S500
G1 X-2.5S0
G1 X0.026Y0.1
G1 X2.5
G1 X3.707S500
G1 X4.084S0
G1 X3.707S500
G1 X13.205S0
G1 X1.978S500
G1 X3.496S0
G1 X2.165S500
G1 X8.362S0
G1 X7.76S500
G1 X18.889S0
G1 X2.054S500
G1 X3.019S0
G1 X0.435S500
G1 X1.468S0
G1 X0.377S500
G1 X0.153S0
G1 X0.397S500
G1 X1.218S0
G1 X0.372S500
G1 X0.169S0
G1 X0.392S500
G1 X2.5S0
G1 X-0.006Y0.1
G1 X-2.5
G1 X-0.388S500
G1 X-0.136S0
G1 X-0.366S500
G1 X-1.291S0
G1 X-0.388S500
G1 X-0.122S0
G1 X-0.374S500
G1 X-1.475S0
G1 X-0.435S500
G1 X-3.039S0
G1 X-2.016S500
G1 X-19.059S0
G1 X-7.563S500
G1 X-8.427S0
G1 X-2.125S500
G1 X-3.569S0
G1 X-1.882S500
G1 X-13.295S0
G1 X-3.618S500
G1 X-4.168S0
G1 X-3.618S500
G1 X-2.5S0
G1 X0.054Y0.1
G1 X2.5
G1 X3.514S500
G1 X4.268S0
G1 X3.514S500
G1 X13.424S0
G1 X1.738S500
G1 X3.668S0
G1 X2.063S500
G1 X8.517S0
G1 X7.341S500
G1 X19.255S0
G1 X1.962S500
G1 X3.061S0
G1 X0.435S500
G1 X1.482S0
G1 X0.37S500
G1 X0.092S0
G1 X0.38S500
G1 X1.363S0
G1 X0.36S500
G1 X0.103S0
G1 X0.384S500
G1 X2.5S0
G1 X-0.006Y0.1
G1 X-2.5
G1 X-0.38S500
G1 X-0.069S0
G1 X-0.356S500
G1 X-1.434S0
G1 X-0.372S500
G1 X-0.061S0
G1 X-0.367S500
G1 X-1.489S0
G1 X-0.435S500
G1 X-3.1S0
G1 X-1.887S500
G1 X-19.496S0
G1 X-7.055S500
G1 X-8.638S0
G1 X-1.984S500
G1 X-3.8S0
G1 X-1.568S500
G1 X-13.575S0
G1 X-3.38S500
G1 X-4.388S0
G1 X-3.38S500
G1 X-2.5S0
G1 X0.106Y0.1
G1 X2.5
G1 X3.19S500
G1 X4.556S0
G1 X3.19S500
G1 X13.803S0
G1 X1.321S500
G1 X3.969S0
G1 X1.893S500
G1 X8.787S0
G1 X6.716S500
G1 X19.778S0
G1 X1.803S500
G1 X3.139S0
G1 X0.435S500
G1 X1.496S0
G1 X0.363S500
G1 X0.03S0
G1 X0.365S500
G1 X1.506S0
G1 X0.35S500
G1 X0.036S0
G1 X0.375S500
G1 X2.5S0
G1 X-0.006Y0.1
G1 X-2.5
G1 X-0.718S500
G1 X-1.579S0
G1 X-0.715S500
G1 X-1.503S0
G1 X-0.435S500
G1 X-3.204S0
G1 X-1.677S500
G1 X-20.144S0
G1 X-6.27S500
G1 X-8.996S0
G1 X-1.759S500
G1 X-4.194S0
G1 X-1.019S500
G1 X-14.105S0
G1 X-2.91S500
G1 X-4.798S0
G1 X-2.91S500
G1 X-2.5S0
G1 X0.238Y0.1
G1 X2.5
G1 X2.468S500
G1 X5.206S0
G1 X2.468S500
G1 X14.615S0
G1 X0.484S500
G1 X4.534S0
G1 X1.602S500
G1 X9.306S0
G1 X5.566S500
G1 X20.693S0
G1 X1.532S500
G1 X2.261S0
G1 X2.466S500
G1 X0.492S0
G1 X0.673S500
G1 X1.651S0
G1 X0.675S500
G1 X2.5S0
G1 X-0.006Y0.1
G1 X-2.5
G1 X-0.632S500
G1 X-1.723S0
G1 X-0.631S500
G1 X-0.499S0
G1 X-2.466S500
G1 X-2.368S0
G1 X-1.326S500
G1 X-21.923S0
G1 X-3.862S500
G1 X-9.988S0
G1 X-1.385S500
G1 X-20.29S0
G1 X-1.321S500
G1 X-6.403S0
G1 X-1.32S500
G1 X-2.5S0
G1 X29.495Y0.1
G1 X2.5
G1 X1.06S500
G1 X36.09S0
G1 X1.018S500
G1 X2.523S0
G1 X2.466S500
G1 X0.506S0
G1 X0.588S500
G1 X1.796S0
G1 X0.588S500
G1 X2.5S0
G1 X-8.778Y0.1
G1 X-2.5
G1 X-0.396S500
G1 X-36.731S0
G1 X-0.407S500
G1 X-2.5S0
G90
M9
G1 S0
M5
G90
; return to user-defined finish pos
G0 X0Y0
M2
