; LightBurn 1.7.04
; GRBL device profile, absolute coords
; Bounds: X80 Y115.06 to X320 Y284.94
G00 G17 G40 G21 G54
G90
M4
; Cut @ 1 mm/sec, 100% power
M8
G0 X114.649Y275.588
; Layer C01
G1 Y241.138S1000F60
G1 X114.669Y240.736
G1 X114.729Y240.346
G1 X114.827Y239.969
G1 X114.96Y239.607
G1 X115.126Y239.263
G1 X115.324Y238.938
G1 X115.552Y238.634
G1 X115.807Y238.354
G1 X116.087Y238.099
G1 X116.391Y237.872
G1 X116.716Y237.674
G1 X117.06Y237.507
G1 X117.422Y237.374
G1 X117.799Y237.277
G1 X118.189Y237.217
G1 X118.59Y237.196
G1 X118.992Y237.217
G1 X119.382Y237.277
G1 X119.759Y237.374
G1 X120.121Y237.507
G1 X120.465Y237.674
G1 X120.79Y237.872
G1 X121.094Y238.099
G1 X121.374Y238.354
G1 X121.629Y238.634
G1 X121.856Y238.938
G1 X122.054Y239.263
G1 X122.221Y239.607
G1 X122.354Y239.969
G1 X122.451Y240.346
G1 X122.511Y240.736
G1 X122.532Y241.138
G1 Y275.588
G1 X122.511Y275.989
G1 X122.451Y276.38
G1 X122.354Y276.757
G1 X122.221Y277.118
G1 X122.054Y277.463
G1 X121.856Y277.788
G1 X121.629Y278.091
G1 X121.374Y278.372
G1 X121.094Y278.626
G1 X120.79Y278.854
G1 X120.465Y279.052
G1 X120.121Y279.218
G1 X119.759Y279.352
G1 X119.382Y279.449
G1 X118.992Y279.509
G1 X118.59Y279.529
G1 X118.189Y279.509
G1 X117.799Y279.449
G1 X117.422Y279.352
G1 X117.06Y279.218
G1 X116.716Y279.052
G1 X116.391Y278.854
G1 X116.087Y278.626
G1 X115.807Y278.372
G1 X115.552Y278.091
G1 X115.324Y277.788
G1 X115.126Y277.463
G1 X114.96Y277.118
G1 X114.827Y276.757
G1 X114.729Y276.38
G1 X114.669Y275.989
G1 X114.649Y275.588
G1 Y275.088
G0 X107.604Y270.616
G1 X107.229Y270.732
G1 X106.889Y270.917
G1 X106.593Y271.161
G1 X106.349Y271.457
G1 X106.164Y271.797
G1 X106.048Y272.172
G1 X106.007Y272.575
G1 X106.048Y272.978
G1 X106.164Y273.354
G1 X106.349Y273.693
G1 X106.593Y273.989
G1 X106.889Y274.234
G1 X107.229Y274.418
G1 X107.604Y274.535
G1 X108.007Y274.575
G1 X108.41Y274.535
G1 X108.785Y274.418
G1 X109.125Y274.234
G1 X109.421Y273.989
G1 X109.665Y273.693
G1 X109.85Y273.354
G1 X109.966Y272.978
G1 X110.007Y272.575
G1 X109.966Y272.172
G1 X109.85Y271.797
G1 X109.665Y271.457
G1 X109.421Y271.161
G1 X109.125Y270.917
G1 X108.785Y270.732
G1 X108.41Y270.616
G1 X108.007Y270.575
G1 X107.604Y270.616
G1 X107.229Y270.732
G1 X107.505Y270.657
G0 X187.262Y276.746
G1 X187.516Y276.733
G1 X187.764Y276.695
G1 X188.003Y276.633
G1 X188.232Y276.548
G1 X188.657Y276.317
G1 X189.027Y276.011
G1 X189.333Y275.641
G1 X189.565Y275.216
G1 X189.649Y274.987
G1 X189.711Y274.748
G1 X189.749Y274.5
G1 X189.762Y274.246
G1 Y268.072
G1 X189.749Y267.818
G1 X189.711Y267.57
G1 X189.649Y267.331
G1 X189.565Y267.101
G1 X189.333Y266.677
G1 X189.027Y266.306
G1 X188.657Y266.001
G1 X188.232Y265.769
G1 X188.003Y265.685
G1 X187.764Y265.623
G1 X187.516Y265.585
G1 X187.262Y265.572
G1 X187.007Y265.585
G1 X186.759Y265.623
G1 X186.52Y265.685
G1 X186.291Y265.769
G1 X185.866Y266.001
G1 X185.496Y266.306
G1 X185.19Y266.677
G1 X184.959Y267.101
G1 X184.874Y267.331
G1 X184.813Y267.57
G1 X184.775Y267.818
G1 X184.762Y268.072
G1 Y274.246
G1 X184.775Y274.5
G1 X184.813Y274.748
G1 X184.874Y274.987
G1 X184.959Y275.216
G1 X185.19Y275.641
G1 X185.496Y276.011
G1 X185.866Y276.317
G1 X186.291Y276.548
G1 X186.52Y276.633
G1 X186.759Y276.695
G1 X187.007Y276.733
G1 X187.262Y276.746
G1 X187.516Y276.733
G1 X187.505Y276.721
G0 X142.336Y265.572
G1 X142.081Y265.585
G1 X141.834Y265.623
G1 X141.595Y265.685
G1 X141.365Y265.769
G1 X140.941Y266.001
G1 X140.57Y266.306
G1 X140.264Y266.677
G1 X140.033Y267.101
G1 X139.949Y267.331
G1 X139.887Y267.57
G1 X139.849Y267.818
G1 X139.836Y268.072
G1 Y274.246
G1 X139.849Y274.5
G1 X139.887Y274.748
G1 X139.949Y274.987
G1 X140.033Y275.216
G1 X140.264Y275.641
G1 X140.57Y276.011
G1 X140.941Y276.317
G1 X141.365Y276.548
G1 X141.595Y276.633
G1 X141.834Y276.695
G1 X142.081Y276.733
G1 X142.336Y276.746
G1 X142.591Y276.733
G1 X142.838Y276.695
G1 X143.077Y276.633
G1 X143.307Y276.548
G1 X143.731Y276.317
G1 X144.102Y276.011
G1 X144.408Y275.641
G1 X144.639Y275.216
G1 X144.723Y274.987
G1 X144.785Y274.748
G1 X144.823Y274.5
G1 X144.836Y274.246
G1 Y268.072
G1 X144.823Y267.818
G1 X144.785Y267.57
G1 X144.723Y267.331
G1 X144.639Y267.101
G1 X144.408Y266.677
G1 X144.102Y266.306
G1 X143.731Y266.001
G1 X143.307Y265.769
G1 X143.077Y265.685
G1 X142.838Y265.623
G1 X142.591Y265.585
G1 X142.336Y265.572
G1 X142.081Y265.585
G1 X142.092Y265.597
G0 X144.836Y246.146
G1 Y239.973
G1 X144.823Y239.718
G1 X144.785Y239.47
G1 X144.723Y239.231
G1 X144.639Y239.002
G1 X144.408Y238.577
G1 X144.102Y238.207
G1 X143.731Y237.901
G1 X143.307Y237.67
G1 X143.077Y237.585
G1 X142.838Y237.524
G1 X142.591Y237.486
G1 X142.336Y237.473
G1 X142.081Y237.486
G1 X141.834Y237.524
G1 X141.595Y237.585
G1 X141.365Y237.67
G1 X140.941Y237.901
G1 X140.57Y238.207
G1 X140.264Y238.577
G1 X140.033Y239.002
G1 X139.949Y239.231
G1 X139.887Y239.47
G1 X139.849Y239.718
G1 X139.836Y239.973
G1 Y246.146
G1 X139.849Y246.401
G1 X139.887Y246.648
G1 X139.949Y246.887
G1 X140.033Y247.117
G1 X140.264Y247.541
G1 X140.57Y247.912
G1 X140.941Y248.218
G1 X141.365Y248.449
G1 X141.595Y248.533
G1 X141.834Y248.595
G1 X142.081Y248.633
G1 X142.336Y248.646
G1 X142.591Y248.633
G1 X142.838Y248.595
G1 X143.077Y248.533
G1 X143.307Y248.449
G1 X143.731Y248.218
G1 X144.102Y247.912
G1 X144.408Y247.541
G1 X144.639Y247.117
G1 X144.723Y246.887
G1 X144.785Y246.648
G1 X144.823Y246.401
G1 X144.836Y246.146
G1 Y245.646
G0 X152.928Y248.52
G1 X153.304Y248.404
G1 X153.644Y248.219
G1 X153.94Y247.975
G1 X154.184Y247.679
G1 X154.368Y247.339
G1 X154.485Y246.964
G1 X154.525Y246.561
G1 X154.485Y246.158
G1 X154.368Y245.782
G1 X154.184Y245.443
G1 X153.94Y245.147
G1 X153.644Y244.902
G1 X153.304Y244.718
G1 X152.928Y244.601
G1 X152.525Y244.561
G1 X152.122Y244.601
G1 X151.747Y244.718
G1 X151.407Y244.902
G1 X151.111Y245.147
G1 X150.867Y245.443
G1 X150.683Y245.782
G1 X150.566Y246.158
G1 X150.525Y246.561
G1 X150.566Y246.964
G1 X150.683Y247.339
G1 X150.867Y247.679
G1 X151.111Y247.975
G1 X151.407Y248.219
G1 X151.747Y248.404
G1 X152.122Y248.52
G1 X152.525Y248.561
G1 X152.928Y248.52
G1 X153.304Y248.404
G1 X153.027Y248.479
G0 X150.463Y267.975
G1 X150.579Y268.351
G1 X150.764Y268.69
G1 X151.008Y268.986
G1 X151.304Y269.231
G1 X151.644Y269.415
G1 X152.019Y269.531
G1 X152.422Y269.572
G1 X152.825Y269.531
G1 X153.201Y269.415
G1 X153.54Y269.231
G1 X153.836Y268.986
G1 X154.08Y268.69
G1 X154.265Y268.351
G1 X154.381Y267.975
G1 X154.422Y267.572
G1 X154.381Y267.169
G1 X154.265Y266.794
G1 X154.08Y266.454
G1 X153.836Y266.158
G1 X153.54Y265.914
G1 X153.201Y265.729
G1 X152.825Y265.613
G1 X152.422Y265.572
G1 X152.019Y265.613
G1 X151.644Y265.729
G1 X151.304Y265.914
G1 X151.008Y266.158
G1 X150.764Y266.454
G1 X150.579Y266.794
G1 X150.463Y267.169
G1 X150.422Y267.572
G1 X150.463Y267.975
G1 X150.579Y268.351
G1 X150.504Y268.074
G0 X152.825Y276.535
G1 X153.201Y276.418
G1 X153.54Y276.234
G1 X153.836Y275.989
G1 X154.08Y275.693
G1 X154.265Y275.354
G1 X154.381Y274.978
G1 X154.422Y274.575
G1 X154.381Y274.172
G1 X154.265Y273.797
G1 X154.08Y273.457
G1 X153.836Y273.161
G1 X153.54Y272.917
G1 X153.201Y272.732
G1 X152.825Y272.616
G1 X152.422Y272.575
G1 X152.019Y272.616
G1 X151.644Y272.732
G1 X151.304Y272.917
G1 X151.008Y273.161
G1 X150.764Y273.457
G1 X150.579Y273.797
G1 X150.463Y274.172
G1 X150.422Y274.575
G1 X150.463Y274.978
G1 X150.579Y275.354
G1 X150.764Y275.693
G1 X151.008Y275.989
G1 X151.304Y276.234
G1 X151.644Y276.418
G1 X152.019Y276.535
G1 X152.422Y276.575
G1 X152.825Y276.535
G1 X153.201Y276.418
G1 X152.924Y276.493
G0 X178.928Y274.172
G1 X178.812Y273.797
G1 X178.627Y273.457
G1 X178.383Y273.161
G1 X178.087Y272.917
G1 X177.747Y272.732
G1 X177.372Y272.616
G1 X176.969Y272.575
G1 X176.566Y272.616
G1 X176.19Y272.732
G1 X175.851Y272.917
G1 X175.555Y273.161
G1 X175.311Y273.457
G1 X175.126Y273.797
G1 X175.01Y274.172
G1 X174.969Y274.575
G1 X175.01Y274.978
G1 X175.126Y275.354
G1 X175.311Y275.693
G1 X175.555Y275.989
G1 X175.851Y276.234
G1 X176.19Y276.418
G1 X176.566Y276.535
G1 X176.969Y276.575
G1 X177.372Y276.535
G1 X177.747Y276.418
G1 X178.087Y276.234
G1 X178.383Y275.989
G1 X178.627Y275.693
G1 X178.812Y275.354
G1 X178.928Y274.978
G1 X178.969Y274.575
G1 X178.928Y274.172
G1 X178.812Y273.797
G1 X178.887Y274.074
G0 X176.566Y265.613
G1 X176.19Y265.729
G1 X175.851Y265.914
G1 X175.555Y266.158
G1 X175.311Y266.454
G1 X175.126Y266.794
G1 X175.01Y267.169
G1 X174.969Y267.572
G1 X175.01Y267.975
G1 X175.126Y268.351
G1 X175.311Y268.69
G1 X175.555Y268.986
G1 X175.851Y269.231
G1 X176.19Y269.415
G1 X176.566Y269.531
G1 X176.969Y269.572
G1 X177.372Y269.531
G1 X177.747Y269.415
G1 X178.087Y269.231
G1 X178.383Y268.986
G1 X178.627Y268.69
G1 X178.812Y268.351
G1 X178.928Y267.975
G1 X178.969Y267.572
G1 X178.928Y267.169
G1 X178.812Y266.794
G1 X178.627Y266.454
G1 X178.383Y266.158
G1 X178.087Y265.914
G1 X177.747Y265.729
G1 X177.372Y265.613
G1 X176.969Y265.572
G1 X176.566Y265.613
G1 X176.19Y265.729
G1 X176.467Y265.654
G0 X182.717Y267.992
G1 Y274.326
G1 X182.695Y274.757
G1 X182.631Y275.176
G1 X182.526Y275.581
G1 X182.383Y275.969
G1 X182.204Y276.339
G1 X181.992Y276.688
G1 X181.747Y277.014
G1 X181.474Y277.315
G1 X181.173Y277.589
G1 X180.846Y277.833
G1 X180.497Y278.046
G1 X180.127Y278.225
G1 X179.739Y278.368
G1 X179.334Y278.473
G1 X178.915Y278.537
G1 X178.484Y278.559
G1 X151.052
G1 X150.621Y278.537
G1 X150.202Y278.473
G1 X149.797Y278.368
G1 X149.409Y278.225
G1 X149.039Y278.046
G1 X148.69Y277.833
G1 X148.364Y277.589
G1 X148.063Y277.315
G1 X147.789Y277.014
G1 X147.545Y276.688
G1 X147.332Y276.339
G1 X147.153Y275.969
G1 X147.01Y275.581
G1 X146.906Y275.176
G1 X146.841Y274.757
G1 X146.819Y274.326
G1 Y267.992
G1 X146.841Y267.561
G1 X146.906Y267.142
G1 X147.01Y266.737
G1 X147.153Y266.349
G1 X147.332Y265.979
G1 X147.545Y265.63
G1 X147.789Y265.303
G1 X148.063Y265.002
G1 X148.364Y264.729
G1 X148.69Y264.484
G1 X149.039Y264.272
G1 X149.409Y264.093
G1 X149.797Y263.95
G1 X150.202Y263.845
G1 X150.621Y263.781
G1 X151.052Y263.759
G1 X178.484
G1 X178.915Y263.781
G1 X179.334Y263.845
G1 X179.739Y263.95
G1 X180.127Y264.093
G1 X180.497Y264.272
G1 X180.846Y264.484
G1 X181.173Y264.729
G1 X181.474Y265.002
G1 X181.747Y265.303
G1 X181.992Y265.63
G1 X182.204Y265.979
G1 X182.383Y266.349
G1 X182.526Y266.737
G1 X182.631Y267.142
G1 X182.695Y267.561
G1 X182.717Y267.992
G1 Y268.492
G0 X188.457Y281.303
G1 X188.679Y281.12
G1 X188.862Y280.898
G1 X189Y280.643
G1 X189.088Y280.361
G1 X189.118Y280.059
G1 X189.088Y279.757
G1 X189Y279.475
G1 X188.862Y279.22
G1 X188.679Y278.998
G1 X188.457Y278.815
G1 X188.202Y278.677
G1 X187.92Y278.589
G1 X187.618Y278.559
G1 X187.316Y278.589
G1 X187.034Y278.677
G1 X186.78Y278.815
G1 X186.558Y278.998
G1 X186.374Y279.22
G1 X186.236Y279.475
G1 X186.149Y279.757
G1 X186.118Y280.059
G1 X186.149Y280.361
G1 X186.236Y280.643
G1 X186.374Y280.898
G1 X186.558Y281.12
G1 X186.78Y281.303
G1 X187.034Y281.441
G1 X187.316Y281.528
G1 X187.618Y281.559
G1 X187.92Y281.528
G1 X188.202Y281.441
G1 X188.457Y281.303
G1 X188.679Y281.12
G1 X188.607Y281.153
G0 X228.956Y276.012
G1 X228.773Y275.79
G1 X228.551Y275.607
G1 X228.296Y275.469
G1 X228.015Y275.381
G1 X227.712Y275.351
G1 X227.41Y275.381
G1 X227.129Y275.469
G1 X226.874Y275.607
G1 X226.652Y275.79
G1 X226.469Y276.012
G1 X226.33Y276.267
G1 X226.243Y276.549
G1 X226.212Y276.851
G1 X226.243Y277.153
G1 X226.33Y277.435
G1 X226.469Y277.69
G1 X226.652Y277.912
G1 X226.874Y278.095
G1 X227.129Y278.233
G1 X227.41Y278.321
G1 X227.712Y278.351
G1 X228.015Y278.321
G1 X228.296Y278.233
G1 X228.551Y278.095
G1 X228.773Y277.912
G1 X228.956Y277.69
G1 X229.094Y277.435
G1 X229.182Y277.153
G1 X229.212Y276.851
G1 X229.182Y276.549
G1 X229.094Y276.267
G1 X228.956Y276.012
G1 X228.773Y275.79
G1 X228.806Y275.862
G0 X241.898Y266.313
G1 X241.782Y265.938
G1 X241.597Y265.598
G1 X241.353Y265.302
G1 X241.057Y265.057
G1 X240.717Y264.873
G1 X240.342Y264.756
G1 X239.939Y264.716
G1 X239.536Y264.756
G1 X239.16Y264.873
G1 X238.821Y265.057
G1 X238.525Y265.302
G1 X238.281Y265.598
G1 X238.096Y265.938
G1 X237.98Y266.313
G1 X237.939Y266.716
G1 X237.98Y267.119
G1 X238.096Y267.495
G1 X238.281Y267.834
G1 X238.525Y268.13
G1 X238.821Y268.374
G1 X239.16Y268.559
G1 X239.536Y268.675
G1 X239.939Y268.716
G1 X240.342Y268.675
G1 X240.717Y268.559
G1 X241.057Y268.374
G1 X241.353Y268.13
G1 X241.597Y267.834
G1 X241.782Y267.495
G1 X241.898Y267.119
G1 X241.939Y266.716
G1 X241.898Y266.313
G1 X241.782Y265.938
G1 X241.857Y266.214
G0 X264.889Y268.675
G1 X265.264Y268.559
G1 X265.604Y268.374
G1 X265.9Y268.13
G1 X266.144Y267.834
G1 X266.329Y267.495
G1 X266.445Y267.119
G1 X266.486Y266.716
G1 X266.445Y266.313
G1 X266.329Y265.938
G1 X266.144Y265.598
G1 X265.9Y265.302
G1 X265.604Y265.057
G1 X265.264Y264.873
G1 X264.889Y264.756
G1 X264.486Y264.716
G1 X264.083Y264.756
G1 X263.707Y264.873
G1 X263.368Y265.057
G1 X263.072Y265.302
G1 X262.827Y265.598
G1 X262.643Y265.938
G1 X262.527Y266.313
G1 X262.486Y266.716
G1 X262.527Y267.119
G1 X262.643Y267.495
G1 X262.827Y267.834
G1 X263.072Y268.13
G1 X263.368Y268.374
G1 X263.707Y268.559
G1 X264.083Y268.675
G1 X264.486Y268.716
G1 X264.889Y268.675
G1 X265.264Y268.559
G1 X264.987Y268.634
G0 X277.551Y278.095
G1 X277.773Y277.912
G1 X277.956Y277.69
G1 X278.095Y277.435
G1 X278.182Y277.153
G1 X278.212Y276.851
G1 X278.182Y276.549
G1 X278.095Y276.267
G1 X277.956Y276.012
G1 X277.773Y275.79
G1 X277.551Y275.607
G1 X277.296Y275.469
G1 X277.015Y275.381
G1 X276.712Y275.351
G1 X276.41Y275.381
G1 X276.129Y275.469
G1 X275.874Y275.607
G1 X275.652Y275.79
G1 X275.469Y276.012
G1 X275.33Y276.267
G1 X275.243Y276.549
G1 X275.212Y276.851
G1 X275.243Y277.153
G1 X275.33Y277.435
G1 X275.469Y277.69
G1 X275.652Y277.912
G1 X275.874Y278.095
G1 X276.129Y278.233
G1 X276.41Y278.321
G1 X276.712Y278.351
G1 X277.015Y278.321
G1 X277.296Y278.233
G1 X277.551Y278.095
G1 X277.773Y277.912
G1 X277.701Y277.945
G0 X310.716Y274.172
G1 X310.599Y273.797
G1 X310.415Y273.457
G1 X310.171Y273.161
G1 X309.875Y272.917
G1 X309.535Y272.732
G1 X309.159Y272.616
G1 X308.756Y272.575
G1 X308.353Y272.616
G1 X307.978Y272.732
G1 X307.638Y272.917
G1 X307.342Y273.161
G1 X307.098Y273.457
G1 X306.914Y273.797
G1 X306.797Y274.172
G1 X306.757Y274.575
G1 X306.797Y274.978
G1 X306.914Y275.354
G1 X307.098Y275.693
G1 X307.342Y275.989
G1 X307.638Y276.234
G1 X307.978Y276.418
G1 X308.353Y276.535
G1 X308.756Y276.575
G1 X309.159Y276.535
G1 X309.535Y276.418
G1 X309.875Y276.234
G1 X310.171Y275.989
G1 X310.415Y275.693
G1 X310.599Y275.354
G1 X310.716Y274.978
G1 X310.756Y274.575
G1 X310.716Y274.172
G1 X310.599Y273.797
G1 X310.674Y274.074
G0 X297.4Y260.181
G1 X297.178Y260.364
G1 X296.995Y260.586
G1 X296.857Y260.841
G1 X296.769Y261.122
G1 X296.739Y261.424
G1 X296.769Y261.727
G1 X296.857Y262.008
G1 X296.995Y262.263
G1 X297.178Y262.485
G1 X297.4Y262.668
G1 X297.655Y262.806
G1 X297.937Y262.894
G1 X298.239Y262.924
G1 X298.541Y262.894
G1 X298.823Y262.806
G1 X299.078Y262.668
G1 X299.3Y262.485
G1 X299.483Y262.263
G1 X299.621Y262.008
G1 X299.709Y261.727
G1 X299.739Y261.424
G1 X299.709Y261.122
G1 X299.621Y260.841
G1 X299.483Y260.586
G1 X299.3Y260.364
G1 X299.078Y260.181
G1 X298.823Y260.042
G1 X298.541Y259.955
G1 X298.239Y259.924
G1 X297.937Y259.955
G1 X297.655Y260.042
G1 X297.4Y260.181
G1 X297.178Y260.364
G1 X297.25Y260.331
G0 X292.195Y262.263
G1 X292.378Y262.485
G1 X292.6Y262.668
G1 X292.855Y262.806
G1 X293.137Y262.894
G1 X293.439Y262.924
G1 X293.741Y262.894
G1 X294.023Y262.806
G1 X294.278Y262.668
G1 X294.5Y262.485
G1 X294.683Y262.263
G1 X294.821Y262.008
G1 X294.908Y261.727
G1 X294.939Y261.424
G1 X294.908Y261.122
G1 X294.821Y260.841
G1 X294.683Y260.586
G1 X294.5Y260.364
G1 X294.278Y260.181
G1 X294.023Y260.042
G1 X293.741Y259.955
G1 X293.439Y259.924
G1 X293.137Y259.955
G1 X292.855Y260.042
G1 X292.6Y260.181
G1 X292.378Y260.364
G1 X292.195Y260.586
G1 X292.057Y260.841
G1 X291.969Y261.122
G1 X291.939Y261.424
G1 X291.969Y261.727
G1 X292.057Y262.008
G1 X292.195Y262.263
G1 X292.378Y262.485
G1 X292.345Y262.413
G0 X306.298Y254.373
G1 X306.182Y253.998
G1 X305.997Y253.658
G1 X305.753Y253.362
G1 X305.457Y253.117
G1 X305.117Y252.933
G1 X304.742Y252.816
G1 X304.339Y252.776
G1 X303.936Y252.816
G1 X303.561Y252.933
G1 X303.221Y253.117
G1 X302.925Y253.362
G1 X302.681Y253.658
G1 X302.496Y253.998
G1 X302.38Y254.373
G1 X302.339Y254.776
G1 X302.38Y255.179
G1 X302.496Y255.555
G1 X302.681Y255.894
G1 X302.925Y256.19
G1 X303.221Y256.434
G1 X303.561Y256.619
G1 X303.936Y256.735
G1 X304.339Y256.776
G1 X304.742Y256.735
G1 X305.117Y256.619
G1 X305.457Y256.434
G1 X305.753Y256.19
G1 X305.997Y255.894
G1 X306.182Y255.555
G1 X306.298Y255.179
G1 X306.339Y254.776
G1 X306.298Y254.373
G1 X306.182Y253.998
G1 X306.257Y254.274
G0 X312.078Y262.668
G1 X312.3Y262.485
G1 X312.483Y262.263
G1 X312.621Y262.008
G1 X312.709Y261.727
G1 X312.739Y261.424
G1 X312.709Y261.122
G1 X312.621Y260.841
G1 X312.483Y260.586
G1 X312.3Y260.364
G1 X312.078Y260.181
G1 X311.823Y260.042
G1 X311.541Y259.955
G1 X311.239Y259.924
G1 X310.937Y259.955
G1 X310.655Y260.042
G1 X310.4Y260.181
G1 X310.178Y260.364
G1 X309.995Y260.586
G1 X309.857Y260.841
G1 X309.769Y261.122
G1 X309.739Y261.424
G1 X309.769Y261.727
G1 X309.857Y262.008
G1 X309.995Y262.263
G1 X310.178Y262.485
G1 X310.4Y262.668
G1 X310.655Y262.806
G1 X310.937Y262.894
G1 X311.239Y262.924
G1 X311.541Y262.894
G1 X311.823Y262.806
G1 X312.078Y262.668
G1 X312.3Y262.485
G1 X312.228Y262.518
G0 X303.936Y245.813
G1 X303.561Y245.93
G1 X303.221Y246.114
G1 X302.925Y246.359
G1 X302.681Y246.655
G1 X302.496Y246.994
G1 X302.38Y247.37
G1 X302.339Y247.773
G1 X302.38Y248.176
G1 X302.496Y248.551
G1 X302.681Y248.891
G1 X302.925Y249.187
G1 X303.221Y249.431
G1 X303.561Y249.616
G1 X303.936Y249.732
G1 X304.339Y249.773
G1 X304.742Y249.732
G1 X305.117Y249.616
G1 X305.457Y249.431
G1 X305.753Y249.187
G1 X305.997Y248.891
G1 X306.182Y248.551
G1 X306.298Y248.176
G1 X306.339Y247.773
G1 X306.298Y247.37
G1 X306.182Y246.994
G1 X305.997Y246.655
G1 X305.753Y246.359
G1 X305.457Y246.114
G1 X305.117Y245.93
G1 X304.742Y245.813
G1 X304.339Y245.773
G1 X303.936Y245.813
G1 X303.561Y245.93
G1 X303.837Y245.855
G0 X295.922Y256.143
G1 X295.935Y256.401
G1 X295.973Y256.651
G1 X296.036Y256.894
G1 X296.121Y257.126
G1 X296.355Y257.556
G1 X296.665Y257.931
G1 X297.04Y258.241
G1 X297.47Y258.475
G1 X297.702Y258.56
G1 X297.944Y258.623
G1 X298.195Y258.661
G1 X298.453Y258.674
G1 X306.225
G1 X306.483Y258.661
G1 X306.734Y258.623
G1 X306.976Y258.56
G1 X307.208Y258.475
G1 X307.638Y258.241
G1 X308.013Y257.931
G1 X308.322Y257.556
G1 X308.557Y257.126
G1 X308.642Y256.894
G1 X308.705Y256.651
G1 X308.743Y256.401
G1 X308.756Y256.143
G1 Y246.406
G1 X308.743Y246.148
G1 X308.705Y245.897
G1 X308.642Y245.655
G1 X308.557Y245.423
G1 X308.322Y244.993
G1 X308.013Y244.618
G1 X307.638Y244.308
G1 X307.208Y244.074
G1 X306.976Y243.989
G1 X306.734Y243.926
G1 X306.483Y243.888
G1 X306.225Y243.874
G1 X298.453
G1 X298.195Y243.888
G1 X297.944Y243.926
G1 X297.702Y243.989
G1 X297.47Y244.074
G1 X297.04Y244.308
G1 X296.665Y244.618
G1 X296.355Y244.993
G1 X296.121Y245.423
G1 X296.036Y245.655
G1 X295.973Y245.897
G1 X295.935Y246.148
G1 X295.922Y246.406
G1 Y256.143
G1 X295.935Y256.401
G1 X295.946Y256.383
G0 X299.483Y240.286
G1 X299.3Y240.064
G1 X299.078Y239.881
G1 X298.823Y239.742
G1 X298.541Y239.655
G1 X298.239Y239.624
G1 X297.937Y239.655
G1 X297.655Y239.742
G1 X297.4Y239.881
G1 X297.178Y240.064
G1 X296.995Y240.286
G1 X296.857Y240.541
G1 X296.769Y240.822
G1 X296.739Y241.124
G1 X296.769Y241.427
G1 X296.857Y241.708
G1 X296.995Y241.963
G1 X297.178Y242.185
G1 X297.4Y242.368
G1 X297.655Y242.507
G1 X297.937Y242.594
G1 X298.239Y242.624
G1 X298.541Y242.594
G1 X298.823Y242.507
G1 X299.078Y242.368
G1 X299.3Y242.185
G1 X299.483Y241.963
G1 X299.621Y241.708
G1 X299.709Y241.427
G1 X299.739Y241.124
G1 X299.709Y240.822
G1 X299.621Y240.541
G1 X299.483Y240.286
G1 X299.3Y240.064
G1 X299.333Y240.136
G0 X292.6Y242.368
G1 X292.855Y242.507
G1 X293.137Y242.594
G1 X293.439Y242.624
G1 X293.741Y242.594
G1 X294.023Y242.507
G1 X294.278Y242.368
G1 X294.5Y242.185
G1 X294.683Y241.963
G1 X294.821Y241.708
G1 X294.908Y241.427
G1 X294.939Y241.124
G1 X294.908Y240.822
G1 X294.821Y240.541
G1 X294.683Y240.286
G1 X294.5Y240.064
G1 X294.278Y239.881
G1 X294.023Y239.742
G1 X293.741Y239.655
G1 X293.439Y239.624
G1 X293.137Y239.655
G1 X292.855Y239.742
G1 X292.6Y239.881
G1 X292.378Y240.064
G1 X292.195Y240.286
G1 X292.057Y240.541
G1 X291.969Y240.822
G1 X291.939Y241.124
G1 X291.969Y241.427
G1 X292.057Y241.708
G1 X292.195Y241.963
G1 X292.378Y242.185
G1 X292.6Y242.368
G1 X292.855Y242.507
G1 X292.794Y242.45
G0 X312.483Y240.286
G1 X312.3Y240.064
G1 X312.078Y239.881
G1 X311.823Y239.742
G1 X311.541Y239.655
G1 X311.239Y239.624
G1 X310.937Y239.655
G1 X310.655Y239.742
G1 X310.4Y239.881
G1 X310.178Y240.064
G1 X309.995Y240.286
G1 X309.857Y240.541
G1 X309.769Y240.822
G1 X309.739Y241.124
G1 X309.769Y241.427
G1 X309.857Y241.708
G1 X309.995Y241.963
G1 X310.178Y242.185
G1 X310.4Y242.368
G1 X310.655Y242.507
G1 X310.937Y242.594
G1 X311.239Y242.624
G1 X311.541Y242.594
G1 X311.823Y242.507
G1 X312.078Y242.368
G1 X312.3Y242.185
G1 X312.483Y241.963
G1 X312.621Y241.708
G1 X312.709Y241.427
G1 X312.739Y241.124
G1 X312.709Y240.822
G1 X312.621Y240.541
G1 X312.483Y240.286
G1 X312.3Y240.064
G1 X312.333Y240.136
G0 X310.4Y226.636
G1 X310.178Y226.819
G1 X309.995Y227.041
G1 X309.857Y227.296
G1 X309.769Y227.578
G1 X309.739Y227.88
G1 X309.769Y228.182
G1 X309.857Y228.464
G1 X309.995Y228.719
G1 X310.178Y228.941
G1 X310.4Y229.124
G1 X310.655Y229.262
G1 X310.937Y229.349
G1 X311.239Y229.38
G1 X311.541Y229.349
G1 X311.823Y229.262
G1 X312.078Y229.124
G1 X312.3Y228.941
G1 X312.483Y228.719
G1 X312.621Y228.464
G1 X312.709Y228.182
G1 X312.739Y227.88
G1 X312.709Y227.578
G1 X312.621Y227.296
G1 X312.483Y227.041
G1 X312.3Y226.819
G1 X312.078Y226.636
G1 X311.823Y226.498
G1 X311.541Y226.41
G1 X311.239Y226.38
G1 X310.937Y226.41
G1 X310.655Y226.498
G1 X310.4Y226.636
G1 X310.178Y226.819
G1 X310.25Y226.786
G0 X303.936Y219.272
G1 X303.561Y219.389
G1 X303.221Y219.573
G1 X302.925Y219.817
G1 X302.681Y220.113
G1 X302.496Y220.453
G1 X302.38Y220.829
G1 X302.339Y221.232
G1 X302.38Y221.635
G1 X302.496Y222.01
G1 X302.681Y222.35
G1 X302.925Y222.646
G1 X303.221Y222.89
G1 X303.561Y223.074
G1 X303.936Y223.191
G1 X304.339Y223.231
G1 X304.742Y223.191
G1 X305.117Y223.074
G1 X305.457Y222.89
G1 X305.753Y222.646
G1 X305.997Y222.35
G1 X306.182Y222.01
G1 X306.298Y221.635
G1 X306.339Y221.232
G1 X306.298Y220.829
G1 X306.182Y220.453
G1 X305.997Y220.113
G1 X305.753Y219.817
G1 X305.457Y219.573
G1 X305.117Y219.389
G1 X304.742Y219.272
G1 X304.339Y219.231
G1 X303.936Y219.272
G1 X303.561Y219.389
G1 X303.837Y219.313
G0 X306.298Y213.825
G1 X306.182Y213.45
G1 X305.997Y213.11
G1 X305.753Y212.814
G1 X305.457Y212.57
G1 X305.117Y212.385
G1 X304.742Y212.269
G1 X304.339Y212.228
G1 X303.936Y212.269
G1 X303.561Y212.385
G1 X303.221Y212.57
G1 X302.925Y212.814
G1 X302.681Y213.11
G1 X302.496Y213.45
G1 X302.38Y213.825
G1 X302.339Y214.229
G1 X302.38Y214.632
G1 X302.496Y215.007
G1 X302.681Y215.347
G1 X302.925Y215.643
G1 X303.221Y215.887
G1 X303.561Y216.071
G1 X303.936Y216.188
G1 X304.339Y216.228
G1 X304.742Y216.188
G1 X305.117Y216.071
G1 X305.457Y215.887
G1 X305.753Y215.643
G1 X305.997Y215.347
G1 X306.182Y215.007
G1 X306.298Y214.632
G1 X306.339Y214.229
G1 X306.298Y213.825
G1 X306.182Y213.45
G1 X306.257Y213.727
G0 X298.453Y210.33
G1 X298.195Y210.343
G1 X297.944Y210.382
G1 X297.702Y210.444
G1 X297.47Y210.53
G1 X297.04Y210.764
G1 X296.665Y211.074
G1 X296.355Y211.449
G1 X296.121Y211.878
G1 X296.036Y212.111
G1 X295.973Y212.353
G1 X295.935Y212.603
G1 X295.922Y212.861
G1 Y222.599
G1 X295.935Y222.856
G1 X295.973Y223.107
G1 X296.036Y223.349
G1 X296.121Y223.581
G1 X296.355Y224.011
G1 X296.665Y224.386
G1 X297.04Y224.696
G1 X297.47Y224.93
G1 X297.702Y225.016
G1 X297.944Y225.078
G1 X298.195Y225.117
G1 X298.453Y225.13
G1 X306.225
G1 X306.483Y225.117
G1 X306.734Y225.078
G1 X306.976Y225.016
G1 X307.208Y224.93
G1 X307.638Y224.696
G1 X308.013Y224.386
G1 X308.322Y224.011
G1 X308.557Y223.581
G1 X308.642Y223.349
G1 X308.705Y223.107
G1 X308.743Y222.856
G1 X308.756Y222.599
G1 Y212.861
G1 X308.743Y212.603
G1 X308.705Y212.353
G1 X308.642Y212.111
G1 X308.557Y211.878
G1 X308.322Y211.449
G1 X308.013Y211.074
G1 X307.638Y210.764
G1 X307.208Y210.53
G1 X306.976Y210.444
G1 X306.734Y210.382
G1 X306.483Y210.343
G1 X306.225Y210.33
G1 X298.453
G1 X298.195Y210.343
G1 X298.213Y210.354
G0 X275.469Y219.69
G1 X275.652Y219.912
G1 X275.874Y220.095
G1 X276.129Y220.233
G1 X276.41Y220.321
G1 X276.712Y220.351
G1 X277.015Y220.321
G1 X277.296Y220.233
G1 X277.551Y220.095
G1 X277.773Y219.912
G1 X277.956Y219.69
G1 X278.095Y219.435
G1 X278.182Y219.153
G1 X278.212Y218.851
G1 X278.182Y218.549
G1 X278.095Y218.267
G1 X277.956Y218.012
G1 X277.773Y217.79
G1 X277.551Y217.607
G1 X277.296Y217.469
G1 X277.015Y217.381
G1 X276.712Y217.351
G1 X276.41Y217.381
G1 X276.129Y217.469
G1 X275.874Y217.607
G1 X275.652Y217.79
G1 X275.469Y218.012
G1 X275.33Y218.267
G1 X275.243Y218.549
G1 X275.212Y218.851
G1 X275.243Y219.153
G1 X275.33Y219.435
G1 X275.469Y219.69
G1 X275.652Y219.912
G1 X275.619Y219.84
G0 X294.278Y229.124
G1 X294.5Y228.941
G1 X294.683Y228.719
G1 X294.821Y228.464
G1 X294.908Y228.182
G1 X294.939Y227.88
G1 X294.908Y227.578
G1 X294.821Y227.296
G1 X294.683Y227.041
G1 X294.5Y226.819
G1 X294.278Y226.636
G1 X294.023Y226.498
G1 X293.741Y226.41
G1 X293.439Y226.38
G1 X293.137Y226.41
G1 X292.855Y226.498
G1 X292.6Y226.636
G1 X292.378Y226.819
G1 X292.195Y227.041
G1 X292.057Y227.296
G1 X291.969Y227.578
G1 X291.939Y227.88
G1 X291.969Y228.182
G1 X292.057Y228.464
G1 X292.195Y228.719
G1 X292.378Y228.941
G1 X292.6Y229.124
G1 X292.855Y229.262
G1 X293.137Y229.349
G1 X293.439Y229.38
G1 X293.741Y229.349
G1 X294.023Y229.262
G1 X294.278Y229.124
G1 X294.5Y228.941
G1 X294.428Y228.974
G0 X299.483Y227.041
G1 X299.3Y226.819
G1 X299.078Y226.636
G1 X298.823Y226.498
G1 X298.541Y226.41
G1 X298.239Y226.38
G1 X297.937Y226.41
G1 X297.655Y226.498
G1 X297.4Y226.636
G1 X297.178Y226.819
G1 X296.995Y227.041
G1 X296.857Y227.296
G1 X296.769Y227.578
G1 X296.739Y227.88
G1 X296.769Y228.182
G1 X296.857Y228.464
G1 X296.995Y228.719
G1 X297.178Y228.941
G1 X297.4Y229.124
G1 X297.655Y229.262
G1 X297.937Y229.349
G1 X298.239Y229.38
G1 X298.541Y229.349
G1 X298.823Y229.262
G1 X299.078Y229.124
G1 X299.3Y228.941
G1 X299.483Y228.719
G1 X299.621Y228.464
G1 X299.709Y228.182
G1 X299.739Y227.88
G1 X299.709Y227.578
G1 X299.621Y227.296
G1 X299.483Y227.041
G1 X299.3Y226.819
G1 X299.333Y226.891
G0 X262.643Y229.349
G1 X262.827Y229.688
G1 X263.072Y229.984
G1 X263.368Y230.228
G1 X263.707Y230.413
G1 X264.083Y230.529
G1 X264.486Y230.57
G1 X264.889Y230.529
G1 X265.264Y230.413
G1 X265.604Y230.228
G1 X265.9Y229.984
G1 X266.144Y229.688
G1 X266.329Y229.349
G1 X266.445Y228.973
G1 X266.486Y228.57
G1 X266.445Y228.167
G1 X266.329Y227.792
G1 X266.144Y227.452
G1 X265.9Y227.156
G1 X265.604Y226.911
G1 X265.264Y226.727
G1 X264.889Y226.61
G1 X264.486Y226.57
G1 X264.083Y226.61
G1 X263.707Y226.727
G1 X263.368Y226.911
G1 X263.072Y227.156
G1 X262.827Y227.452
G1 X262.643Y227.792
G1 X262.527Y228.167
G1 X262.486Y228.57
G1 X262.527Y228.973
G1 X262.643Y229.349
G1 X262.827Y229.688
G1 X262.707Y229.443
G0 X239.536Y226.61
G1 X239.16Y226.727
G1 X238.821Y226.911
G1 X238.525Y227.156
G1 X238.281Y227.452
G1 X238.096Y227.792
G1 X237.98Y228.167
G1 X237.939Y228.57
G1 X237.98Y228.973
G1 X238.096Y229.349
G1 X238.281Y229.688
G1 X238.525Y229.984
G1 X238.821Y230.228
G1 X239.16Y230.413
G1 X239.536Y230.529
G1 X239.939Y230.57
G1 X240.342Y230.529
G1 X240.717Y230.413
G1 X241.057Y230.228
G1 X241.353Y229.984
G1 X241.597Y229.688
G1 X241.782Y229.349
G1 X241.898Y228.973
G1 X241.939Y228.57
G1 X241.898Y228.167
G1 X241.782Y227.792
G1 X241.597Y227.452
G1 X241.353Y227.156
G1 X241.057Y226.911
G1 X240.717Y226.727
G1 X240.342Y226.61
G1 X239.939Y226.57
G1 X239.536Y226.61
G1 X239.16Y226.727
G1 X239.437Y226.652
G0 X234.264Y230.745
G1 Y264.957
G1 X234.304Y265.748
G1 X234.422Y266.516
G1 X234.614Y267.258
G1 X234.876Y267.971
G1 X235.204Y268.649
G1 X235.594Y269.289
G1 X236.041Y269.886
G1 X236.543Y270.438
G1 X237.095Y270.94
G1 X237.693Y271.388
G1 X238.333Y271.778
G1 X239.011Y272.105
G1 X239.723Y272.367
G1 X240.465Y272.559
G1 X241.233Y272.677
G1 X242.024Y272.718
G1 X262.401
G1 X263.192Y272.677
G1 X263.96Y272.559
G1 X264.702Y272.367
G1 X265.414Y272.105
G1 X266.092Y271.778
G1 X266.732Y271.388
G1 X267.33Y270.94
G1 X267.882Y270.438
G1 X268.384Y269.886
G1 X268.831Y269.289
G1 X269.221Y268.649
G1 X269.549Y267.971
G1 X269.811Y267.258
G1 X270.003Y266.516
G1 X270.121Y265.748
G1 X270.161Y264.957
G1 Y230.745
G1 X270.121Y229.954
G1 X270.003Y229.186
G1 X269.811Y228.444
G1 X269.549Y227.731
G1 X269.221Y227.053
G1 X268.831Y226.414
G1 X268.384Y225.816
G1 X267.882Y225.264
G1 X267.33Y224.762
G1 X266.732Y224.314
G1 X266.092Y223.924
G1 X265.414Y223.597
G1 X264.702Y223.335
G1 X263.96Y223.143
G1 X263.192Y223.024
G1 X262.401Y222.984
G1 X242.024
G1 X241.233Y223.024
G1 X240.465Y223.143
G1 X239.723Y223.335
G1 X239.011Y223.597
G1 X238.333Y223.924
G1 X237.693Y224.314
G1 X237.095Y224.762
G1 X236.543Y225.264
G1 X236.041Y225.816
G1 X235.594Y226.414
G1 X235.204Y227.053
G1 X234.876Y227.731
G1 X234.614Y228.444
G1 X234.422Y229.186
G1 X234.304Y229.954
G1 X234.264Y230.745
G1 Y231.245
G0 X186.374Y252.798
G1 X186.558Y253.02
G1 X186.78Y253.203
G1 X187.034Y253.341
G1 X187.316Y253.429
G1 X187.618Y253.459
G1 X187.92Y253.429
G1 X188.202Y253.341
G1 X188.457Y253.203
G1 X188.679Y253.02
G1 X188.862Y252.798
G1 X189Y252.543
G1 X189.088Y252.262
G1 X189.118Y251.959
G1 X189.088Y251.657
G1 X189Y251.376
G1 X188.862Y251.121
G1 X188.679Y250.899
G1 X188.457Y250.716
G1 X188.202Y250.577
G1 X187.92Y250.49
G1 X187.618Y250.459
G1 X187.316Y250.49
G1 X187.034Y250.577
G1 X186.78Y250.716
G1 X186.558Y250.899
G1 X186.374Y251.121
G1 X186.236Y251.376
G1 X186.149Y251.657
G1 X186.118Y251.959
G1 X186.149Y252.262
G1 X186.236Y252.543
G1 X186.374Y252.798
G1 X186.558Y253.02
G1 X186.524Y252.948
G0 X188.457Y263.503
G1 X188.679Y263.32
G1 X188.862Y263.098
G1 X189Y262.843
G1 X189.088Y262.561
G1 X189.118Y262.259
G1 X189.088Y261.957
G1 X189Y261.675
G1 X188.862Y261.42
G1 X188.679Y261.198
G1 X188.457Y261.015
G1 X188.202Y260.877
G1 X187.92Y260.789
G1 X187.618Y260.759
G1 X187.316Y260.789
G1 X187.034Y260.877
G1 X186.78Y261.015
G1 X186.558Y261.198
G1 X186.374Y261.42
G1 X186.236Y261.675
G1 X186.149Y261.957
G1 X186.118Y262.259
G1 X186.149Y262.561
G1 X186.236Y262.843
G1 X186.374Y263.098
G1 X186.558Y263.32
G1 X186.78Y263.503
G1 X187.034Y263.641
G1 X187.316Y263.728
G1 X187.618Y263.759
G1 X187.92Y263.728
G1 X188.202Y263.641
G1 X188.457Y263.503
G1 X188.679Y263.32
G1 X188.607Y263.353
G0 X184.762Y246.146
G1 Y239.973
G1 X184.775Y239.718
G1 X184.813Y239.47
G1 X184.874Y239.231
G1 X184.959Y239.002
G1 X185.19Y238.577
G1 X185.496Y238.207
G1 X185.866Y237.901
G1 X186.291Y237.67
G1 X186.52Y237.585
G1 X186.759Y237.524
G1 X187.007Y237.486
G1 X187.262Y237.473
G1 X187.516Y237.486
G1 X187.764Y237.524
G1 X188.003Y237.585
G1 X188.232Y237.67
G1 X188.657Y237.901
G1 X189.027Y238.207
G1 X189.333Y238.577
G1 X189.565Y239.002
G1 X189.649Y239.231
G1 X189.711Y239.47
G1 X189.749Y239.718
G1 X189.762Y239.973
G1 Y246.146
G1 X189.749Y246.401
G1 X189.711Y246.648
G1 X189.649Y246.887
G1 X189.565Y247.117
G1 X189.333Y247.541
G1 X189.027Y247.912
G1 X188.657Y248.218
G1 X188.232Y248.449
G1 X188.003Y248.533
G1 X187.764Y248.595
G1 X187.516Y248.633
G1 X187.262Y248.646
G1 X187.007Y248.633
G1 X186.759Y248.595
G1 X186.52Y248.533
G1 X186.291Y248.449
G1 X185.866Y248.218
G1 X185.496Y247.912
G1 X185.19Y247.541
G1 X184.959Y247.117
G1 X184.874Y246.887
G1 X184.813Y246.648
G1 X184.775Y246.401
G1 X184.762Y246.146
G1 Y245.646
G0 X176.669Y237.598
G1 X176.294Y237.715
G1 X175.954Y237.899
G1 X175.658Y238.144
G1 X175.414Y238.44
G1 X175.23Y238.779
G1 X175.113Y239.155
G1 X175.072Y239.558
G1 X175.113Y239.961
G1 X175.23Y240.336
G1 X175.414Y240.676
G1 X175.658Y240.972
G1 X175.954Y241.216
G1 X176.294Y241.401
G1 X176.669Y241.517
G1 X177.072Y241.558
G1 X177.475Y241.517
G1 X177.851Y241.401
G1 X178.19Y241.216
G1 X178.486Y240.972
G1 X178.731Y240.676
G1 X178.915Y240.336
G1 X179.032Y239.961
G1 X179.072Y239.558
G1 X179.032Y239.155
G1 X178.915Y238.779
G1 X178.731Y238.44
G1 X178.486Y238.144
G1 X178.19Y237.899
G1 X177.851Y237.715
G1 X177.475Y237.598
G1 X177.072Y237.558
G1 X176.669Y237.598
G1 X176.294Y237.715
G1 X176.571Y237.64
G0 X150.566Y239.961
G1 X150.683Y240.336
G1 X150.867Y240.676
G1 X151.111Y240.972
G1 X151.407Y241.216
G1 X151.747Y241.401
G1 X152.122Y241.517
G1 X152.525Y241.558
G1 X152.928Y241.517
G1 X153.304Y241.401
G1 X153.644Y241.216
G1 X153.94Y240.972
G1 X154.184Y240.676
G1 X154.368Y240.336
G1 X154.485Y239.961
G1 X154.525Y239.558
G1 X154.485Y239.155
G1 X154.368Y238.779
G1 X154.184Y238.44
G1 X153.94Y238.144
G1 X153.644Y237.899
G1 X153.304Y237.715
G1 X152.928Y237.598
G1 X152.525Y237.558
G1 X152.122Y237.598
G1 X151.747Y237.715
G1 X151.407Y237.899
G1 X151.111Y238.144
G1 X150.867Y238.44
G1 X150.683Y238.779
G1 X150.566Y239.155
G1 X150.525Y239.558
G1 X150.566Y239.961
G1 X150.683Y240.336
G1 X150.608Y240.059
G0 X140.674Y252.798
G1 X140.858Y253.02
G1 X141.08Y253.203
G1 X141.334Y253.341
G1 X141.616Y253.429
G1 X141.918Y253.459
G1 X142.22Y253.429
G1 X142.502Y253.341
G1 X142.757Y253.203
G1 X142.979Y253.02
G1 X143.162Y252.798
G1 X143.3Y252.543
G1 X143.388Y252.262
G1 X143.418Y251.959
G1 X143.388Y251.657
G1 X143.3Y251.376
G1 X143.162Y251.121
G1 X142.979Y250.899
G1 X142.757Y250.716
G1 X142.502Y250.577
G1 X142.22Y250.49
G1 X141.918Y250.459
G1 X141.616Y250.49
G1 X141.334Y250.577
G1 X141.08Y250.716
G1 X140.858Y250.899
G1 X140.674Y251.121
G1 X140.536Y251.376
G1 X140.449Y251.657
G1 X140.418Y251.959
G1 X140.449Y252.262
G1 X140.536Y252.543
G1 X140.674Y252.798
G1 X140.858Y253.02
G1 X140.824Y252.948
G0 X114.649Y228.012
G1 Y193.562
G1 X114.669Y193.16
G1 X114.729Y192.77
G1 X114.827Y192.393
G1 X114.96Y192.032
G1 X115.126Y191.687
G1 X115.324Y191.362
G1 X115.552Y191.058
G1 X115.807Y190.778
G1 X116.087Y190.523
G1 X116.391Y190.296
G1 X116.716Y190.098
G1 X117.06Y189.931
G1 X117.422Y189.798
G1 X117.799Y189.701
G1 X118.189Y189.641
G1 X118.59Y189.62
G1 X118.992Y189.641
G1 X119.382Y189.701
G1 X119.759Y189.798
G1 X120.121Y189.931
G1 X120.465Y190.098
G1 X120.79Y190.296
G1 X121.094Y190.523
G1 X121.374Y190.778
G1 X121.629Y191.058
G1 X121.856Y191.362
G1 X122.054Y191.687
G1 X122.221Y192.032
G1 X122.354Y192.393
G1 X122.451Y192.77
G1 X122.511Y193.16
G1 X122.532Y193.562
G1 Y228.012
G1 X122.511Y228.414
G1 X122.451Y228.804
G1 X122.354Y229.181
G1 X122.221Y229.543
G1 X122.054Y229.887
G1 X121.856Y230.212
G1 X121.629Y230.516
G1 X121.374Y230.796
G1 X121.094Y231.051
G1 X120.79Y231.278
G1 X120.465Y231.476
G1 X120.121Y231.643
G1 X119.759Y231.776
G1 X119.382Y231.873
G1 X118.992Y231.933
G1 X118.59Y231.954
G1 X118.189Y231.933
G1 X117.799Y231.873
G1 X117.422Y231.776
G1 X117.06Y231.643
G1 X116.716Y231.476
G1 X116.391Y231.278
G1 X116.087Y231.051
G1 X115.807Y230.796
G1 X115.552Y230.516
G1 X115.324Y230.212
G1 X115.126Y229.887
G1 X114.96Y229.543
G1 X114.827Y229.181
G1 X114.729Y228.804
G1 X114.669Y228.414
G1 X114.649Y228.012
G1 Y227.512
G0 X107.604Y227.97
G1 X107.229Y228.087
G1 X106.889Y228.271
G1 X106.593Y228.515
G1 X106.349Y228.811
G1 X106.164Y229.151
G1 X106.048Y229.527
G1 X106.007Y229.93
G1 X106.048Y230.333
G1 X106.164Y230.708
G1 X106.349Y231.048
G1 X106.593Y231.344
G1 X106.889Y231.588
G1 X107.229Y231.772
G1 X107.604Y231.889
G1 X108.007Y231.93
G1 X108.41Y231.889
G1 X108.785Y231.772
G1 X109.125Y231.588
G1 X109.421Y231.344
G1 X109.665Y231.048
G1 X109.85Y230.708
G1 X109.966Y230.333
G1 X110.007Y229.93
G1 X109.966Y229.527
G1 X109.85Y229.151
G1 X109.665Y228.811
G1 X109.421Y228.515
G1 X109.125Y228.271
G1 X108.785Y228.087
G1 X108.41Y227.97
G1 X108.007Y227.93
G1 X107.604Y227.97
G1 X107.229Y228.087
G1 X107.505Y228.012
G0 X97.424Y231.954
G1 X97.022Y231.933
G1 X96.632Y231.873
G1 X96.255Y231.776
G1 X95.893Y231.643
G1 X95.549Y231.476
G1 X95.224Y231.278
G1 X94.92Y231.051
G1 X94.64Y230.796
G1 X94.385Y230.516
G1 X94.158Y230.212
G1 X93.96Y229.887
G1 X93.793Y229.543
G1 X93.66Y229.181
G1 X93.563Y228.804
G1 X93.503Y228.414
G1 X93.482Y228.012
G1 Y193.562
G1 X93.503Y193.16
G1 X93.563Y192.77
G1 X93.66Y192.393
G1 X93.793Y192.032
G1 X93.96Y191.687
G1 X94.158Y191.362
G1 X94.385Y191.058
G1 X94.64Y190.778
G1 X94.92Y190.523
G1 X95.224Y190.296
G1 X95.549Y190.098
G1 X95.893Y189.931
G1 X96.255Y189.798
G1 X96.632Y189.701
G1 X97.022Y189.641
G1 X97.424Y189.62
G1 X97.825Y189.641
G1 X98.215Y189.701
G1 X98.592Y189.798
G1 X98.954Y189.931
G1 X99.298Y190.098
G1 X99.623Y190.296
G1 X99.927Y190.523
G1 X100.207Y190.778
G1 X100.462Y191.058
G1 X100.69Y191.362
G1 X100.888Y191.687
G1 X101.054Y192.032
G1 X101.187Y192.393
G1 X101.285Y192.77
G1 X101.345Y193.16
G1 X101.365Y193.562
G1 Y228.012
G1 X101.345Y228.414
G1 X101.285Y228.804
G1 X101.187Y229.181
G1 X101.054Y229.543
G1 X100.888Y229.887
G1 X100.69Y230.212
G1 X100.462Y230.516
G1 X100.207Y230.796
G1 X99.927Y231.051
G1 X99.623Y231.278
G1 X99.298Y231.476
G1 X98.954Y231.643
G1 X98.592Y231.776
G1 X98.215Y231.873
G1 X97.825Y231.933
G1 X97.424Y231.954
G1 X97.022Y231.933
G1 X97.326Y231.944
G0 X144.836Y213.959
G1 X144.823Y213.704
G1 X144.785Y213.457
G1 X144.723Y213.217
G1 X144.639Y212.988
G1 X144.408Y212.564
G1 X144.102Y212.193
G1 X143.731Y211.887
G1 X143.307Y211.656
G1 X143.077Y211.572
G1 X142.838Y211.51
G1 X142.591Y211.472
G1 X142.336Y211.459
G1 X142.081Y211.472
G1 X141.834Y211.51
G1 X141.595Y211.572
G1 X141.365Y211.656
G1 X140.941Y211.887
G1 X140.57Y212.193
G1 X140.264Y212.564
G1 X140.033Y212.988
G1 X139.949Y213.217
G1 X139.887Y213.457
G1 X139.849Y213.704
G1 X139.836Y213.959
G1 Y220.132
G1 X139.849Y220.387
G1 X139.887Y220.635
G1 X139.949Y220.874
G1 X140.033Y221.103
G1 X140.264Y221.528
G1 X140.57Y221.898
G1 X140.941Y222.204
G1 X141.365Y222.435
G1 X141.595Y222.519
G1 X141.834Y222.581
G1 X142.081Y222.619
G1 X142.336Y222.632
G1 X142.591Y222.619
G1 X142.838Y222.581
G1 X143.077Y222.519
G1 X143.307Y222.435
G1 X143.731Y222.204
G1 X144.102Y221.898
G1 X144.408Y221.528
G1 X144.639Y221.103
G1 X144.723Y220.874
G1 X144.785Y220.635
G1 X144.823Y220.387
G1 X144.836Y220.132
G1 Y213.959
G1 X144.823Y213.704
G1 X144.811Y213.715
G0 X153.281Y222.075
G1 X153.657Y221.958
G1 X153.996Y221.774
G1 X154.292Y221.529
G1 X154.537Y221.233
G1 X154.721Y220.894
G1 X154.838Y220.518
G1 X154.878Y220.115
G1 X154.838Y219.712
G1 X154.721Y219.337
G1 X154.537Y218.997
G1 X154.292Y218.701
G1 X153.996Y218.457
G1 X153.657Y218.272
G1 X153.281Y218.156
G1 X152.878Y218.115
G1 X152.475Y218.156
G1 X152.1Y218.272
G1 X151.76Y218.457
G1 X151.464Y218.701
G1 X151.22Y218.997
G1 X151.036Y219.337
G1 X150.919Y219.712
G1 X150.878Y220.115
G1 X150.919Y220.518
G1 X151.036Y220.894
G1 X151.22Y221.233
G1 X151.464Y221.529
G1 X151.76Y221.774
G1 X152.1Y221.958
G1 X152.475Y222.075
G1 X152.878Y222.115
G1 X153.281Y222.075
G1 X153.657Y221.958
G1 X153.38Y222.033
G0 X140.674Y263.098
G1 X140.858Y263.32
G1 X141.08Y263.503
G1 X141.334Y263.641
G1 X141.616Y263.728
G1 X141.918Y263.759
G1 X142.22Y263.728
G1 X142.502Y263.641
G1 X142.757Y263.503
G1 X142.979Y263.32
G1 X143.162Y263.098
G1 X143.3Y262.843
G1 X143.388Y262.561
G1 X143.418Y262.259
G1 X143.388Y261.957
G1 X143.3Y261.675
G1 X143.162Y261.42
G1 X142.979Y261.198
G1 X142.757Y261.015
G1 X142.502Y260.877
G1 X142.22Y260.789
G1 X141.918Y260.759
G1 X141.616Y260.789
G1 X141.334Y260.877
G1 X141.08Y261.015
G1 X140.858Y261.198
G1 X140.674Y261.42
G1 X140.536Y261.675
G1 X140.449Y261.957
G1 X140.418Y262.259
G1 X140.449Y262.561
G1 X140.536Y262.843
G1 X140.674Y263.098
G1 X140.858Y263.32
G1 X140.824Y263.248
G0 X142.757Y281.303
G1 X142.979Y281.12
G1 X143.162Y280.898
G1 X143.3Y280.643
G1 X143.388Y280.361
G1 X143.418Y280.059
G1 X143.388Y279.757
G1 X143.3Y279.475
G1 X143.162Y279.22
G1 X142.979Y278.998
G1 X142.757Y278.815
G1 X142.502Y278.677
G1 X142.22Y278.589
G1 X141.918Y278.559
G1 X141.616Y278.589
G1 X141.334Y278.677
G1 X141.08Y278.815
G1 X140.858Y278.998
G1 X140.674Y279.22
G1 X140.536Y279.475
G1 X140.449Y279.757
G1 X140.418Y280.059
G1 X140.449Y280.361
G1 X140.536Y280.643
G1 X140.674Y280.898
G1 X140.858Y281.12
G1 X141.08Y281.303
G1 X141.334Y281.441
G1 X141.616Y281.528
G1 X141.918Y281.559
G1 X142.22Y281.528
G1 X142.502Y281.441
G1 X142.757Y281.303
G1 X142.979Y281.12
G1 X142.907Y281.153
G0 X189.762Y220.132
G1 Y213.959
G1 X189.749Y213.704
G1 X189.711Y213.457
G1 X189.649Y213.217
G1 X189.565Y212.988
G1 X189.333Y212.564
G1 X189.027Y212.193
G1 X188.657Y211.887
G1 X188.232Y211.656
G1 X188.003Y211.572
G1 X187.764Y211.51
G1 X187.516Y211.472
G1 X187.262Y211.459
G1 X187.007Y211.472
G1 X186.759Y211.51
G1 X186.52Y211.572
G1 X186.291Y211.656
G1 X185.866Y211.887
G1 X185.496Y212.193
G1 X185.19Y212.564
G1 X184.959Y212.988
G1 X184.874Y213.217
G1 X184.813Y213.457
G1 X184.775Y213.704
G1 X184.762Y213.959
G1 Y220.132
G1 X184.775Y220.387
G1 X184.813Y220.635
G1 X184.874Y220.874
G1 X184.959Y221.103
G1 X185.19Y221.528
G1 X185.496Y221.898
G1 X185.866Y222.204
G1 X186.291Y222.435
G1 X186.52Y222.519
G1 X186.759Y222.581
G1 X187.007Y222.619
G1 X187.262Y222.632
G1 X187.516Y222.619
G1 X187.764Y222.581
G1 X188.003Y222.519
G1 X188.232Y222.435
G1 X188.657Y222.204
G1 X189.027Y221.898
G1 X189.333Y221.528
G1 X189.565Y221.103
G1 X189.649Y220.874
G1 X189.711Y220.635
G1 X189.749Y220.387
G1 X189.762Y220.132
G1 Y219.632
G0 X177.022Y211.153
G1 X176.647Y211.269
G1 X176.307Y211.454
G1 X176.011Y211.698
G1 X175.767Y211.994
G1 X175.582Y212.334
G1 X175.466Y212.709
G1 X175.425Y213.112
G1 X175.466Y213.515
G1 X175.582Y213.891
G1 X175.767Y214.23
G1 X176.011Y214.526
G1 X176.307Y214.77
G1 X176.647Y214.955
G1 X177.022Y215.071
G1 X177.425Y215.112
G1 X177.828Y215.071
G1 X178.204Y214.955
G1 X178.543Y214.77
G1 X178.839Y214.526
G1 X179.084Y214.23
G1 X179.268Y213.891
G1 X179.384Y213.515
G1 X179.425Y213.112
G1 X179.384Y212.709
G1 X179.268Y212.334
G1 X179.084Y211.994
G1 X178.839Y211.698
G1 X178.543Y211.454
G1 X178.204Y211.269
G1 X177.828Y211.153
G1 X177.425Y211.112
G1 X177.022Y211.153
G1 X176.647Y211.269
G1 X176.924Y211.194
G0 X179.084Y221.233
G1 X179.268Y220.894
G1 X179.384Y220.518
G1 X179.425Y220.115
G1 X179.384Y219.712
G1 X179.268Y219.337
G1 X179.084Y218.997
G1 X178.839Y218.701
G1 X178.543Y218.457
G1 X178.204Y218.272
G1 X177.828Y218.156
G1 X177.425Y218.115
G1 X177.022Y218.156
G1 X176.647Y218.272
G1 X176.307Y218.457
G1 X176.011Y218.701
G1 X175.767Y218.997
G1 X175.582Y219.337
G1 X175.466Y219.712
G1 X175.425Y220.115
G1 X175.466Y220.518
G1 X175.582Y220.894
G1 X175.767Y221.233
G1 X176.011Y221.529
G1 X176.307Y221.774
G1 X176.647Y221.958
G1 X177.022Y222.075
G1 X177.425Y222.115
G1 X177.828Y222.075
G1 X178.204Y221.958
G1 X178.543Y221.774
G1 X178.839Y221.529
G1 X179.084Y221.233
G1 X179.268Y220.894
G1 X179.128Y221.129
G0 X188.457Y227.189
G1 X188.679Y227.006
G1 X188.862Y226.784
G1 X189Y226.529
G1 X189.088Y226.248
G1 X189.118Y225.946
G1 X189.088Y225.643
G1 X189Y225.362
G1 X188.862Y225.107
G1 X188.679Y224.885
G1 X188.457Y224.702
G1 X188.202Y224.563
G1 X187.92Y224.476
G1 X187.618Y224.446
G1 X187.316Y224.476
G1 X187.034Y224.563
G1 X186.78Y224.702
G1 X186.558Y224.885
G1 X186.374Y225.107
G1 X186.236Y225.362
G1 X186.149Y225.643
G1 X186.118Y225.946
G1 X186.149Y226.248
G1 X186.236Y226.529
G1 X186.374Y226.784
G1 X186.558Y227.006
G1 X186.78Y227.189
G1 X187.034Y227.328
G1 X187.316Y227.415
G1 X187.618Y227.446
G1 X187.92Y227.415
G1 X188.202Y227.328
G1 X188.457Y227.189
G1 X188.679Y227.006
G1 X188.607Y227.039
G0 X175.113Y246.964
G1 X175.23Y247.339
G1 X175.414Y247.679
G1 X175.658Y247.975
G1 X175.954Y248.219
G1 X176.294Y248.404
G1 X176.669Y248.52
G1 X177.072Y248.561
G1 X177.475Y248.52
G1 X177.851Y248.404
G1 X178.19Y248.219
G1 X178.486Y247.975
G1 X178.731Y247.679
G1 X178.915Y247.339
G1 X179.032Y246.964
G1 X179.072Y246.561
G1 X179.032Y246.158
G1 X178.915Y245.782
G1 X178.731Y245.443
G1 X178.486Y245.147
G1 X178.19Y244.902
G1 X177.851Y244.718
G1 X177.475Y244.601
G1 X177.072Y244.561
G1 X176.669Y244.601
G1 X176.294Y244.718
G1 X175.954Y244.902
G1 X175.658Y245.147
G1 X175.414Y245.443
G1 X175.23Y245.782
G1 X175.113Y246.158
G1 X175.072Y246.561
G1 X175.113Y246.964
G1 X175.23Y247.339
G1 X175.154Y247.063
G0 X178.484Y250.459
G1 X178.915Y250.437
G1 X179.334Y250.373
G1 X179.739Y250.268
G1 X180.127Y250.125
G1 X180.497Y249.947
G1 X180.846Y249.734
G1 X181.173Y249.49
G1 X181.474Y249.216
G1 X181.747Y248.915
G1 X181.992Y248.589
G1 X182.204Y248.24
G1 X182.383Y247.87
G1 X182.526Y247.481
G1 X182.631Y247.076
G1 X182.695Y246.657
G1 X182.717Y246.226
G1 Y239.893
G1 X182.695Y239.461
G1 X182.631Y239.042
G1 X182.526Y238.637
G1 X182.383Y238.249
G1 X182.204Y237.879
G1 X181.992Y237.53
G1 X181.747Y237.204
G1 X181.474Y236.903
G1 X181.173Y236.629
G1 X180.846Y236.385
G1 X180.497Y236.172
G1 X180.127Y235.993
G1 X179.739Y235.851
G1 X179.334Y235.746
G1 X178.915Y235.681
G1 X178.484Y235.659
G1 X151.052
G1 X150.621Y235.681
G1 X150.202Y235.746
G1 X149.797Y235.851
G1 X149.409Y235.993
G1 X149.039Y236.172
G1 X148.69Y236.385
G1 X148.364Y236.629
G1 X148.063Y236.903
G1 X147.789Y237.204
G1 X147.545Y237.53
G1 X147.332Y237.879
G1 X147.153Y238.249
G1 X147.01Y238.637
G1 X146.906Y239.042
G1 X146.841Y239.461
G1 X146.819Y239.893
G1 Y246.226
G1 X146.841Y246.657
G1 X146.906Y247.076
G1 X147.01Y247.481
G1 X147.153Y247.87
G1 X147.332Y248.24
G1 X147.545Y248.589
G1 X147.789Y248.915
G1 X148.063Y249.216
G1 X148.364Y249.49
G1 X148.69Y249.734
G1 X149.039Y249.947
G1 X149.409Y250.125
G1 X149.797Y250.268
G1 X150.202Y250.373
G1 X150.621Y250.437
G1 X151.052Y250.459
G1 X178.484
G1 X178.915Y250.437
G1 X178.552Y250.453
G0 X188.862Y233.321
G1 X188.679Y233.099
G1 X188.457Y232.916
G1 X188.202Y232.777
G1 X187.92Y232.69
G1 X187.618Y232.659
G1 X187.316Y232.69
G1 X187.034Y232.777
G1 X186.78Y232.916
G1 X186.558Y233.099
G1 X186.374Y233.321
G1 X186.236Y233.576
G1 X186.149Y233.857
G1 X186.118Y234.159
G1 X186.149Y234.462
G1 X186.236Y234.743
G1 X186.374Y234.998
G1 X186.558Y235.22
G1 X186.78Y235.403
G1 X187.034Y235.541
G1 X187.316Y235.629
G1 X187.618Y235.659
G1 X187.92Y235.629
G1 X188.202Y235.541
G1 X188.457Y235.403
G1 X188.679Y235.22
G1 X188.862Y234.998
G1 X189Y234.743
G1 X189.088Y234.462
G1 X189.118Y234.159
G1 X189.088Y233.857
G1 X189Y233.576
G1 X188.862Y233.321
G1 X188.679Y233.099
G1 X188.712Y233.171
G0 X141.08Y224.702
G1 X140.858Y224.885
G1 X140.674Y225.107
G1 X140.536Y225.362
G1 X140.449Y225.643
G1 X140.418Y225.946
G1 X140.449Y226.248
G1 X140.536Y226.529
G1 X140.674Y226.784
G1 X140.858Y227.006
G1 X141.08Y227.189
G1 X141.334Y227.328
G1 X141.616Y227.415
G1 X141.918Y227.446
G1 X142.22Y227.415
G1 X142.502Y227.328
G1 X142.757Y227.189
G1 X142.979Y227.006
G1 X143.162Y226.784
G1 X143.3Y226.529
G1 X143.388Y226.248
G1 X143.418Y225.946
G1 X143.388Y225.643
G1 X143.3Y225.362
G1 X143.162Y225.107
G1 X142.979Y224.885
G1 X142.757Y224.702
G1 X142.502Y224.563
G1 X142.22Y224.476
G1 X141.918Y224.446
G1 X141.616Y224.476
G1 X141.334Y224.563
G1 X141.08Y224.702
G1 X140.858Y224.885
G1 X140.929Y224.852
G0 X106.048Y265.923
G1 X106.164Y266.298
G1 X106.349Y266.638
G1 X106.593Y266.934
G1 X106.889Y267.178
G1 X107.229Y267.362
G1 X107.604Y267.479
G1 X108.007Y267.52
G1 X108.41Y267.479
G1 X108.785Y267.362
G1 X109.125Y267.178
G1 X109.421Y266.934
G1 X109.665Y266.638
G1 X109.85Y266.298
G1 X109.966Y265.923
G1 X110.007Y265.52
G1 X109.966Y265.117
G1 X109.85Y264.741
G1 X109.665Y264.401
G1 X109.421Y264.105
G1 X109.125Y263.861
G1 X108.785Y263.677
G1 X108.41Y263.56
G1 X108.007Y263.52
G1 X107.604Y263.56
G1 X107.229Y263.677
G1 X106.889Y263.861
G1 X106.593Y264.105
G1 X106.349Y264.401
G1 X106.164Y264.741
G1 X106.048Y265.117
G1 X106.007Y265.52
G1 X106.048Y265.923
G1 X106.164Y266.298
G1 X106.089Y266.021
G0 X89.523Y274.978
G1 X89.639Y275.354
G1 X89.824Y275.693
G1 X90.068Y275.989
G1 X90.364Y276.234
G1 X90.704Y276.418
G1 X91.079Y276.535
G1 X91.482Y276.575
G1 X91.885Y276.535
G1 X92.261Y276.418
G1 X92.6Y276.234
G1 X92.896Y275.989
G1 X93.14Y275.693
G1 X93.325Y275.354
G1 X93.441Y274.978
G1 X93.482Y274.575
G1 X93.441Y274.172
G1 X93.325Y273.797
G1 X93.14Y273.457
G1 X92.896Y273.161
G1 X92.6Y272.917
G1 X92.261Y272.732
G1 X91.885Y272.616
G1 X91.482Y272.575
G1 X91.079Y272.616
G1 X90.704Y272.732
G1 X90.364Y272.917
G1 X90.068Y273.161
G1 X89.824Y273.457
G1 X89.639Y273.797
G1 X89.523Y274.172
G1 X89.482Y274.575
G1 X89.523Y274.978
G1 X89.639Y275.354
G1 X89.564Y275.077
G0 X109.966Y258.061
G1 X109.85Y257.686
G1 X109.665Y257.346
G1 X109.421Y257.05
G1 X109.125Y256.806
G1 X108.785Y256.621
G1 X108.41Y256.505
G1 X108.007Y256.464
G1 X107.604Y256.505
G1 X107.229Y256.621
G1 X106.889Y256.806
G1 X106.593Y257.05
G1 X106.349Y257.346
G1 X106.164Y257.686
G1 X106.048Y258.061
G1 X106.007Y258.464
G1 X106.048Y258.867
G1 X106.164Y259.243
G1 X106.349Y259.582
G1 X106.593Y259.878
G1 X106.889Y260.123
G1 X107.229Y260.307
G1 X107.604Y260.423
G1 X108.007Y260.464
G1 X108.41Y260.423
G1 X108.785Y260.307
G1 X109.125Y260.123
G1 X109.421Y259.878
G1 X109.665Y259.582
G1 X109.85Y259.243
G1 X109.966Y258.867
G1 X110.007Y258.464
G1 X109.966Y258.061
G1 X109.85Y257.686
G1 X109.925Y257.963
G0 X107.604Y249.449
G1 X107.229Y249.566
G1 X106.889Y249.75
G1 X106.593Y249.994
G1 X106.349Y250.29
G1 X106.164Y250.63
G1 X106.048Y251.006
G1 X106.007Y251.409
G1 X106.048Y251.812
G1 X106.164Y252.187
G1 X106.349Y252.527
G1 X106.593Y252.823
G1 X106.889Y253.067
G1 X107.229Y253.251
G1 X107.604Y253.368
G1 X108.007Y253.409
G1 X108.41Y253.368
G1 X108.785Y253.251
G1 X109.125Y253.067
G1 X109.421Y252.823
G1 X109.665Y252.527
G1 X109.85Y252.187
G1 X109.966Y251.812
G1 X110.007Y251.409
G1 X109.966Y251.006
G1 X109.85Y250.63
G1 X109.665Y250.29
G1 X109.421Y249.994
G1 X109.125Y249.75
G1 X108.785Y249.566
G1 X108.41Y249.449
G1 X108.007Y249.408
G1 X107.604Y249.449
G1 X107.229Y249.566
G1 X107.505Y249.491
G0 X109.966Y243.95
G1 X109.85Y243.575
G1 X109.665Y243.235
G1 X109.421Y242.939
G1 X109.125Y242.694
G1 X108.785Y242.51
G1 X108.41Y242.393
G1 X108.007Y242.353
G1 X107.604Y242.393
G1 X107.229Y242.51
G1 X106.889Y242.694
G1 X106.593Y242.939
G1 X106.349Y243.235
G1 X106.164Y243.575
G1 X106.048Y243.95
G1 X106.007Y244.353
G1 X106.048Y244.756
G1 X106.164Y245.132
G1 X106.349Y245.471
G1 X106.593Y245.767
G1 X106.889Y246.011
G1 X107.229Y246.196
G1 X107.604Y246.312
G1 X108.007Y246.353
G1 X108.41Y246.312
G1 X108.785Y246.196
G1 X109.125Y246.011
G1 X109.421Y245.767
G1 X109.665Y245.471
G1 X109.85Y245.132
G1 X109.966Y244.756
G1 X110.007Y244.353
G1 X109.966Y243.95
G1 X109.85Y243.575
G1 X109.925Y243.851
G0 X107.604Y235.026
G1 X107.229Y235.142
G1 X106.889Y235.327
G1 X106.593Y235.571
G1 X106.349Y235.867
G1 X106.164Y236.207
G1 X106.048Y236.582
G1 X106.007Y236.985
G1 X106.048Y237.388
G1 X106.164Y237.764
G1 X106.349Y238.103
G1 X106.593Y238.399
G1 X106.889Y238.644
G1 X107.229Y238.828
G1 X107.604Y238.945
G1 X108.007Y238.985
G1 X108.41Y238.945
G1 X108.785Y238.828
G1 X109.125Y238.644
G1 X109.421Y238.399
G1 X109.665Y238.103
G1 X109.85Y237.764
G1 X109.966Y237.388
G1 X110.007Y236.985
G1 X109.966Y236.582
G1 X109.85Y236.207
G1 X109.665Y235.867
G1 X109.421Y235.571
G1 X109.125Y235.327
G1 X108.785Y235.142
G1 X108.41Y235.026
G1 X108.007Y234.985
G1 X107.604Y235.026
G1 X107.229Y235.142
G1 X107.505Y235.067
G0 X109.966Y222.629
G1 X109.85Y222.253
G1 X109.665Y221.913
G1 X109.421Y221.617
G1 X109.125Y221.373
G1 X108.785Y221.189
G1 X108.41Y221.072
G1 X108.007Y221.031
G1 X107.604Y221.072
G1 X107.229Y221.189
G1 X106.889Y221.373
G1 X106.593Y221.617
G1 X106.349Y221.913
G1 X106.164Y222.253
G1 X106.048Y222.629
G1 X106.007Y223.032
G1 X106.048Y223.435
G1 X106.164Y223.81
G1 X106.349Y224.15
G1 X106.593Y224.446
G1 X106.889Y224.69
G1 X107.229Y224.874
G1 X107.604Y224.991
G1 X108.007Y225.031
G1 X108.41Y224.991
G1 X108.785Y224.874
G1 X109.125Y224.69
G1 X109.421Y224.446
G1 X109.665Y224.15
G1 X109.85Y223.81
G1 X109.966Y223.435
G1 X110.007Y223.032
G1 X109.966Y222.629
G1 X109.85Y222.253
G1 X109.925Y222.53
G0 X107.604Y214.016
G1 X107.229Y214.133
G1 X106.889Y214.317
G1 X106.593Y214.562
G1 X106.349Y214.858
G1 X106.164Y215.198
G1 X106.048Y215.573
G1 X106.007Y215.976
G1 X106.048Y216.379
G1 X106.164Y216.755
G1 X106.349Y217.094
G1 X106.593Y217.39
G1 X106.889Y217.634
G1 X107.229Y217.819
G1 X107.604Y217.935
G1 X108.007Y217.976
G1 X108.41Y217.935
G1 X108.785Y217.819
G1 X109.125Y217.634
G1 X109.421Y217.39
G1 X109.665Y217.094
G1 X109.85Y216.755
G1 X109.966Y216.379
G1 X110.007Y215.976
G1 X109.966Y215.573
G1 X109.85Y215.198
G1 X109.665Y214.858
G1 X109.421Y214.562
G1 X109.125Y214.317
G1 X108.785Y214.133
G1 X108.41Y214.016
G1 X108.007Y213.976
G1 X107.604Y214.016
G1 X107.229Y214.133
G1 X107.505Y214.058
G0 X109.966Y208.517
G1 X109.85Y208.142
G1 X109.665Y207.802
G1 X109.421Y207.506
G1 X109.125Y207.262
G1 X108.785Y207.077
G1 X108.41Y206.961
G1 X108.007Y206.92
G1 X107.604Y206.961
G1 X107.229Y207.077
G1 X106.889Y207.262
G1 X106.593Y207.506
G1 X106.349Y207.802
G1 X106.164Y208.142
G1 X106.048Y208.517
G1 X106.007Y208.921
G1 X106.048Y209.324
G1 X106.164Y209.699
G1 X106.349Y210.039
G1 X106.593Y210.335
G1 X106.889Y210.579
G1 X107.229Y210.763
G1 X107.604Y210.88
G1 X108.007Y210.92
G1 X108.41Y210.88
G1 X108.785Y210.763
G1 X109.125Y210.579
G1 X109.421Y210.335
G1 X109.665Y210.039
G1 X109.85Y209.699
G1 X109.966Y209.324
G1 X110.007Y208.921
G1 X109.966Y208.517
G1 X109.85Y208.142
G1 X109.925Y208.419
G0 X107.604Y199.593
G1 X107.229Y199.71
G1 X106.889Y199.894
G1 X106.593Y200.138
G1 X106.349Y200.434
G1 X106.164Y200.774
G1 X106.048Y201.15
G1 X106.007Y201.553
G1 X106.048Y201.956
G1 X106.164Y202.331
G1 X106.349Y202.671
G1 X106.593Y202.967
G1 X106.889Y203.211
G1 X107.229Y203.395
G1 X107.604Y203.512
G1 X108.007Y203.553
G1 X108.41Y203.512
G1 X108.785Y203.395
G1 X109.125Y203.211
G1 X109.421Y202.967
G1 X109.665Y202.671
G1 X109.85Y202.331
G1 X109.966Y201.956
G1 X110.007Y201.553
G1 X109.966Y201.15
G1 X109.85Y200.774
G1 X109.665Y200.434
G1 X109.421Y200.138
G1 X109.125Y199.894
G1 X108.785Y199.71
G1 X108.41Y199.593
G1 X108.007Y199.552
G1 X107.604Y199.593
G1 X107.229Y199.71
G1 X107.505Y199.635
G0 X97.127Y177.17
G1 X96.725Y177.191
G1 X96.335Y177.251
G1 X95.958Y177.348
G1 X95.597Y177.481
G1 X95.252Y177.648
G1 X94.927Y177.846
G1 X94.623Y178.073
G1 X94.343Y178.328
G1 X94.088Y178.608
G1 X93.861Y178.912
G1 X93.663Y179.237
G1 X93.496Y179.581
G1 X93.363Y179.943
G1 X93.266Y180.32
G1 X93.206Y180.71
G1 X93.185Y181.112
G1 X93.206Y181.513
G1 X93.266Y181.904
G1 X93.363Y182.281
G1 X93.496Y182.642
G1 X93.663Y182.987
G1 X93.861Y183.312
G1 X94.088Y183.615
G1 X94.343Y183.896
G1 X94.623Y184.15
G1 X94.927Y184.378
G1 X95.252Y184.576
G1 X95.597Y184.742
G1 X95.958Y184.875
G1 X96.335Y184.973
G1 X96.725Y185.033
G1 X97.127Y185.053
G1 X131.577
G1 X131.979Y185.033
G1 X132.369Y184.973
G1 X132.746Y184.875
G1 X133.108Y184.742
G1 X133.452Y184.576
G1 X133.777Y184.378
G1 X134.081Y184.15
G1 X134.361Y183.896
G1 X134.616Y183.615
G1 X134.843Y183.312
G1 X135.041Y182.987
G1 X135.208Y182.642
G1 X135.341Y182.281
G1 X135.438Y181.904
G1 X135.498Y181.513
G1 X135.519Y181.112
G1 X135.498Y180.71
G1 X135.438Y180.32
G1 X135.341Y179.943
G1 X135.208Y179.581
G1 X135.041Y179.237
G1 X134.843Y178.912
G1 X134.616Y178.608
G1 X134.361Y178.328
G1 X134.081Y178.073
G1 X133.777Y177.846
G1 X133.452Y177.648
G1 X133.108Y177.481
G1 X132.746Y177.348
G1 X132.369Y177.251
G1 X131.979Y177.191
G1 X131.577Y177.17
G1 X97.127
G1 X96.725Y177.191
G1 X97.029Y177.18
G0 X190.15Y162.062
G1 X190.13Y161.66
G1 X190.07Y161.27
G1 X189.972Y160.893
G1 X189.839Y160.531
G1 X189.672Y160.187
G1 X189.474Y159.862
G1 X189.247Y159.558
G1 X188.992Y159.278
G1 X188.712Y159.023
G1 X188.408Y158.796
G1 X188.083Y158.598
G1 X187.739Y158.431
G1 X187.377Y158.298
G1 X187Y158.201
G1 X186.61Y158.141
G1 X186.208Y158.12
G1 X151.758
G1 X151.357Y158.141
G1 X150.966Y158.201
G1 X150.59Y158.298
G1 X150.228Y158.431
G1 X149.883Y158.598
G1 X149.558Y158.796
G1 X149.255Y159.023
G1 X148.975Y159.278
G1 X148.72Y159.558
G1 X148.492Y159.862
G1 X148.294Y160.187
G1 X148.128Y160.531
G1 X147.995Y160.893
G1 X147.897Y161.27
G1 X147.837Y161.66
G1 X147.817Y162.062
G1 X147.837Y162.463
G1 X147.897Y162.854
G1 X147.995Y163.231
G1 X148.128Y163.592
G1 X148.294Y163.937
G1 X148.492Y164.262
G1 X148.72Y164.565
G1 X148.975Y164.846
G1 X149.255Y165.1
G1 X149.558Y165.328
G1 X149.883Y165.526
G1 X150.228Y165.692
G1 X150.59Y165.825
G1 X150.966Y165.923
G1 X151.357Y165.983
G1 X151.758Y166.003
G1 X186.208
G1 X186.61Y165.983
G1 X187Y165.923
G1 X187.377Y165.825
G1 X187.739Y165.692
G1 X188.083Y165.526
G1 X188.408Y165.328
G1 X188.712Y165.1
G1 X188.992Y164.846
G1 X189.247Y164.565
G1 X189.474Y164.262
G1 X189.672Y163.937
G1 X189.839Y163.592
G1 X189.972Y163.231
G1 X190.07Y162.854
G1 X190.13Y162.463
G1 X190.15Y162.062
G1 X190.13Y161.66
G1 X190.14Y161.964
G0 X206.39Y166.003
G1 X240.84
G1 X241.241Y165.983
G1 X241.632Y165.923
G1 X242.009Y165.825
G1 X242.37Y165.692
G1 X242.715Y165.526
G1 X243.04Y165.328
G1 X243.343Y165.1
G1 X243.624Y164.846
G1 X243.878Y164.565
G1 X244.106Y164.262
G1 X244.304Y163.937
G1 X244.47Y163.592
G1 X244.603Y163.231
G1 X244.701Y162.854
G1 X244.761Y162.463
G1 X244.781Y162.062
G1 X244.761Y161.66
G1 X244.701Y161.27
G1 X244.603Y160.893
G1 X244.47Y160.531
G1 X244.304Y160.187
G1 X244.106Y159.862
G1 X243.878Y159.558
G1 X243.624Y159.278
G1 X243.343Y159.023
G1 X243.04Y158.796
G1 X242.715Y158.598
G1 X242.37Y158.431
G1 X242.009Y158.298
G1 X241.632Y158.201
G1 X241.241Y158.141
G1 X240.84Y158.12
G1 X206.39
G1 X205.988Y158.141
G1 X205.598Y158.201
G1 X205.221Y158.298
G1 X204.859Y158.431
G1 X204.515Y158.598
G1 X204.19Y158.796
G1 X203.886Y159.023
G1 X203.606Y159.278
G1 X203.351Y159.558
G1 X203.124Y159.862
G1 X202.926Y160.187
G1 X202.759Y160.531
G1 X202.626Y160.893
G1 X202.529Y161.27
G1 X202.469Y161.66
G1 X202.448Y162.062
G1 X202.469Y162.463
G1 X202.529Y162.854
G1 X202.626Y163.231
G1 X202.759Y163.592
G1 X202.926Y163.937
G1 X203.124Y164.262
G1 X203.351Y164.565
G1 X203.606Y164.846
G1 X203.886Y165.1
G1 X204.19Y165.328
G1 X204.515Y165.526
G1 X204.859Y165.692
G1 X205.221Y165.825
G1 X205.598Y165.923
G1 X205.988Y165.983
G1 X206.39Y166.003
G1 X206.89
G0 X147.817Y181.112
G1 X147.837Y181.513
G1 X147.897Y181.904
G1 X147.995Y182.281
G1 X148.128Y182.642
G1 X148.294Y182.987
G1 X148.492Y183.312
G1 X148.72Y183.615
G1 X148.975Y183.896
G1 X149.255Y184.15
G1 X149.558Y184.378
G1 X149.883Y184.576
G1 X150.228Y184.742
G1 X150.59Y184.875
G1 X150.966Y184.973
G1 X151.357Y185.033
G1 X151.758Y185.053
G1 X186.208
G1 X186.61Y185.033
G1 X187Y184.973
G1 X187.377Y184.875
G1 X187.739Y184.742
G1 X188.083Y184.576
G1 X188.408Y184.378
G1 X188.712Y184.15
G1 X188.992Y183.896
G1 X189.247Y183.615
G1 X189.474Y183.312
G1 X189.672Y182.987
G1 X189.839Y182.642
G1 X189.972Y182.281
G1 X190.07Y181.904
G1 X190.13Y181.513
G1 X190.15Y181.112
G1 X190.13Y180.71
G1 X190.07Y180.32
G1 X189.972Y179.943
G1 X189.839Y179.581
G1 X189.672Y179.237
G1 X189.474Y178.912
G1 X189.247Y178.608
G1 X188.992Y178.328
G1 X188.712Y178.073
G1 X188.408Y177.846
G1 X188.083Y177.648
G1 X187.739Y177.481
G1 X187.377Y177.348
G1 X187Y177.251
G1 X186.61Y177.191
G1 X186.208Y177.17
G1 X151.758
G1 X151.357Y177.191
G1 X150.966Y177.251
G1 X150.59Y177.348
G1 X150.228Y177.481
G1 X149.883Y177.648
G1 X149.558Y177.846
G1 X149.255Y178.073
G1 X148.975Y178.328
G1 X148.72Y178.608
G1 X148.492Y178.912
G1 X148.294Y179.237
G1 X148.128Y179.581
G1 X147.995Y179.943
G1 X147.897Y180.32
G1 X147.837Y180.71
G1 X147.817Y181.112
G1 X147.837Y181.513
G1 X147.827Y181.209
G0 X228.551Y220.095
G1 X228.773Y219.912
G1 X228.956Y219.69
G1 X229.094Y219.435
G1 X229.182Y219.153
G1 X229.212Y218.851
G1 X229.182Y218.549
G1 X229.094Y218.267
G1 X228.956Y218.012
G1 X228.773Y217.79
G1 X228.551Y217.607
G1 X228.296Y217.469
G1 X228.015Y217.381
G1 X227.712Y217.351
G1 X227.41Y217.381
G1 X227.129Y217.469
G1 X226.874Y217.607
G1 X226.652Y217.79
G1 X226.469Y218.012
G1 X226.33Y218.267
G1 X226.243Y218.549
G1 X226.212Y218.851
G1 X226.243Y219.153
G1 X226.33Y219.435
G1 X226.469Y219.69
G1 X226.652Y219.912
G1 X226.874Y220.095
G1 X227.129Y220.233
G1 X227.41Y220.321
G1 X227.712Y220.351
G1 X228.015Y220.321
G1 X228.296Y220.233
G1 X228.551Y220.095
G1 X228.773Y219.912
G1 X228.701Y219.945
G0 X231.446Y199.945
G1 X231.33Y199.569
G1 X231.145Y199.23
G1 X230.901Y198.934
G1 X230.605Y198.689
G1 X230.266Y198.505
G1 X229.89Y198.388
G1 X229.487Y198.348
G1 X229.084Y198.388
G1 X228.709Y198.505
G1 X228.369Y198.689
G1 X228.073Y198.934
G1 X227.829Y199.23
G1 X227.644Y199.569
G1 X227.528Y199.945
G1 X227.487Y200.348
G1 X227.528Y200.751
G1 X227.644Y201.126
G1 X227.829Y201.466
G1 X228.073Y201.762
G1 X228.369Y202.006
G1 X228.709Y202.191
G1 X229.084Y202.307
G1 X229.487Y202.348
G1 X229.89Y202.307
G1 X230.266Y202.191
G1 X230.605Y202.006
G1 X230.901Y201.762
G1 X231.145Y201.466
G1 X231.33Y201.126
G1 X231.446Y200.751
G1 X231.487Y200.348
G1 X231.446Y199.945
G1 X231.33Y199.569
G1 X231.405Y199.846
G0 X244.781Y181.112
G1 X244.761Y180.71
G1 X244.701Y180.32
G1 X244.603Y179.943
G1 X244.47Y179.581
G1 X244.304Y179.237
G1 X244.106Y178.912
G1 X243.878Y178.608
G1 X243.624Y178.328
G1 X243.343Y178.073
G1 X243.04Y177.846
G1 X242.715Y177.648
G1 X242.37Y177.481
G1 X242.009Y177.348
G1 X241.632Y177.251
G1 X241.241Y177.191
G1 X240.84Y177.17
G1 X206.39
G1 X205.988Y177.191
G1 X205.598Y177.251
G1 X205.221Y177.348
G1 X204.859Y177.481
G1 X204.515Y177.648
G1 X204.19Y177.846
G1 X203.886Y178.073
G1 X203.606Y178.328
G1 X203.351Y178.608
G1 X203.124Y178.912
G1 X202.926Y179.237
G1 X202.759Y179.581
G1 X202.626Y179.943
G1 X202.529Y180.32
G1 X202.469Y180.71
G1 X202.448Y181.112
G1 X202.469Y181.513
G1 X202.529Y181.904
G1 X202.626Y182.281
G1 X202.759Y182.642
G1 X202.926Y182.987
G1 X203.124Y183.312
G1 X203.351Y183.615
G1 X203.606Y183.896
G1 X203.886Y184.15
G1 X204.19Y184.378
G1 X204.515Y184.576
G1 X204.859Y184.742
G1 X205.221Y184.875
G1 X205.598Y184.973
G1 X205.988Y185.033
G1 X206.39Y185.053
G1 X240.84
G1 X241.241Y185.033
G1 X241.632Y184.973
G1 X242.009Y184.875
G1 X242.37Y184.742
G1 X242.715Y184.576
G1 X243.04Y184.378
G1 X243.343Y184.15
G1 X243.624Y183.896
G1 X243.878Y183.615
G1 X244.106Y183.312
G1 X244.304Y182.987
G1 X244.47Y182.642
G1 X244.603Y182.281
G1 X244.701Y181.904
G1 X244.761Y181.513
G1 X244.781Y181.112
G1 X244.761Y180.71
G1 X244.771Y181.014
G0 X294.278Y191.329
G1 X294.5Y191.146
G1 X294.683Y190.924
G1 X294.821Y190.669
G1 X294.908Y190.388
G1 X294.939Y190.085
G1 X294.908Y189.783
G1 X294.821Y189.502
G1 X294.683Y189.247
G1 X294.5Y189.025
G1 X294.278Y188.842
G1 X294.023Y188.703
G1 X293.741Y188.616
G1 X293.439Y188.585
G1 X293.137Y188.616
G1 X292.855Y188.703
G1 X292.6Y188.842
G1 X292.378Y189.025
G1 X292.195Y189.247
G1 X292.057Y189.502
G1 X291.969Y189.783
G1 X291.939Y190.085
G1 X291.969Y190.388
G1 X292.057Y190.669
G1 X292.195Y190.924
G1 X292.378Y191.146
G1 X292.6Y191.329
G1 X292.855Y191.468
G1 X293.137Y191.555
G1 X293.439Y191.585
G1 X293.741Y191.555
G1 X294.023Y191.468
G1 X294.278Y191.329
G1 X294.5Y191.146
G1 X294.428Y191.179
G0 X299.483Y189.247
G1 X299.3Y189.025
G1 X299.078Y188.842
G1 X298.823Y188.703
G1 X298.541Y188.616
G1 X298.239Y188.585
G1 X297.937Y188.616
G1 X297.655Y188.703
G1 X297.4Y188.842
G1 X297.178Y189.025
G1 X296.995Y189.247
G1 X296.857Y189.502
G1 X296.769Y189.783
G1 X296.739Y190.085
G1 X296.769Y190.388
G1 X296.857Y190.669
G1 X296.995Y190.924
G1 X297.178Y191.146
G1 X297.4Y191.329
G1 X297.655Y191.468
G1 X297.937Y191.555
G1 X298.239Y191.585
G1 X298.541Y191.555
G1 X298.823Y191.468
G1 X299.078Y191.329
G1 X299.3Y191.146
G1 X299.483Y190.924
G1 X299.621Y190.669
G1 X299.709Y190.388
G1 X299.739Y190.085
G1 X299.709Y189.783
G1 X299.621Y189.502
G1 X299.483Y189.247
G1 X299.3Y189.025
G1 X299.333Y189.097
G0 X312.078Y191.329
G1 X312.3Y191.146
G1 X312.483Y190.924
G1 X312.621Y190.669
G1 X312.709Y190.388
G1 X312.739Y190.085
G1 X312.709Y189.783
G1 X312.621Y189.502
G1 X312.483Y189.247
G1 X312.3Y189.025
G1 X312.078Y188.842
G1 X311.823Y188.703
G1 X311.541Y188.616
G1 X311.239Y188.585
G1 X310.937Y188.616
G1 X310.655Y188.703
G1 X310.4Y188.842
G1 X310.178Y189.025
G1 X309.995Y189.247
G1 X309.857Y189.502
G1 X309.769Y189.783
G1 X309.739Y190.085
G1 X309.769Y190.388
G1 X309.857Y190.669
G1 X309.995Y190.924
G1 X310.178Y191.146
G1 X310.4Y191.329
G1 X310.655Y191.468
G1 X310.937Y191.555
G1 X311.239Y191.585
G1 X311.541Y191.555
G1 X311.823Y191.468
G1 X312.078Y191.329
G1 X312.3Y191.146
G1 X312.228Y191.179
G0 X309.995Y208.419
G1 X310.178Y208.641
G1 X310.4Y208.824
G1 X310.655Y208.962
G1 X310.937Y209.049
G1 X311.239Y209.08
G1 X311.541Y209.049
G1 X311.823Y208.962
G1 X312.078Y208.824
G1 X312.3Y208.641
G1 X312.483Y208.419
G1 X312.621Y208.164
G1 X312.709Y207.882
G1 X312.739Y207.58
G1 X312.709Y207.278
G1 X312.621Y206.996
G1 X312.483Y206.741
G1 X312.3Y206.519
G1 X312.078Y206.336
G1 X311.823Y206.198
G1 X311.541Y206.11
G1 X311.239Y206.08
G1 X310.937Y206.11
G1 X310.655Y206.198
G1 X310.4Y206.336
G1 X310.178Y206.519
G1 X309.995Y206.741
G1 X309.857Y206.996
G1 X309.769Y207.278
G1 X309.739Y207.58
G1 X309.769Y207.882
G1 X309.857Y208.164
G1 X309.995Y208.419
G1 X310.178Y208.641
G1 X310.145Y208.569
G0 X297.4Y206.336
G1 X297.178Y206.519
G1 X296.995Y206.741
G1 X296.857Y206.996
G1 X296.769Y207.278
G1 X296.739Y207.58
G1 X296.769Y207.882
G1 X296.857Y208.164
G1 X296.995Y208.419
G1 X297.178Y208.641
G1 X297.4Y208.824
G1 X297.655Y208.962
G1 X297.937Y209.049
G1 X298.239Y209.08
G1 X298.541Y209.049
G1 X298.823Y208.962
G1 X299.078Y208.824
G1 X299.3Y208.641
G1 X299.483Y208.419
G1 X299.621Y208.164
G1 X299.709Y207.882
G1 X299.739Y207.58
G1 X299.709Y207.278
G1 X299.621Y206.996
G1 X299.483Y206.741
G1 X299.3Y206.519
G1 X299.078Y206.336
G1 X298.823Y206.198
G1 X298.541Y206.11
G1 X298.239Y206.08
G1 X297.937Y206.11
G1 X297.655Y206.198
G1 X297.4Y206.336
G1 X297.178Y206.519
G1 X297.25Y206.486
G0 X292.195Y208.419
G1 X292.378Y208.641
G1 X292.6Y208.824
G1 X292.855Y208.962
G1 X293.137Y209.049
G1 X293.439Y209.08
G1 X293.741Y209.049
G1 X294.023Y208.962
G1 X294.278Y208.824
G1 X294.5Y208.641
G1 X294.683Y208.419
G1 X294.821Y208.164
G1 X294.908Y207.882
G1 X294.939Y207.58
G1 X294.908Y207.278
G1 X294.821Y206.996
G1 X294.683Y206.741
G1 X294.5Y206.519
G1 X294.278Y206.336
G1 X294.023Y206.198
G1 X293.741Y206.11
G1 X293.439Y206.08
G1 X293.137Y206.11
G1 X292.855Y206.198
G1 X292.6Y206.336
G1 X292.378Y206.519
G1 X292.195Y206.741
G1 X292.057Y206.996
G1 X291.969Y207.278
G1 X291.939Y207.58
G1 X291.969Y207.882
G1 X292.057Y208.164
G1 X292.195Y208.419
G1 X292.378Y208.641
G1 X292.345Y208.569
G0 X282.178Y198.388
G1 X281.803Y198.505
G1 X281.463Y198.689
G1 X281.167Y198.934
G1 X280.923Y199.23
G1 X280.738Y199.569
G1 X280.622Y199.945
G1 X280.581Y200.348
G1 X280.622Y200.751
G1 X280.738Y201.126
G1 X280.923Y201.466
G1 X281.167Y201.762
G1 X281.463Y202.006
G1 X281.803Y202.191
G1 X282.178Y202.307
G1 X282.581Y202.348
G1 X282.984Y202.307
G1 X283.36Y202.191
G1 X283.699Y202.006
G1 X283.995Y201.762
G1 X284.239Y201.466
G1 X284.424Y201.126
G1 X284.54Y200.751
G1 X284.581Y200.348
G1 X284.54Y199.945
G1 X284.424Y199.569
G1 X284.239Y199.23
G1 X283.995Y198.934
G1 X283.699Y198.689
G1 X283.36Y198.505
G1 X282.984Y198.388
G1 X282.581Y198.348
G1 X282.178Y198.388
G1 X281.803Y198.505
G1 X282.08Y198.43
G0 X273.985Y200.751
G1 X274.102Y201.126
G1 X274.286Y201.466
G1 X274.53Y201.762
G1 X274.826Y202.006
G1 X275.166Y202.191
G1 X275.541Y202.307
G1 X275.944Y202.348
G1 X276.347Y202.307
G1 X276.723Y202.191
G1 X277.063Y202.006
G1 X277.359Y201.762
G1 X277.603Y201.466
G1 X277.787Y201.126
G1 X277.904Y200.751
G1 X277.944Y200.348
G1 X277.904Y199.945
G1 X277.787Y199.569
G1 X277.603Y199.23
G1 X277.359Y198.934
G1 X277.063Y198.689
G1 X276.723Y198.505
G1 X276.347Y198.388
G1 X275.944Y198.348
G1 X275.541Y198.388
G1 X275.166Y198.505
G1 X274.826Y198.689
G1 X274.53Y198.934
G1 X274.286Y199.23
G1 X274.102Y199.569
G1 X273.985Y199.945
G1 X273.944Y200.348
G1 X273.985Y200.751
G1 X274.102Y201.126
G1 X274.027Y200.849
G0 X268.905Y198.388
G1 X268.529Y198.505
G1 X268.189Y198.689
G1 X267.893Y198.934
G1 X267.649Y199.23
G1 X267.465Y199.569
G1 X267.348Y199.945
G1 X267.308Y200.348
G1 X267.348Y200.751
G1 X267.465Y201.126
G1 X267.649Y201.466
G1 X267.893Y201.762
G1 X268.189Y202.006
G1 X268.529Y202.191
G1 X268.905Y202.307
G1 X269.308Y202.348
G1 X269.711Y202.307
G1 X270.086Y202.191
G1 X270.426Y202.006
G1 X270.722Y201.762
G1 X270.966Y201.466
G1 X271.15Y201.126
G1 X271.267Y200.751
G1 X271.308Y200.348
G1 X271.267Y199.945
G1 X271.15Y199.569
G1 X270.966Y199.23
G1 X270.722Y198.934
G1 X270.426Y198.689
G1 X270.086Y198.505
G1 X269.711Y198.388
G1 X269.308Y198.348
G1 X268.905Y198.388
G1 X268.529Y198.505
G1 X268.806Y198.43
G0 X260.712Y200.751
G1 X260.828Y201.126
G1 X261.013Y201.466
G1 X261.257Y201.762
G1 X261.553Y202.006
G1 X261.892Y202.191
G1 X262.268Y202.307
G1 X262.671Y202.348
G1 X263.074Y202.307
G1 X263.449Y202.191
G1 X263.789Y202.006
G1 X264.085Y201.762
G1 X264.329Y201.466
G1 X264.514Y201.126
G1 X264.63Y200.751
G1 X264.671Y200.348
G1 X264.63Y199.945
G1 X264.514Y199.569
G1 X264.329Y199.23
G1 X264.085Y198.934
G1 X263.789Y198.689
G1 X263.449Y198.505
G1 X263.074Y198.388
G1 X262.671Y198.348
G1 X262.268Y198.388
G1 X261.892Y198.505
G1 X261.553Y198.689
G1 X261.257Y198.934
G1 X261.013Y199.23
G1 X260.828Y199.569
G1 X260.712Y199.945
G1 X260.671Y200.348
G1 X260.712Y200.751
G1 X260.828Y201.126
G1 X260.753Y200.849
G0 X255.631Y198.388
G1 X255.256Y198.505
G1 X254.916Y198.689
G1 X254.62Y198.934
G1 X254.376Y199.23
G1 X254.191Y199.569
G1 X254.075Y199.945
G1 X254.034Y200.348
G1 X254.075Y200.751
G1 X254.191Y201.126
G1 X254.376Y201.466
G1 X254.62Y201.762
G1 X254.916Y202.006
G1 X255.256Y202.191
G1 X255.631Y202.307
G1 X256.034Y202.348
G1 X256.437Y202.307
G1 X256.813Y202.191
G1 X257.152Y202.006
G1 X257.448Y201.762
G1 X257.692Y201.466
G1 X257.877Y201.126
G1 X257.993Y200.751
G1 X258.034Y200.348
G1 X257.993Y199.945
G1 X257.877Y199.569
G1 X257.692Y199.23
G1 X257.448Y198.934
G1 X257.152Y198.689
G1 X256.813Y198.505
G1 X256.437Y198.388
G1 X256.034Y198.348
G1 X255.631Y198.388
G1 X255.256Y198.505
G1 X255.533Y198.43
G0 X247.438Y200.751
G1 X247.555Y201.126
G1 X247.739Y201.466
G1 X247.983Y201.762
G1 X248.279Y202.006
G1 X248.619Y202.191
G1 X248.994Y202.307
G1 X249.397Y202.348
G1 X249.8Y202.307
G1 X250.176Y202.191
G1 X250.516Y202.006
G1 X250.812Y201.762
G1 X251.056Y201.466
G1 X251.24Y201.126
G1 X251.357Y200.751
G1 X251.397Y200.348
G1 X251.357Y199.945
G1 X251.24Y199.569
G1 X251.056Y199.23
G1 X250.812Y198.934
G1 X250.516Y198.689
G1 X250.176Y198.505
G1 X249.8Y198.388
G1 X249.397Y198.348
G1 X248.994Y198.388
G1 X248.619Y198.505
G1 X248.279Y198.689
G1 X247.983Y198.934
G1 X247.739Y199.23
G1 X247.555Y199.569
G1 X247.438Y199.945
G1 X247.397Y200.348
G1 X247.438Y200.751
G1 X247.555Y201.126
G1 X247.48Y200.849
G0 X242.358Y198.388
G1 X241.982Y198.505
G1 X241.642Y198.689
G1 X241.346Y198.934
G1 X241.102Y199.23
G1 X240.918Y199.569
G1 X240.801Y199.945
G1 X240.761Y200.348
G1 X240.801Y200.751
G1 X240.918Y201.126
G1 X241.102Y201.466
G1 X241.346Y201.762
G1 X241.642Y202.006
G1 X241.982Y202.191
G1 X242.358Y202.307
G1 X242.761Y202.348
G1 X243.164Y202.307
G1 X243.539Y202.191
G1 X243.879Y202.006
G1 X244.175Y201.762
G1 X244.419Y201.466
G1 X244.603Y201.126
G1 X244.72Y200.751
G1 X244.761Y200.348
G1 X244.72Y199.945
G1 X244.603Y199.569
G1 X244.419Y199.23
G1 X244.175Y198.934
G1 X243.879Y198.689
G1 X243.539Y198.505
G1 X243.164Y198.388
G1 X242.761Y198.348
G1 X242.358Y198.388
G1 X241.982Y198.505
G1 X242.259Y198.43
G0 X234.165Y200.751
G1 X234.281Y201.126
G1 X234.466Y201.466
G1 X234.71Y201.762
G1 X235.006Y202.006
G1 X235.345Y202.191
G1 X235.721Y202.307
G1 X236.124Y202.348
G1 X236.527Y202.307
G1 X236.902Y202.191
G1 X237.242Y202.006
G1 X237.538Y201.762
G1 X237.782Y201.466
G1 X237.967Y201.126
G1 X238.083Y200.751
G1 X238.124Y200.348
G1 X238.083Y199.945
G1 X237.967Y199.569
G1 X237.782Y199.23
G1 X237.538Y198.934
G1 X237.242Y198.689
G1 X236.902Y198.505
G1 X236.527Y198.388
G1 X236.124Y198.348
G1 X235.721Y198.388
G1 X235.345Y198.505
G1 X235.006Y198.689
G1 X234.71Y198.934
G1 X234.466Y199.23
G1 X234.281Y199.569
G1 X234.165Y199.945
G1 X234.124Y200.348
G1 X234.165Y200.751
G1 X234.281Y201.126
G1 X234.206Y200.849
G0 X222.447Y198.388
G1 X222.072Y198.505
G1 X221.732Y198.689
G1 X221.436Y198.934
G1 X221.192Y199.23
G1 X221.008Y199.569
G1 X220.891Y199.945
G1 X220.85Y200.348
G1 X220.891Y200.751
G1 X221.008Y201.126
G1 X221.192Y201.466
G1 X221.436Y201.762
G1 X221.732Y202.006
G1 X222.072Y202.191
G1 X222.447Y202.307
G1 X222.85Y202.348
G1 X223.253Y202.307
G1 X223.629Y202.191
G1 X223.969Y202.006
G1 X224.265Y201.762
G1 X224.509Y201.466
G1 X224.693Y201.126
G1 X224.81Y200.751
G1 X224.85Y200.348
G1 X224.81Y199.945
G1 X224.693Y199.569
G1 X224.509Y199.23
G1 X224.265Y198.934
G1 X223.969Y198.689
G1 X223.629Y198.505
G1 X223.253Y198.388
G1 X222.85Y198.348
G1 X222.447Y198.388
G1 X222.072Y198.505
G1 X222.349Y198.43
G0 X213.683Y201.128
G1 X213.8Y201.503
G1 X213.984Y201.843
G1 X214.228Y202.139
G1 X214.524Y202.383
G1 X214.864Y202.568
G1 X215.239Y202.684
G1 X215.643Y202.725
G1 X216.046Y202.684
G1 X216.421Y202.568
G1 X216.761Y202.383
G1 X217.057Y202.139
G1 X217.301Y201.843
G1 X217.485Y201.503
G1 X217.602Y201.128
G1 X217.642Y200.725
G1 X217.602Y200.322
G1 X217.485Y199.946
G1 X217.301Y199.607
G1 X217.057Y199.311
G1 X216.761Y199.066
G1 X216.421Y198.882
G1 X216.046Y198.765
G1 X215.643Y198.725
G1 X215.239Y198.765
G1 X214.864Y198.882
G1 X214.524Y199.066
G1 X214.228Y199.311
G1 X213.984Y199.607
G1 X213.8Y199.946
G1 X213.683Y200.322
G1 X213.643Y200.725
G1 X213.683Y201.128
G1 X213.8Y201.503
G1 X213.725Y201.227
G0 X208.603Y198.765
G1 X208.227Y198.882
G1 X207.888Y199.066
G1 X207.592Y199.311
G1 X207.347Y199.607
G1 X207.163Y199.946
G1 X207.046Y200.322
G1 X207.006Y200.725
G1 X207.046Y201.128
G1 X207.163Y201.503
G1 X207.347Y201.843
G1 X207.592Y202.139
G1 X207.888Y202.383
G1 X208.227Y202.568
G1 X208.603Y202.684
G1 X209.006Y202.725
G1 X209.409Y202.684
G1 X209.784Y202.568
G1 X210.124Y202.383
G1 X210.42Y202.139
G1 X210.664Y201.843
G1 X210.848Y201.503
G1 X210.965Y201.128
G1 X211.006Y200.725
G1 X210.965Y200.322
G1 X210.848Y199.946
G1 X210.664Y199.607
G1 X210.42Y199.311
G1 X210.124Y199.066
G1 X209.784Y198.882
G1 X209.409Y198.765
G1 X209.006Y198.725
G1 X208.603Y198.765
G1 X208.227Y198.882
G1 X208.504Y198.807
G0 X200.41Y201.128
G1 X200.526Y201.503
G1 X200.711Y201.843
G1 X200.955Y202.139
G1 X201.251Y202.383
G1 X201.591Y202.568
G1 X201.966Y202.684
G1 X202.369Y202.725
G1 X202.772Y202.684
G1 X203.147Y202.568
G1 X203.487Y202.383
G1 X203.783Y202.139
G1 X204.027Y201.843
G1 X204.212Y201.503
G1 X204.328Y201.128
G1 X204.369Y200.725
G1 X204.328Y200.322
G1 X204.212Y199.946
G1 X204.027Y199.607
G1 X203.783Y199.311
G1 X203.487Y199.066
G1 X203.147Y198.882
G1 X202.772Y198.765
G1 X202.369Y198.725
G1 X201.966Y198.765
G1 X201.591Y198.882
G1 X201.251Y199.066
G1 X200.955Y199.311
G1 X200.711Y199.607
G1 X200.526Y199.946
G1 X200.41Y200.322
G1 X200.369Y200.725
G1 X200.41Y201.128
G1 X200.526Y201.503
G1 X200.451Y201.227
G0 X195.329Y198.765
G1 X194.954Y198.882
G1 X194.614Y199.066
G1 X194.318Y199.311
G1 X194.074Y199.607
G1 X193.89Y199.946
G1 X193.773Y200.322
G1 X193.732Y200.725
G1 X193.773Y201.128
G1 X193.89Y201.503
G1 X194.074Y201.843
G1 X194.318Y202.139
G1 X194.614Y202.383
G1 X194.954Y202.568
G1 X195.329Y202.684
G1 X195.732Y202.725
G1 X196.135Y202.684
G1 X196.511Y202.568
G1 X196.85Y202.383
G1 X197.146Y202.139
G1 X197.391Y201.843
G1 X197.575Y201.503
G1 X197.692Y201.128
G1 X197.732Y200.725
G1 X197.692Y200.322
G1 X197.575Y199.946
G1 X197.391Y199.607
G1 X197.146Y199.311
G1 X196.85Y199.066
G1 X196.511Y198.882
G1 X196.135Y198.765
G1 X195.732Y198.725
G1 X195.329Y198.765
G1 X194.954Y198.882
G1 X195.231Y198.807
G0 X187.136Y201.128
G1 X187.253Y201.503
G1 X187.437Y201.843
G1 X187.681Y202.139
G1 X187.977Y202.383
G1 X188.317Y202.568
G1 X188.692Y202.684
G1 X189.096Y202.725
G1 X189.499Y202.684
G1 X189.874Y202.568
G1 X190.214Y202.383
G1 X190.51Y202.139
G1 X190.754Y201.843
G1 X190.938Y201.503
G1 X191.055Y201.128
G1 X191.095Y200.725
G1 X191.055Y200.322
G1 X190.938Y199.946
G1 X190.754Y199.607
G1 X190.51Y199.311
G1 X190.214Y199.066
G1 X189.874Y198.882
G1 X189.499Y198.765
G1 X189.096Y198.725
G1 X188.692Y198.765
G1 X188.317Y198.882
G1 X187.977Y199.066
G1 X187.681Y199.311
G1 X187.437Y199.607
G1 X187.253Y199.946
G1 X187.136Y200.322
G1 X187.096Y200.725
G1 X187.136Y201.128
G1 X187.253Y201.503
G1 X187.178Y201.227
G0 X182.056Y198.765
G1 X181.68Y198.882
G1 X181.341Y199.066
G1 X181.045Y199.311
G1 X180.8Y199.607
G1 X180.616Y199.946
G1 X180.499Y200.322
G1 X180.459Y200.725
G1 X180.499Y201.128
G1 X180.616Y201.503
G1 X180.8Y201.843
G1 X181.045Y202.139
G1 X181.341Y202.383
G1 X181.68Y202.568
G1 X182.056Y202.684
G1 X182.459Y202.725
G1 X182.862Y202.684
G1 X183.237Y202.568
G1 X183.577Y202.383
G1 X183.873Y202.139
G1 X184.117Y201.843
G1 X184.301Y201.503
G1 X184.418Y201.128
G1 X184.459Y200.725
G1 X184.418Y200.322
G1 X184.301Y199.946
G1 X184.117Y199.607
G1 X183.873Y199.311
G1 X183.577Y199.066
G1 X183.237Y198.882
G1 X182.862Y198.765
G1 X182.459Y198.725
G1 X182.056Y198.765
G1 X181.68Y198.882
G1 X181.957Y198.807
G0 X173.863Y201.128
G1 X173.979Y201.503
G1 X174.164Y201.843
G1 X174.408Y202.139
G1 X174.704Y202.383
G1 X175.044Y202.568
G1 X175.419Y202.684
G1 X175.822Y202.725
G1 X176.225Y202.684
G1 X176.6Y202.568
G1 X176.94Y202.383
G1 X177.236Y202.139
G1 X177.48Y201.843
G1 X177.665Y201.503
G1 X177.781Y201.128
G1 X177.822Y200.725
G1 X177.781Y200.322
G1 X177.665Y199.946
G1 X177.48Y199.607
G1 X177.236Y199.311
G1 X176.94Y199.066
G1 X176.6Y198.882
G1 X176.225Y198.765
G1 X175.822Y198.725
G1 X175.419Y198.765
G1 X175.044Y198.882
G1 X174.704Y199.066
G1 X174.408Y199.311
G1 X174.164Y199.607
G1 X173.979Y199.946
G1 X173.863Y200.322
G1 X173.822Y200.725
G1 X173.863Y201.128
G1 X173.979Y201.503
G1 X173.904Y201.227
G0 X168.782Y198.765
G1 X168.407Y198.882
G1 X168.067Y199.066
G1 X167.771Y199.311
G1 X167.527Y199.607
G1 X167.343Y199.946
G1 X167.226Y200.322
G1 X167.185Y200.725
G1 X167.226Y201.128
G1 X167.343Y201.503
G1 X167.527Y201.843
G1 X167.771Y202.139
G1 X168.067Y202.383
G1 X168.407Y202.568
G1 X168.782Y202.684
G1 X169.185Y202.725
G1 X169.588Y202.684
G1 X169.964Y202.568
G1 X170.303Y202.383
G1 X170.599Y202.139
G1 X170.844Y201.843
G1 X171.028Y201.503
G1 X171.145Y201.128
G1 X171.185Y200.725
G1 X171.145Y200.322
G1 X171.028Y199.946
G1 X170.844Y199.607
G1 X170.599Y199.311
G1 X170.303Y199.066
G1 X169.964Y198.882
G1 X169.588Y198.765
G1 X169.185Y198.725
G1 X168.782Y198.765
G1 X168.407Y198.882
G1 X168.684Y198.807
G0 X160.589Y201.128
G1 X160.706Y201.503
G1 X160.89Y201.843
G1 X161.134Y202.139
G1 X161.43Y202.383
G1 X161.77Y202.568
G1 X162.145Y202.684
G1 X162.548Y202.725
G1 X162.952Y202.684
G1 X163.327Y202.568
G1 X163.667Y202.383
G1 X163.963Y202.139
G1 X164.207Y201.843
G1 X164.391Y201.503
G1 X164.508Y201.128
G1 X164.548Y200.725
G1 X164.508Y200.322
G1 X164.391Y199.946
G1 X164.207Y199.607
G1 X163.963Y199.311
G1 X163.667Y199.066
G1 X163.327Y198.882
G1 X162.952Y198.765
G1 X162.548Y198.725
G1 X162.145Y198.765
G1 X161.77Y198.882
G1 X161.43Y199.066
G1 X161.134Y199.311
G1 X160.89Y199.607
G1 X160.706Y199.946
G1 X160.589Y200.322
G1 X160.549Y200.725
G1 X160.589Y201.128
G1 X160.706Y201.503
G1 X160.631Y201.227
G0 X155.509Y198.765
G1 X155.133Y198.882
G1 X154.794Y199.066
G1 X154.498Y199.311
G1 X154.253Y199.607
G1 X154.069Y199.946
G1 X153.952Y200.322
G1 X153.912Y200.725
G1 X153.952Y201.128
G1 X154.069Y201.503
G1 X154.253Y201.843
G1 X154.498Y202.139
G1 X154.794Y202.383
G1 X155.133Y202.568
G1 X155.509Y202.684
G1 X155.912Y202.725
G1 X156.315Y202.684
G1 X156.69Y202.568
G1 X157.03Y202.383
G1 X157.326Y202.139
G1 X157.57Y201.843
G1 X157.755Y201.503
G1 X157.871Y201.128
G1 X157.912Y200.725
G1 X157.871Y200.322
G1 X157.755Y199.946
G1 X157.57Y199.607
G1 X157.326Y199.311
G1 X157.03Y199.066
G1 X156.69Y198.882
G1 X156.315Y198.765
G1 X155.912Y198.725
G1 X155.509Y198.765
G1 X155.133Y198.882
G1 X155.41Y198.807
G0 X146.805Y201.28
G1 X146.922Y201.656
G1 X147.106Y201.996
G1 X147.35Y202.292
G1 X147.646Y202.536
G1 X147.986Y202.72
G1 X148.361Y202.837
G1 X148.764Y202.877
G1 X149.167Y202.837
G1 X149.543Y202.72
G1 X149.883Y202.536
G1 X150.178Y202.292
G1 X150.423Y201.996
G1 X150.607Y201.656
G1 X150.724Y201.28
G1 X150.764Y200.877
G1 X150.724Y200.474
G1 X150.607Y200.099
G1 X150.423Y199.759
G1 X150.178Y199.463
G1 X149.883Y199.219
G1 X149.543Y199.034
G1 X149.167Y198.918
G1 X148.764Y198.877
G1 X148.361Y198.918
G1 X147.986Y199.034
G1 X147.646Y199.219
G1 X147.35Y199.463
G1 X147.106Y199.759
G1 X146.922Y200.099
G1 X146.805Y200.474
G1 X146.764Y200.877
G1 X146.805Y201.28
G1 X146.922Y201.656
G1 X146.847Y201.379
G0 X141.725Y198.918
G1 X141.349Y199.034
G1 X141.009Y199.219
G1 X140.713Y199.463
G1 X140.469Y199.759
G1 X140.285Y200.099
G1 X140.168Y200.474
G1 X140.128Y200.877
G1 X140.168Y201.28
G1 X140.285Y201.656
G1 X140.469Y201.996
G1 X140.713Y202.292
G1 X141.009Y202.536
G1 X141.349Y202.72
G1 X141.725Y202.837
G1 X142.128Y202.877
G1 X142.531Y202.837
G1 X142.906Y202.72
G1 X143.246Y202.536
G1 X143.542Y202.292
G1 X143.786Y201.996
G1 X143.97Y201.656
G1 X144.087Y201.28
G1 X144.127Y200.877
G1 X144.087Y200.474
G1 X143.97Y200.099
G1 X143.786Y199.759
G1 X143.542Y199.463
G1 X143.246Y199.219
G1 X142.906Y199.034
G1 X142.531Y198.918
G1 X142.128Y198.877
G1 X141.725Y198.918
G1 X141.349Y199.034
G1 X141.626Y198.959
G0 X144.087Y193.419
G1 X143.97Y193.043
G1 X143.786Y192.703
G1 X143.542Y192.407
G1 X143.246Y192.163
G1 X142.906Y191.979
G1 X142.531Y191.862
G1 X142.128Y191.822
G1 X141.725Y191.862
G1 X141.349Y191.979
G1 X141.009Y192.163
G1 X140.713Y192.407
G1 X140.469Y192.703
G1 X140.285Y193.043
G1 X140.168Y193.419
G1 X140.128Y193.822
G1 X140.168Y194.225
G1 X140.285Y194.6
G1 X140.469Y194.94
G1 X140.713Y195.236
G1 X141.009Y195.48
G1 X141.349Y195.665
G1 X141.725Y195.781
G1 X142.128Y195.822
G1 X142.531Y195.781
G1 X142.906Y195.665
G1 X143.246Y195.48
G1 X143.542Y195.236
G1 X143.786Y194.94
G1 X143.97Y194.6
G1 X144.087Y194.225
G1 X144.127Y193.822
G1 X144.087Y193.419
G1 X143.97Y193.043
G1 X144.045Y193.32
G0 X149.167Y195.781
G1 X149.543Y195.665
G1 X149.883Y195.48
G1 X150.178Y195.236
G1 X150.423Y194.94
G1 X150.607Y194.6
G1 X150.724Y194.225
G1 X150.764Y193.822
G1 X150.724Y193.419
G1 X150.607Y193.043
G1 X150.423Y192.703
G1 X150.178Y192.407
G1 X149.883Y192.163
G1 X149.543Y191.979
G1 X149.167Y191.862
G1 X148.764Y191.822
G1 X148.361Y191.862
G1 X147.986Y191.979
G1 X147.646Y192.163
G1 X147.35Y192.407
G1 X147.106Y192.703
G1 X146.922Y193.043
G1 X146.805Y193.419
G1 X146.764Y193.822
G1 X146.805Y194.225
G1 X146.922Y194.6
G1 X147.106Y194.94
G1 X147.35Y195.236
G1 X147.646Y195.48
G1 X147.986Y195.665
G1 X148.361Y195.781
G1 X148.764Y195.822
G1 X149.167Y195.781
G1 X149.543Y195.665
G1 X149.266Y195.74
G0 X157.871Y193.266
G1 X157.755Y192.891
G1 X157.57Y192.551
G1 X157.326Y192.255
G1 X157.03Y192.011
G1 X156.69Y191.826
G1 X156.315Y191.71
G1 X155.912Y191.669
G1 X155.509Y191.71
G1 X155.133Y191.826
G1 X154.794Y192.011
G1 X154.498Y192.255
G1 X154.253Y192.551
G1 X154.069Y192.891
G1 X153.952Y193.266
G1 X153.912Y193.669
G1 X153.952Y194.073
G1 X154.069Y194.448
G1 X154.253Y194.788
G1 X154.498Y195.084
G1 X154.794Y195.328
G1 X155.133Y195.512
G1 X155.509Y195.629
G1 X155.912Y195.669
G1 X156.315Y195.629
G1 X156.69Y195.512
G1 X157.03Y195.328
G1 X157.326Y195.084
G1 X157.57Y194.788
G1 X157.755Y194.448
G1 X157.871Y194.073
G1 X157.912Y193.669
G1 X157.871Y193.266
G1 X157.755Y192.891
G1 X157.83Y193.168
G0 X162.952Y195.629
G1 X163.327Y195.512
G1 X163.667Y195.328
G1 X163.963Y195.084
G1 X164.207Y194.788
G1 X164.391Y194.448
G1 X164.508Y194.073
G1 X164.548Y193.669
G1 X164.508Y193.266
G1 X164.391Y192.891
G1 X164.207Y192.551
G1 X163.963Y192.255
G1 X163.667Y192.011
G1 X163.327Y191.826
G1 X162.952Y191.71
G1 X162.548Y191.669
G1 X162.145Y191.71
G1 X161.77Y191.826
G1 X161.43Y192.011
G1 X161.134Y192.255
G1 X160.89Y192.551
G1 X160.706Y192.891
G1 X160.589Y193.266
G1 X160.549Y193.669
G1 X160.589Y194.073
G1 X160.706Y194.448
G1 X160.89Y194.788
G1 X161.134Y195.084
G1 X161.43Y195.328
G1 X161.77Y195.512
G1 X162.145Y195.629
G1 X162.548Y195.669
G1 X162.952Y195.629
G1 X163.327Y195.512
G1 X163.05Y195.587
G0 X171.145Y193.266
G1 X171.028Y192.891
G1 X170.844Y192.551
G1 X170.599Y192.255
G1 X170.303Y192.011
G1 X169.964Y191.826
G1 X169.588Y191.71
G1 X169.185Y191.669
G1 X168.782Y191.71
G1 X168.407Y191.826
G1 X168.067Y192.011
G1 X167.771Y192.255
G1 X167.527Y192.551
G1 X167.343Y192.891
G1 X167.226Y193.266
G1 X167.185Y193.669
G1 X167.226Y194.073
G1 X167.343Y194.448
G1 X167.527Y194.788
G1 X167.771Y195.084
G1 X168.067Y195.328
G1 X168.407Y195.512
G1 X168.782Y195.629
G1 X169.185Y195.669
G1 X169.588Y195.629
G1 X169.964Y195.512
G1 X170.303Y195.328
G1 X170.599Y195.084
G1 X170.844Y194.788
G1 X171.028Y194.448
G1 X171.145Y194.073
G1 X171.185Y193.669
G1 X171.145Y193.266
G1 X171.028Y192.891
G1 X171.103Y193.168
G0 X176.225Y195.629
G1 X176.6Y195.512
G1 X176.94Y195.328
G1 X177.236Y195.084
G1 X177.48Y194.788
G1 X177.665Y194.448
G1 X177.781Y194.073
G1 X177.822Y193.669
G1 X177.781Y193.266
G1 X177.665Y192.891
G1 X177.48Y192.551
G1 X177.236Y192.255
G1 X176.94Y192.011
G1 X176.6Y191.826
G1 X176.225Y191.71
G1 X175.822Y191.669
G1 X175.419Y191.71
G1 X175.044Y191.826
G1 X174.704Y192.011
G1 X174.408Y192.255
G1 X174.164Y192.551
G1 X173.979Y192.891
G1 X173.863Y193.266
G1 X173.822Y193.669
G1 X173.863Y194.073
G1 X173.979Y194.448
G1 X174.164Y194.788
G1 X174.408Y195.084
G1 X174.704Y195.328
G1 X175.044Y195.512
G1 X175.419Y195.629
G1 X175.822Y195.669
G1 X176.225Y195.629
G1 X176.6Y195.512
G1 X176.324Y195.587
G0 X184.418Y193.266
G1 X184.301Y192.891
G1 X184.117Y192.551
G1 X183.873Y192.255
G1 X183.577Y192.011
G1 X183.237Y191.826
G1 X182.862Y191.71
G1 X182.459Y191.669
G1 X182.056Y191.71
G1 X181.68Y191.826
G1 X181.341Y192.011
G1 X181.045Y192.255
G1 X180.8Y192.551
G1 X180.616Y192.891
G1 X180.499Y193.266
G1 X180.459Y193.669
G1 X180.499Y194.073
G1 X180.616Y194.448
G1 X180.8Y194.788
G1 X181.045Y195.084
G1 X181.341Y195.328
G1 X181.68Y195.512
G1 X182.056Y195.629
G1 X182.459Y195.669
G1 X182.862Y195.629
G1 X183.237Y195.512
G1 X183.577Y195.328
G1 X183.873Y195.084
G1 X184.117Y194.788
G1 X184.301Y194.448
G1 X184.418Y194.073
G1 X184.459Y193.669
G1 X184.418Y193.266
G1 X184.301Y192.891
G1 X184.377Y193.168
G0 X189.499Y195.629
G1 X189.874Y195.512
G1 X190.214Y195.328
G1 X190.51Y195.084
G1 X190.754Y194.788
G1 X190.938Y194.448
G1 X191.055Y194.073
G1 X191.095Y193.669
G1 X191.055Y193.266
G1 X190.938Y192.891
G1 X190.754Y192.551
G1 X190.51Y192.255
G1 X190.214Y192.011
G1 X189.874Y191.826
G1 X189.499Y191.71
G1 X189.096Y191.669
G1 X188.692Y191.71
G1 X188.317Y191.826
G1 X187.977Y192.011
G1 X187.681Y192.255
G1 X187.437Y192.551
G1 X187.253Y192.891
G1 X187.136Y193.266
G1 X187.096Y193.669
G1 X187.136Y194.073
G1 X187.253Y194.448
G1 X187.437Y194.788
G1 X187.681Y195.084
G1 X187.977Y195.328
G1 X188.317Y195.512
G1 X188.692Y195.629
G1 X189.096Y195.669
G1 X189.499Y195.629
G1 X189.874Y195.512
G1 X189.597Y195.587
G0 X197.692Y193.266
G1 X197.575Y192.891
G1 X197.391Y192.551
G1 X197.146Y192.255
G1 X196.85Y192.011
G1 X196.511Y191.826
G1 X196.135Y191.71
G1 X195.732Y191.669
G1 X195.329Y191.71
G1 X194.954Y191.826
G1 X194.614Y192.011
G1 X194.318Y192.255
G1 X194.074Y192.551
G1 X193.89Y192.891
G1 X193.773Y193.266
G1 X193.732Y193.669
G1 X193.773Y194.073
G1 X193.89Y194.448
G1 X194.074Y194.788
G1 X194.318Y195.084
G1 X194.614Y195.328
G1 X194.954Y195.512
G1 X195.329Y195.629
G1 X195.732Y195.669
G1 X196.135Y195.629
G1 X196.511Y195.512
G1 X196.85Y195.328
G1 X197.146Y195.084
G1 X197.391Y194.788
G1 X197.575Y194.448
G1 X197.692Y194.073
G1 X197.732Y193.669
G1 X197.692Y193.266
G1 X197.575Y192.891
G1 X197.65Y193.168
G0 X202.772Y195.629
G1 X203.147Y195.512
G1 X203.487Y195.328
G1 X203.783Y195.084
G1 X204.027Y194.788
G1 X204.212Y194.448
G1 X204.328Y194.073
G1 X204.369Y193.669
G1 X204.328Y193.266
G1 X204.212Y192.891
G1 X204.027Y192.551
G1 X203.783Y192.255
G1 X203.487Y192.011
G1 X203.147Y191.826
G1 X202.772Y191.71
G1 X202.369Y191.669
G1 X201.966Y191.71
G1 X201.591Y191.826
G1 X201.251Y192.011
G1 X200.955Y192.255
G1 X200.711Y192.551
G1 X200.526Y192.891
G1 X200.41Y193.266
G1 X200.369Y193.669
G1 X200.41Y194.073
G1 X200.526Y194.448
G1 X200.711Y194.788
G1 X200.955Y195.084
G1 X201.251Y195.328
G1 X201.591Y195.512
G1 X201.966Y195.629
G1 X202.369Y195.669
G1 X202.772Y195.629
G1 X203.147Y195.512
G1 X202.871Y195.587
G0 X210.965Y193.266
G1 X210.848Y192.891
G1 X210.664Y192.551
G1 X210.42Y192.255
G1 X210.124Y192.011
G1 X209.784Y191.826
G1 X209.409Y191.71
G1 X209.006Y191.669
G1 X208.603Y191.71
G1 X208.227Y191.826
G1 X207.888Y192.011
G1 X207.592Y192.255
G1 X207.347Y192.551
G1 X207.163Y192.891
G1 X207.046Y193.266
G1 X207.006Y193.669
G1 X207.046Y194.073
G1 X207.163Y194.448
G1 X207.347Y194.788
G1 X207.592Y195.084
G1 X207.888Y195.328
G1 X208.227Y195.512
G1 X208.603Y195.629
G1 X209.006Y195.669
G1 X209.409Y195.629
G1 X209.784Y195.512
G1 X210.124Y195.328
G1 X210.42Y195.084
G1 X210.664Y194.788
G1 X210.848Y194.448
G1 X210.965Y194.073
G1 X211.006Y193.669
G1 X210.965Y193.266
G1 X210.848Y192.891
G1 X210.924Y193.168
G0 X216.046Y195.629
G1 X216.421Y195.512
G1 X216.761Y195.328
G1 X217.057Y195.084
G1 X217.301Y194.788
G1 X217.485Y194.448
G1 X217.602Y194.073
G1 X217.642Y193.669
G1 X217.602Y193.266
G1 X217.485Y192.891
G1 X217.301Y192.551
G1 X217.057Y192.255
G1 X216.761Y192.011
G1 X216.421Y191.826
G1 X216.046Y191.71
G1 X215.643Y191.669
G1 X215.239Y191.71
G1 X214.864Y191.826
G1 X214.524Y192.011
G1 X214.228Y192.255
G1 X213.984Y192.551
G1 X213.8Y192.891
G1 X213.683Y193.266
G1 X213.643Y193.669
G1 X213.683Y194.073
G1 X213.8Y194.448
G1 X213.984Y194.788
G1 X214.228Y195.084
G1 X214.524Y195.328
G1 X214.864Y195.512
G1 X215.239Y195.629
G1 X215.643Y195.669
G1 X216.046Y195.629
G1 X216.421Y195.512
G1 X216.144Y195.587
G0 X224.81Y192.889
G1 X224.693Y192.514
G1 X224.509Y192.174
G1 X224.265Y191.878
G1 X223.969Y191.634
G1 X223.629Y191.449
G1 X223.253Y191.333
G1 X222.85Y191.292
G1 X222.447Y191.333
G1 X222.072Y191.449
G1 X221.732Y191.634
G1 X221.436Y191.878
G1 X221.192Y192.174
G1 X221.008Y192.514
G1 X220.891Y192.889
G1 X220.85Y193.292
G1 X220.891Y193.695
G1 X221.008Y194.071
G1 X221.192Y194.41
G1 X221.436Y194.706
G1 X221.732Y194.951
G1 X222.072Y195.135
G1 X222.447Y195.252
G1 X222.85Y195.292
G1 X223.253Y195.252
G1 X223.629Y195.135
G1 X223.969Y194.951
G1 X224.265Y194.706
G1 X224.509Y194.41
G1 X224.693Y194.071
G1 X224.81Y193.695
G1 X224.85Y193.292
G1 X224.81Y192.889
G1 X224.693Y192.514
G1 X224.768Y192.791
G0 X229.89Y195.252
G1 X230.266Y195.135
G1 X230.605Y194.951
G1 X230.901Y194.706
G1 X231.145Y194.41
G1 X231.33Y194.071
G1 X231.446Y193.695
G1 X231.487Y193.292
G1 X231.446Y192.889
G1 X231.33Y192.514
G1 X231.145Y192.174
G1 X230.901Y191.878
G1 X230.605Y191.634
G1 X230.266Y191.449
G1 X229.89Y191.333
G1 X229.487Y191.292
G1 X229.084Y191.333
G1 X228.709Y191.449
G1 X228.369Y191.634
G1 X228.073Y191.878
G1 X227.829Y192.174
G1 X227.644Y192.514
G1 X227.528Y192.889
G1 X227.487Y193.292
G1 X227.528Y193.695
G1 X227.644Y194.071
G1 X227.829Y194.41
G1 X228.073Y194.706
G1 X228.369Y194.951
G1 X228.709Y195.135
G1 X229.084Y195.252
G1 X229.487Y195.292
G1 X229.89Y195.252
G1 X230.266Y195.135
G1 X229.989Y195.21
G0 X238.083Y192.889
G1 X237.967Y192.514
G1 X237.782Y192.174
G1 X237.538Y191.878
G1 X237.242Y191.634
G1 X236.902Y191.449
G1 X236.527Y191.333
G1 X236.124Y191.292
G1 X235.721Y191.333
G1 X235.345Y191.449
G1 X235.006Y191.634
G1 X234.71Y191.878
G1 X234.466Y192.174
G1 X234.281Y192.514
G1 X234.165Y192.889
G1 X234.124Y193.292
G1 X234.165Y193.695
G1 X234.281Y194.071
G1 X234.466Y194.41
G1 X234.71Y194.706
G1 X235.006Y194.951
G1 X235.345Y195.135
G1 X235.721Y195.252
G1 X236.124Y195.292
G1 X236.527Y195.252
G1 X236.902Y195.135
G1 X237.242Y194.951
G1 X237.538Y194.706
G1 X237.782Y194.41
G1 X237.967Y194.071
G1 X238.083Y193.695
G1 X238.124Y193.292
G1 X238.083Y192.889
G1 X237.967Y192.514
G1 X238.042Y192.791
G0 X243.164Y195.252
G1 X243.539Y195.135
G1 X243.879Y194.951
G1 X244.175Y194.706
G1 X244.419Y194.41
G1 X244.603Y194.071
G1 X244.72Y193.695
G1 X244.761Y193.292
G1 X244.72Y192.889
G1 X244.603Y192.514
G1 X244.419Y192.174
G1 X244.175Y191.878
G1 X243.879Y191.634
G1 X243.539Y191.449
G1 X243.164Y191.333
G1 X242.761Y191.292
G1 X242.358Y191.333
G1 X241.982Y191.449
G1 X241.642Y191.634
G1 X241.346Y191.878
G1 X241.102Y192.174
G1 X240.918Y192.514
G1 X240.801Y192.889
G1 X240.761Y193.292
G1 X240.801Y193.695
G1 X240.918Y194.071
G1 X241.102Y194.41
G1 X241.346Y194.706
G1 X241.642Y194.951
G1 X241.982Y195.135
G1 X242.358Y195.252
G1 X242.761Y195.292
G1 X243.164Y195.252
G1 X243.539Y195.135
G1 X243.262Y195.21
G0 X251.357Y192.889
G1 X251.24Y192.514
G1 X251.056Y192.174
G1 X250.812Y191.878
G1 X250.516Y191.634
G1 X250.176Y191.449
G1 X249.8Y191.333
G1 X249.397Y191.292
G1 X248.994Y191.333
G1 X248.619Y191.449
G1 X248.279Y191.634
G1 X247.983Y191.878
G1 X247.739Y192.174
G1 X247.555Y192.514
G1 X247.438Y192.889
G1 X247.397Y193.292
G1 X247.438Y193.695
G1 X247.555Y194.071
G1 X247.739Y194.41
G1 X247.983Y194.706
G1 X248.279Y194.951
G1 X248.619Y195.135
G1 X248.994Y195.252
G1 X249.397Y195.292
G1 X249.8Y195.252
G1 X250.176Y195.135
G1 X250.516Y194.951
G1 X250.812Y194.706
G1 X251.056Y194.41
G1 X251.24Y194.071
G1 X251.357Y193.695
G1 X251.397Y193.292
G1 X251.357Y192.889
G1 X251.24Y192.514
G1 X251.315Y192.791
G0 X256.437Y195.252
G1 X256.813Y195.135
G1 X257.152Y194.951
G1 X257.448Y194.706
G1 X257.692Y194.41
G1 X257.877Y194.071
G1 X257.993Y193.695
G1 X258.034Y193.292
G1 X257.993Y192.889
G1 X257.877Y192.514
G1 X257.692Y192.174
G1 X257.448Y191.878
G1 X257.152Y191.634
G1 X256.813Y191.449
G1 X256.437Y191.333
G1 X256.034Y191.292
G1 X255.631Y191.333
G1 X255.256Y191.449
G1 X254.916Y191.634
G1 X254.62Y191.878
G1 X254.376Y192.174
G1 X254.191Y192.514
G1 X254.075Y192.889
G1 X254.034Y193.292
G1 X254.075Y193.695
G1 X254.191Y194.071
G1 X254.376Y194.41
G1 X254.62Y194.706
G1 X254.916Y194.951
G1 X255.256Y195.135
G1 X255.631Y195.252
G1 X256.034Y195.292
G1 X256.437Y195.252
G1 X256.813Y195.135
G1 X256.536Y195.21
G0 X264.63Y192.889
G1 X264.514Y192.514
G1 X264.329Y192.174
G1 X264.085Y191.878
G1 X263.789Y191.634
G1 X263.449Y191.449
G1 X263.074Y191.333
G1 X262.671Y191.292
G1 X262.268Y191.333
G1 X261.892Y191.449
G1 X261.553Y191.634
G1 X261.257Y191.878
G1 X261.013Y192.174
G1 X260.828Y192.514
G1 X260.712Y192.889
G1 X260.671Y193.292
G1 X260.712Y193.695
G1 X260.828Y194.071
G1 X261.013Y194.41
G1 X261.257Y194.706
G1 X261.553Y194.951
G1 X261.892Y195.135
G1 X262.268Y195.252
G1 X262.671Y195.292
G1 X263.074Y195.252
G1 X263.449Y195.135
G1 X263.789Y194.951
G1 X264.085Y194.706
G1 X264.329Y194.41
G1 X264.514Y194.071
G1 X264.63Y193.695
G1 X264.671Y193.292
G1 X264.63Y192.889
G1 X264.514Y192.514
G1 X264.589Y192.791
G0 X269.711Y195.252
G1 X270.086Y195.135
G1 X270.426Y194.951
G1 X270.722Y194.706
G1 X270.966Y194.41
G1 X271.15Y194.071
G1 X271.267Y193.695
G1 X271.308Y193.292
G1 X271.267Y192.889
G1 X271.15Y192.514
G1 X270.966Y192.174
G1 X270.722Y191.878
G1 X270.426Y191.634
G1 X270.086Y191.449
G1 X269.711Y191.333
G1 X269.308Y191.292
G1 X268.905Y191.333
G1 X268.529Y191.449
G1 X268.189Y191.634
G1 X267.893Y191.878
G1 X267.649Y192.174
G1 X267.465Y192.514
G1 X267.348Y192.889
G1 X267.308Y193.292
G1 X267.348Y193.695
G1 X267.465Y194.071
G1 X267.649Y194.41
G1 X267.893Y194.706
G1 X268.189Y194.951
G1 X268.529Y195.135
G1 X268.905Y195.252
G1 X269.308Y195.292
G1 X269.711Y195.252
G1 X270.086Y195.135
G1 X269.809Y195.21
G0 X277.904Y192.889
G1 X277.787Y192.514
G1 X277.603Y192.174
G1 X277.359Y191.878
G1 X277.063Y191.634
G1 X276.723Y191.449
G1 X276.347Y191.333
G1 X275.944Y191.292
G1 X275.541Y191.333
G1 X275.166Y191.449
G1 X274.826Y191.634
G1 X274.53Y191.878
G1 X274.286Y192.174
G1 X274.102Y192.514
G1 X273.985Y192.889
G1 X273.944Y193.292
G1 X273.985Y193.695
G1 X274.102Y194.071
G1 X274.286Y194.41
G1 X274.53Y194.706
G1 X274.826Y194.951
G1 X275.166Y195.135
G1 X275.541Y195.252
G1 X275.944Y195.292
G1 X276.347Y195.252
G1 X276.723Y195.135
G1 X277.063Y194.951
G1 X277.359Y194.706
G1 X277.603Y194.41
G1 X277.787Y194.071
G1 X277.904Y193.695
G1 X277.944Y193.292
G1 X277.904Y192.889
G1 X277.787Y192.514
G1 X277.862Y192.791
G0 X282.984Y195.252
G1 X283.36Y195.135
G1 X283.699Y194.951
G1 X283.995Y194.706
G1 X284.239Y194.41
G1 X284.424Y194.071
G1 X284.54Y193.695
G1 X284.581Y193.292
G1 X284.54Y192.889
G1 X284.424Y192.514
G1 X284.239Y192.174
G1 X283.995Y191.878
G1 X283.699Y191.634
G1 X283.36Y191.449
G1 X282.984Y191.333
G1 X282.581Y191.292
G1 X282.178Y191.333
G1 X281.803Y191.449
G1 X281.463Y191.634
G1 X281.167Y191.878
G1 X280.923Y192.174
G1 X280.738Y192.514
G1 X280.622Y192.889
G1 X280.581Y193.292
G1 X280.622Y193.695
G1 X280.738Y194.071
G1 X280.923Y194.41
G1 X281.167Y194.706
G1 X281.463Y194.951
G1 X281.803Y195.135
G1 X282.178Y195.252
G1 X282.581Y195.292
G1 X282.984Y195.252
G1 X283.36Y195.135
G1 X283.083Y195.21
G0 X275.541Y184.277
G1 X275.166Y184.394
G1 X274.826Y184.578
G1 X274.53Y184.822
G1 X274.286Y185.118
G1 X274.102Y185.458
G1 X273.985Y185.834
G1 X273.944Y186.237
G1 X273.985Y186.64
G1 X274.102Y187.015
G1 X274.286Y187.355
G1 X274.53Y187.651
G1 X274.826Y187.895
G1 X275.166Y188.079
G1 X275.541Y188.196
G1 X275.944Y188.237
G1 X276.347Y188.196
G1 X276.723Y188.079
G1 X277.063Y187.895
G1 X277.359Y187.651
G1 X277.603Y187.355
G1 X277.787Y187.015
G1 X277.904Y186.64
G1 X277.944Y186.237
G1 X277.904Y185.834
G1 X277.787Y185.458
G1 X277.603Y185.118
G1 X277.359Y184.822
G1 X277.063Y184.578
G1 X276.723Y184.394
G1 X276.347Y184.277
G1 X275.944Y184.236
G1 X275.541Y184.277
G1 X275.166Y184.394
G1 X275.443Y184.319
G0 X267.348Y186.64
G1 X267.465Y187.015
G1 X267.649Y187.355
G1 X267.893Y187.651
G1 X268.189Y187.895
G1 X268.529Y188.079
G1 X268.905Y188.196
G1 X269.308Y188.237
G1 X269.711Y188.196
G1 X270.086Y188.079
G1 X270.426Y187.895
G1 X270.722Y187.651
G1 X270.966Y187.355
G1 X271.15Y187.015
G1 X271.267Y186.64
G1 X271.308Y186.237
G1 X271.267Y185.834
G1 X271.15Y185.458
G1 X270.966Y185.118
G1 X270.722Y184.822
G1 X270.426Y184.578
G1 X270.086Y184.394
G1 X269.711Y184.277
G1 X269.308Y184.236
G1 X268.905Y184.277
G1 X268.529Y184.394
G1 X268.189Y184.578
G1 X267.893Y184.822
G1 X267.649Y185.118
G1 X267.465Y185.458
G1 X267.348Y185.834
G1 X267.308Y186.237
G1 X267.348Y186.64
G1 X267.465Y187.015
G1 X267.39Y186.738
G0 X262.268Y184.277
G1 X261.892Y184.394
G1 X261.553Y184.578
G1 X261.257Y184.822
G1 X261.013Y185.118
G1 X260.828Y185.458
G1 X260.712Y185.834
G1 X260.671Y186.237
G1 X260.712Y186.64
G1 X260.828Y187.015
G1 X261.013Y187.355
G1 X261.257Y187.651
G1 X261.553Y187.895
G1 X261.892Y188.079
G1 X262.268Y188.196
G1 X262.671Y188.237
G1 X263.074Y188.196
G1 X263.449Y188.079
G1 X263.789Y187.895
G1 X264.085Y187.651
G1 X264.329Y187.355
G1 X264.514Y187.015
G1 X264.63Y186.64
G1 X264.671Y186.237
G1 X264.63Y185.834
G1 X264.514Y185.458
G1 X264.329Y185.118
G1 X264.085Y184.822
G1 X263.789Y184.578
G1 X263.449Y184.394
G1 X263.074Y184.277
G1 X262.671Y184.236
G1 X262.268Y184.277
G1 X261.892Y184.394
G1 X262.169Y184.319
G0 X254.075Y186.64
G1 X254.191Y187.015
G1 X254.376Y187.355
G1 X254.62Y187.651
G1 X254.916Y187.895
G1 X255.256Y188.079
G1 X255.631Y188.196
G1 X256.034Y188.237
G1 X256.437Y188.196
G1 X256.813Y188.079
G1 X257.152Y187.895
G1 X257.448Y187.651
G1 X257.692Y187.355
G1 X257.877Y187.015
G1 X257.993Y186.64
G1 X258.034Y186.237
G1 X257.993Y185.834
G1 X257.877Y185.458
G1 X257.692Y185.118
G1 X257.448Y184.822
G1 X257.152Y184.578
G1 X256.813Y184.394
G1 X256.437Y184.277
G1 X256.034Y184.236
G1 X255.631Y184.277
G1 X255.256Y184.394
G1 X254.916Y184.578
G1 X254.62Y184.822
G1 X254.376Y185.118
G1 X254.191Y185.458
G1 X254.075Y185.834
G1 X254.034Y186.237
G1 X254.075Y186.64
G1 X254.191Y187.015
G1 X254.116Y186.738
G0 X257.993Y178.778
G1 X257.877Y178.403
G1 X257.692Y178.063
G1 X257.448Y177.767
G1 X257.152Y177.523
G1 X256.813Y177.338
G1 X256.437Y177.222
G1 X256.034Y177.181
G1 X255.631Y177.222
G1 X255.256Y177.338
G1 X254.916Y177.523
G1 X254.62Y177.767
G1 X254.376Y178.063
G1 X254.191Y178.403
G1 X254.075Y178.778
G1 X254.034Y179.181
G1 X254.075Y179.584
G1 X254.191Y179.96
G1 X254.376Y180.299
G1 X254.62Y180.595
G1 X254.916Y180.84
G1 X255.256Y181.024
G1 X255.631Y181.14
G1 X256.034Y181.181
G1 X256.437Y181.14
G1 X256.813Y181.024
G1 X257.152Y180.84
G1 X257.448Y180.595
G1 X257.692Y180.299
G1 X257.877Y179.96
G1 X257.993Y179.584
G1 X258.034Y179.181
G1 X257.993Y178.778
G1 X257.877Y178.403
G1 X257.952Y178.68
G0 X282.984Y188.196
G1 X283.36Y188.079
G1 X283.699Y187.895
G1 X283.995Y187.651
G1 X284.239Y187.355
G1 X284.424Y187.015
G1 X284.54Y186.64
G1 X284.581Y186.237
G1 X284.54Y185.834
G1 X284.424Y185.458
G1 X284.239Y185.118
G1 X283.995Y184.822
G1 X283.699Y184.578
G1 X283.36Y184.394
G1 X282.984Y184.277
G1 X282.581Y184.236
G1 X282.178Y184.277
G1 X281.803Y184.394
G1 X281.463Y184.578
G1 X281.167Y184.822
G1 X280.923Y185.118
G1 X280.738Y185.458
G1 X280.622Y185.834
G1 X280.581Y186.237
G1 X280.622Y186.64
G1 X280.738Y187.015
G1 X280.923Y187.355
G1 X281.167Y187.651
G1 X281.463Y187.895
G1 X281.803Y188.079
G1 X282.178Y188.196
G1 X282.581Y188.237
G1 X282.984Y188.196
G1 X283.36Y188.079
G1 X283.083Y188.154
G0 X275.541Y177.222
G1 X275.166Y177.338
G1 X274.826Y177.523
G1 X274.53Y177.767
G1 X274.286Y178.063
G1 X274.102Y178.403
G1 X273.985Y178.778
G1 X273.944Y179.181
G1 X273.985Y179.584
G1 X274.102Y179.96
G1 X274.286Y180.299
G1 X274.53Y180.595
G1 X274.826Y180.84
G1 X275.166Y181.024
G1 X275.541Y181.14
G1 X275.944Y181.181
G1 X276.347Y181.14
G1 X276.723Y181.024
G1 X277.063Y180.84
G1 X277.359Y180.595
G1 X277.603Y180.299
G1 X277.787Y179.96
G1 X277.904Y179.584
G1 X277.944Y179.181
G1 X277.904Y178.778
G1 X277.787Y178.403
G1 X277.603Y178.063
G1 X277.359Y177.767
G1 X277.063Y177.523
G1 X276.723Y177.338
G1 X276.347Y177.222
G1 X275.944Y177.181
G1 X275.541Y177.222
G1 X275.166Y177.338
G1 X275.443Y177.263
G0 X267.348Y179.584
G1 X267.465Y179.96
G1 X267.649Y180.299
G1 X267.893Y180.595
G1 X268.189Y180.84
