; LightBurn 1.7.04
; GRBL device profile, absolute coords
; Bounds: X8.5 Y145.31 to X321.5 Y390.69
G00 G17 G40 G21 G54
G90
M4
; Cut @ 1 mm/sec, 100% power
M8
G0 X106.864Y361.415
; Layer C01
G1 Y355.081S1000F60
G1 X106.886Y354.65
G1 X106.951Y354.231
G1 X107.055Y353.826
G1 X107.198Y353.438
G1 X107.377Y353.068
G1 X107.59Y352.719
G1 X107.834Y352.392
G1 X108.108Y352.091
G1 X108.409Y351.818
G1 X108.735Y351.573
G1 X109.084Y351.361
G1 X109.454Y351.182
G1 X109.842Y351.039
G1 X110.247Y350.934
G1 X110.666Y350.87
G1 X111.097Y350.848
G1 X138.529
G1 X138.96Y350.87
G1 X139.379Y350.934
G1 X139.784Y351.039
G1 X140.172Y351.182
G1 X140.542Y351.361
G1 X140.891Y351.573
G1 X141.218Y351.818
G1 X141.519Y352.091
G1 X141.792Y352.392
G1 X142.037Y352.719
G1 X142.249Y353.068
G1 X142.428Y353.438
G1 X142.571Y353.826
G1 X142.676Y354.231
G1 X142.74Y354.65
G1 X142.762Y355.081
G1 Y361.415
G1 X142.74Y361.846
G1 X142.676Y362.265
G1 X142.571Y362.67
G1 X142.428Y363.058
G1 X142.249Y363.428
G1 X142.037Y363.777
G1 X141.792Y364.103
G1 X141.519Y364.404
G1 X141.218Y364.678
G1 X140.891Y364.922
G1 X140.542Y365.135
G1 X140.172Y365.314
G1 X139.784Y365.457
G1 X139.379Y365.562
G1 X138.96Y365.626
G1 X138.529Y365.648
G1 X111.097
G1 X110.666Y365.626
G1 X110.247Y365.562
G1 X109.842Y365.457
G1 X109.454Y365.314
G1 X109.084Y365.135
G1 X108.735Y364.922
G1 X108.409Y364.678
G1 X108.108Y364.404
G1 X107.834Y364.103
G1 X107.59Y363.777
G1 X107.377Y363.428
G1 X107.198Y363.058
G1 X107.055Y362.67
G1 X106.951Y362.265
G1 X106.886Y361.846
G1 X106.864Y361.415
G1 Y360.915
G0 X148.502Y368.392
G1 X148.724Y368.208
G1 X148.907Y367.986
G1 X149.045Y367.732
G1 X149.133Y367.45
G1 X149.163Y367.148
G1 X149.133Y366.846
G1 X149.045Y366.564
G1 X148.907Y366.309
G1 X148.724Y366.087
G1 X148.502Y365.904
G1 X148.247Y365.766
G1 X147.965Y365.678
G1 X147.663Y365.648
G1 X147.361Y365.678
G1 X147.079Y365.766
G1 X146.825Y365.904
G1 X146.603Y366.087
G1 X146.419Y366.309
G1 X146.281Y366.564
G1 X146.194Y366.846
G1 X146.163Y367.148
G1 X146.194Y367.45
G1 X146.281Y367.732
G1 X146.419Y367.986
G1 X146.603Y368.208
G1 X146.825Y368.392
G1 X147.079Y368.53
G1 X147.361Y368.617
G1 X147.663Y368.648
G1 X147.965Y368.617
G1 X148.247Y368.53
G1 X148.502Y368.392
G1 X148.724Y368.208
G1 X148.652Y368.242
G0 X184.749Y366.309
G1 X184.566Y366.087
G1 X184.344Y365.904
G1 X184.089Y365.766
G1 X183.808Y365.678
G1 X183.505Y365.648
G1 X183.203Y365.678
G1 X182.922Y365.766
G1 X182.667Y365.904
G1 X182.445Y366.087
G1 X182.262Y366.309
G1 X182.123Y366.564
G1 X182.036Y366.846
G1 X182.005Y367.148
G1 X182.036Y367.45
G1 X182.123Y367.732
G1 X182.262Y367.986
G1 X182.445Y368.208
G1 X182.667Y368.392
G1 X182.922Y368.53
G1 X183.203Y368.617
G1 X183.505Y368.648
G1 X183.808Y368.617
G1 X184.089Y368.53
G1 X184.344Y368.392
G1 X184.566Y368.208
G1 X184.749Y367.986
G1 X184.888Y367.732
G1 X184.975Y367.45
G1 X185.005Y367.148
G1 X184.975Y366.846
G1 X184.888Y366.564
G1 X184.749Y366.309
G1 X184.566Y366.087
G1 X184.599Y366.159
G0 X193.023Y350.848
G1 X220.455
G1 X220.886Y350.87
G1 X221.305Y350.934
G1 X221.71Y351.039
G1 X222.098Y351.182
G1 X222.468Y351.361
G1 X222.817Y351.573
G1 X223.143Y351.818
G1 X223.444Y352.091
G1 X223.718Y352.392
G1 X223.962Y352.719
G1 X224.175Y353.068
G1 X224.354Y353.438
G1 X224.497Y353.826
G1 X224.601Y354.231
G1 X224.666Y354.65
G1 X224.688Y355.081
G1 Y361.415
G1 X224.666Y361.846
G1 X224.601Y362.265
G1 X224.497Y362.67
G1 X224.354Y363.058
G1 X224.175Y363.428
G1 X223.962Y363.777
G1 X223.718Y364.103
G1 X223.444Y364.404
G1 X223.143Y364.678
G1 X222.817Y364.922
G1 X222.468Y365.135
G1 X222.098Y365.314
G1 X221.71Y365.457
G1 X221.305Y365.562
G1 X220.886Y365.626
G1 X220.455Y365.648
G1 X193.023
G1 X192.592Y365.626
G1 X192.173Y365.562
G1 X191.768Y365.457
G1 X191.38Y365.314
G1 X191.01Y365.135
G1 X190.661Y364.922
G1 X190.335Y364.678
G1 X190.033Y364.404
G1 X189.76Y364.103
G1 X189.515Y363.777
G1 X189.303Y363.428
G1 X189.124Y363.058
G1 X188.981Y362.67
G1 X188.876Y362.265
G1 X188.812Y361.846
G1 X188.79Y361.415
G1 Y355.081
G1 X188.812Y354.65
G1 X188.876Y354.231
G1 X188.981Y353.826
G1 X189.124Y353.438
G1 X189.303Y353.068
G1 X189.515Y352.719
G1 X189.76Y352.392
G1 X190.033Y352.091
G1 X190.335Y351.818
G1 X190.661Y351.573
G1 X191.01Y351.361
G1 X191.38Y351.182
G1 X191.768Y351.039
G1 X192.173Y350.934
G1 X192.592Y350.87
G1 X193.023Y350.848
G1 X193.523
G0 X263.903Y388.398
G1 X264.279Y388.282
G1 X264.618Y388.097
G1 X264.914Y387.853
G1 X265.159Y387.557
G1 X265.343Y387.218
G1 X265.46Y386.842
G1 X265.5Y386.439
G1 X265.46Y386.036
G1 X265.343Y385.661
G1 X265.159Y385.321
G1 X264.914Y385.025
G1 X264.618Y384.781
G1 X264.279Y384.596
G1 X263.903Y384.48
G1 X263.5Y384.439
G1 X263.097Y384.48
G1 X262.722Y384.596
G1 X262.382Y384.781
G1 X262.086Y385.025
G1 X261.842Y385.321
G1 X261.657Y385.661
G1 X261.541Y386.036
G1 X261.5Y386.439
G1 X261.541Y386.842
G1 X261.657Y387.218
G1 X261.842Y387.557
G1 X262.086Y387.853
G1 X262.382Y388.097
G1 X262.722Y388.282
G1 X263.097Y388.398
G1 X263.5Y388.439
G1 X263.903Y388.398
G1 X264.279Y388.282
G1 X264.002Y388.357
G0 X316.46Y386.036
G1 X316.343Y385.661
G1 X316.159Y385.321
G1 X315.914Y385.025
G1 X315.618Y384.781
G1 X315.279Y384.596
G1 X314.903Y384.48
G1 X314.5Y384.439
G1 X314.097Y384.48
G1 X313.722Y384.596
G1 X313.382Y384.781
G1 X313.086Y385.025
G1 X312.842Y385.321
G1 X312.657Y385.661
G1 X312.541Y386.036
G1 X312.5Y386.439
G1 X312.541Y386.842
G1 X312.657Y387.218
G1 X312.842Y387.557
G1 X313.086Y387.853
G1 X313.382Y388.097
G1 X313.722Y388.282
G1 X314.097Y388.398
G1 X314.5Y388.439
G1 X314.903Y388.398
G1 X315.279Y388.282
G1 X315.618Y388.097
G1 X315.914Y387.853
G1 X316.159Y387.557
G1 X316.343Y387.218
G1 X316.46Y386.842
G1 X316.5Y386.439
G1 X316.46Y386.036
G1 X316.343Y385.661
G1 X316.418Y385.938
G0 X283.828Y357.382
G1 Y347.645
G1 X283.841Y347.387
G1 X283.879Y347.137
G1 X283.942Y346.895
G1 X284.027Y346.662
G1 X284.262Y346.232
G1 X284.571Y345.857
G1 X284.946Y345.548
G1 X285.376Y345.314
G1 X285.608Y345.228
G1 X285.85Y345.166
G1 X286.101Y345.127
G1 X286.359Y345.114
G1 X294.131
G1 X294.389Y345.127
G1 X294.64Y345.166
G1 X294.882Y345.228
G1 X295.114Y345.314
G1 X295.544Y345.548
G1 X295.919Y345.857
G1 X296.229Y346.232
G1 X296.463Y346.662
G1 X296.548Y346.895
G1 X296.611Y347.137
G1 X296.649Y347.387
G1 X296.662Y347.645
G1 Y357.382
G1 X296.649Y357.64
G1 X296.611Y357.891
G1 X296.548Y358.133
G1 X296.463Y358.365
G1 X296.229Y358.795
G1 X295.919Y359.17
G1 X295.544Y359.48
G1 X295.114Y359.714
G1 X294.882Y359.8
G1 X294.64Y359.862
G1 X294.389Y359.901
G1 X294.131Y359.914
G1 X286.359
G1 X286.101Y359.901
G1 X285.85Y359.862
G1 X285.608Y359.8
G1 X285.376Y359.714
G1 X284.946Y359.48
G1 X284.571Y359.17
G1 X284.262Y358.795
G1 X284.027Y358.365
G1 X283.942Y358.133
G1 X283.879Y357.891
G1 X283.841Y357.64
G1 X283.828Y357.382
G1 Y356.882
G0 X280.101Y363.502
G1 X280.284Y363.724
G1 X280.507Y363.908
G1 X280.761Y364.046
G1 X281.043Y364.133
G1 X281.345Y364.164
G1 X281.647Y364.133
G1 X281.929Y364.046
G1 X282.184Y363.908
G1 X282.406Y363.724
G1 X282.589Y363.502
G1 X282.727Y363.248
G1 X282.815Y362.966
G1 X282.845Y362.664
G1 X282.815Y362.362
G1 X282.727Y362.08
G1 X282.589Y361.825
G1 X282.406Y361.603
G1 X282.184Y361.42
G1 X281.929Y361.282
G1 X281.647Y361.194
G1 X281.345Y361.164
G1 X281.043Y361.194
G1 X280.761Y361.282
G1 X280.507Y361.42
G1 X280.284Y361.603
G1 X280.101Y361.825
G1 X279.963Y362.08
G1 X279.876Y362.362
G1 X279.845Y362.664
G1 X279.876Y362.966
G1 X279.963Y363.248
G1 X280.101Y363.502
G1 X280.284Y363.724
G1 X280.251Y363.652
G0 X286.984Y361.42
G1 X286.729Y361.282
G1 X286.447Y361.194
G1 X286.145Y361.164
G1 X285.843Y361.194
G1 X285.561Y361.282
G1 X285.306Y361.42
G1 X285.084Y361.603
G1 X284.901Y361.825
G1 X284.763Y362.08
G1 X284.676Y362.362
G1 X284.645Y362.664
G1 X284.676Y362.966
G1 X284.763Y363.248
G1 X284.901Y363.502
G1 X285.084Y363.724
G1 X285.306Y363.908
G1 X285.561Y364.046
G1 X285.843Y364.133
G1 X286.145Y364.164
G1 X286.447Y364.133
G1 X286.729Y364.046
G1 X286.984Y363.908
G1 X287.206Y363.724
G1 X287.389Y363.502
G1 X287.527Y363.248
G1 X287.615Y362.966
G1 X287.645Y362.664
G1 X287.615Y362.362
G1 X287.527Y362.08
G1 X287.389Y361.825
G1 X287.206Y361.603
G1 X286.984Y361.42
G1 X286.729Y361.282
G1 X286.79Y361.339
G0 X299.984Y363.908
G1 X300.206Y363.724
G1 X300.389Y363.502
G1 X300.527Y363.248
G1 X300.615Y362.966
G1 X300.645Y362.664
G1 X300.615Y362.362
G1 X300.527Y362.08
G1 X300.389Y361.825
G1 X300.206Y361.603
G1 X299.984Y361.42
G1 X299.729Y361.282
G1 X299.447Y361.194
G1 X299.145Y361.164
G1 X298.843Y361.194
G1 X298.561Y361.282
G1 X298.306Y361.42
G1 X298.084Y361.603
G1 X297.901Y361.825
G1 X297.763Y362.08
G1 X297.676Y362.362
G1 X297.645Y362.664
G1 X297.676Y362.966
G1 X297.763Y363.248
G1 X297.901Y363.502
G1 X298.084Y363.724
G1 X298.306Y363.908
G1 X298.561Y364.046
G1 X298.843Y364.133
G1 X299.145Y364.164
G1 X299.447Y364.133
G1 X299.729Y364.046
G1 X299.984Y363.908
G1 X300.206Y363.724
G1 X300.134Y363.758
G0 X297.901Y341.525
G1 X297.763Y341.78
G1 X297.676Y342.062
G1 X297.645Y342.364
G1 X297.676Y342.666
G1 X297.763Y342.948
G1 X297.901Y343.202
G1 X298.084Y343.424
G1 X298.306Y343.608
G1 X298.561Y343.746
G1 X298.843Y343.833
G1 X299.145Y343.864
G1 X299.447Y343.833
G1 X299.729Y343.746
G1 X299.984Y343.608
G1 X300.206Y343.424
G1 X300.389Y343.202
G1 X300.527Y342.948
G1 X300.615Y342.666
G1 X300.645Y342.364
G1 X300.615Y342.062
G1 X300.527Y341.78
G1 X300.389Y341.525
G1 X300.206Y341.303
G1 X299.984Y341.12
G1 X299.729Y340.982
G1 X299.447Y340.894
G1 X299.145Y340.864
G1 X298.843Y340.894
G1 X298.561Y340.982
G1 X298.306Y341.12
G1 X298.084Y341.303
G1 X297.901Y341.525
G1 X297.763Y341.78
G1 X297.82Y341.719
G0 X285.306Y343.608
G1 X285.561Y343.746
G1 X285.843Y343.833
G1 X286.145Y343.864
G1 X286.447Y343.833
G1 X286.729Y343.746
G1 X286.984Y343.608
G1 X287.206Y343.424
G1 X287.389Y343.202
G1 X287.527Y342.948
G1 X287.615Y342.666
G1 X287.645Y342.364
G1 X287.615Y342.062
G1 X287.527Y341.78
G1 X287.389Y341.525
G1 X287.206Y341.303
G1 X286.984Y341.12
G1 X286.729Y340.982
G1 X286.447Y340.894
G1 X286.145Y340.864
G1 X285.843Y340.894
G1 X285.561Y340.982
G1 X285.306Y341.12
G1 X285.084Y341.303
G1 X284.901Y341.525
G1 X284.763Y341.78
G1 X284.676Y342.062
G1 X284.645Y342.364
G1 X284.676Y342.666
G1 X284.763Y342.948
G1 X284.901Y343.202
G1 X285.084Y343.424
G1 X285.306Y343.608
G1 X285.561Y343.746
G1 X285.5Y343.689
G0 X280.507Y341.12
G1 X280.284Y341.303
G1 X280.101Y341.525
G1 X279.963Y341.78
G1 X279.876Y342.062
G1 X279.845Y342.364
G1 X279.876Y342.666
G1 X279.963Y342.948
G1 X280.101Y343.202
G1 X280.284Y343.424
G1 X280.507Y343.608
G1 X280.761Y343.746
G1 X281.043Y343.833
G1 X281.345Y343.864
G1 X281.647Y343.833
G1 X281.929Y343.746
G1 X282.184Y343.608
G1 X282.406Y343.424
G1 X282.589Y343.202
G1 X282.727Y342.948
G1 X282.815Y342.666
G1 X282.845Y342.364
G1 X282.815Y342.062
G1 X282.727Y341.78
G1 X282.589Y341.525
G1 X282.406Y341.303
G1 X282.184Y341.12
G1 X281.929Y340.982
G1 X281.647Y340.894
G1 X281.345Y340.864
G1 X281.043Y340.894
G1 X280.761Y340.982
G1 X280.507Y341.12
G1 X280.284Y341.303
G1 X280.356Y341.27
G0 X227.962Y367.986
G1 X228.145Y368.208
G1 X228.367Y368.392
G1 X228.622Y368.53
G1 X228.903Y368.617
G1 X229.205Y368.648
G1 X229.508Y368.617
G1 X229.789Y368.53
G1 X230.044Y368.392
G1 X230.266Y368.208
G1 X230.449Y367.986
G1 X230.588Y367.732
G1 X230.675Y367.45
G1 X230.705Y367.148
G1 X230.675Y366.846
G1 X230.588Y366.564
G1 X230.449Y366.309
G1 X230.266Y366.087
G1 X230.044Y365.904
G1 X229.789Y365.766
G1 X229.508Y365.678
G1 X229.205Y365.648
G1 X228.903Y365.678
G1 X228.622Y365.766
G1 X228.367Y365.904
G1 X228.145Y366.087
G1 X227.962Y366.309
G1 X227.823Y366.564
G1 X227.736Y366.846
G1 X227.705Y367.148
G1 X227.736Y367.45
G1 X227.823Y367.732
G1 X227.962Y367.986
G1 X228.145Y368.208
G1 X228.112Y368.137
G0 X230.449Y348.509
G1 X230.266Y348.287
G1 X230.044Y348.104
G1 X229.789Y347.966
G1 X229.508Y347.878
G1 X229.205Y347.848
G1 X228.903Y347.878
G1 X228.622Y347.966
G1 X228.367Y348.104
G1 X228.145Y348.287
G1 X227.962Y348.509
G1 X227.823Y348.764
G1 X227.736Y349.046
G1 X227.705Y349.348
G1 X227.736Y349.65
G1 X227.823Y349.932
G1 X227.962Y350.186
G1 X228.145Y350.409
G1 X228.367Y350.592
G1 X228.622Y350.73
G1 X228.903Y350.817
G1 X229.205Y350.848
G1 X229.508Y350.817
G1 X229.789Y350.73
G1 X230.044Y350.592
G1 X230.266Y350.409
G1 X230.449Y350.186
G1 X230.588Y349.932
G1 X230.675Y349.65
G1 X230.705Y349.348
G1 X230.675Y349.046
G1 X230.588Y348.764
G1 X230.449Y348.509
G1 X230.266Y348.287
G1 X230.299Y348.359
G0 X250.315Y322.996
G1 Y288.783
G1 X250.275Y287.993
G1 X250.156Y287.224
G1 X249.964Y286.482
G1 X249.702Y285.77
G1 X249.375Y285.092
G1 X248.985Y284.452
G1 X248.537Y283.854
G1 X248.035Y283.302
G1 X247.483Y282.801
G1 X246.885Y282.353
G1 X246.246Y281.963
G1 X245.568Y281.635
G1 X244.855Y281.373
G1 X244.113Y281.181
G1 X243.345Y281.063
G1 X242.554Y281.023
G1 X222.177
G1 X221.387Y281.063
G1 X220.618Y281.181
G1 X219.876Y281.373
G1 X219.164Y281.635
G1 X218.486Y281.963
G1 X217.846Y282.353
G1 X217.248Y282.801
G1 X216.696Y283.302
G1 X216.195Y283.854
G1 X215.747Y284.452
G1 X215.357Y285.092
G1 X215.029Y285.77
G1 X214.767Y286.482
G1 X214.575Y287.224
G1 X214.457Y287.993
G1 X214.417Y288.783
G1 Y322.996
G1 X214.457Y323.786
G1 X214.575Y324.555
G1 X214.767Y325.297
G1 X215.029Y326.009
G1 X215.357Y326.687
G1 X215.747Y327.327
G1 X216.195Y327.925
G1 X216.696Y328.477
G1 X217.248Y328.979
G1 X217.846Y329.426
G1 X218.486Y329.816
G1 X219.164Y330.144
G1 X219.876Y330.406
G1 X220.618Y330.598
G1 X221.387Y330.716
G1 X222.177Y330.756
G1 X242.554
G1 X243.345Y330.716
G1 X244.113Y330.598
G1 X244.855Y330.406
G1 X245.568Y330.144
G1 X246.246Y329.816
G1 X246.885Y329.426
G1 X247.483Y328.979
G1 X248.035Y328.477
G1 X248.537Y327.925
G1 X248.985Y327.327
G1 X249.375Y326.687
G1 X249.702Y326.009
G1 X249.964Y325.297
G1 X250.156Y324.555
G1 X250.275Y323.786
G1 X250.315Y322.996
G1 Y322.496
G0 X258.11Y276.051
G1 X257.926Y275.829
G1 X257.704Y275.646
G1 X257.45Y275.507
G1 X257.168Y275.42
G1 X256.866Y275.389
G1 X256.563Y275.42
G1 X256.282Y275.507
G1 X256.027Y275.646
G1 X255.805Y275.829
G1 X255.622Y276.051
G1 X255.484Y276.306
G1 X255.396Y276.587
G1 X255.366Y276.89
G1 X255.396Y277.192
G1 X255.484Y277.473
G1 X255.622Y277.728
G1 X255.805Y277.95
G1 X256.027Y278.133
G1 X256.282Y278.272
G1 X256.563Y278.359
G1 X256.866Y278.39
G1 X257.168Y278.359
G1 X257.45Y278.272
G1 X257.704Y278.133
G1 X257.926Y277.95
G1 X258.11Y277.728
G1 X258.248Y277.473
G1 X258.335Y277.192
G1 X258.366Y276.89
G1 X258.335Y276.587
G1 X258.248Y276.306
G1 X258.11Y276.051
G1 X257.926Y275.829
G1 X257.959Y275.901
G0 X296.662Y304.983
G1 Y314.72
G1 X296.649Y314.978
G1 X296.611Y315.229
G1 X296.548Y315.471
G1 X296.463Y315.703
G1 X296.229Y316.133
G1 X295.919Y316.508
G1 X295.544Y316.818
G1 X295.114Y317.052
G1 X294.882Y317.137
G1 X294.64Y317.2
G1 X294.389Y317.239
G1 X294.131Y317.252
G1 X286.359
G1 X286.101Y317.239
G1 X285.85Y317.2
G1 X285.608Y317.137
G1 X285.376Y317.052
G1 X284.946Y316.818
G1 X284.571Y316.508
G1 X284.262Y316.133
G1 X284.027Y315.703
G1 X283.942Y315.471
G1 X283.879Y315.229
G1 X283.841Y314.978
G1 X283.828Y314.72
G1 Y304.983
G1 X283.841Y304.725
G1 X283.879Y304.474
G1 X283.942Y304.232
G1 X284.027Y304
G1 X284.262Y303.57
G1 X284.571Y303.195
G1 X284.946Y302.885
G1 X285.376Y302.651
G1 X285.608Y302.566
G1 X285.85Y302.503
G1 X286.101Y302.465
G1 X286.359Y302.452
G1 X294.131
G1 X294.389Y302.465
G1 X294.64Y302.503
G1 X294.882Y302.566
G1 X295.114Y302.651
G1 X295.544Y302.885
G1 X295.919Y303.195
G1 X296.229Y303.57
G1 X296.463Y304
G1 X296.548Y304.232
G1 X296.611Y304.474
G1 X296.649Y304.725
G1 X296.662Y304.983
G1 Y305.483
G0 X280.101Y320.84
G1 X280.284Y321.062
G1 X280.507Y321.245
G1 X280.761Y321.384
G1 X281.043Y321.471
G1 X281.345Y321.502
G1 X281.647Y321.471
G1 X281.929Y321.384
G1 X282.184Y321.245
G1 X282.406Y321.062
G1 X282.589Y320.84
G1 X282.727Y320.585
G1 X282.815Y320.304
G1 X282.845Y320.002
G1 X282.815Y319.699
G1 X282.727Y319.418
G1 X282.589Y319.163
G1 X282.406Y318.941
G1 X282.184Y318.758
G1 X281.929Y318.619
G1 X281.647Y318.532
G1 X281.345Y318.502
G1 X281.043Y318.532
G1 X280.761Y318.619
G1 X280.507Y318.758
G1 X280.284Y318.941
G1 X280.101Y319.163
G1 X279.963Y319.418
G1 X279.876Y319.699
G1 X279.845Y320.002
G1 X279.876Y320.304
G1 X279.963Y320.585
G1 X280.101Y320.84
G1 X280.284Y321.062
G1 X280.251Y320.99
G0 X286.984Y318.758
G1 X286.729Y318.619
G1 X286.447Y318.532
G1 X286.145Y318.502
G1 X285.843Y318.532
G1 X285.561Y318.619
G1 X285.306Y318.758
G1 X285.084Y318.941
G1 X284.901Y319.163
G1 X284.763Y319.418
G1 X284.676Y319.699
G1 X284.645Y320.002
G1 X284.676Y320.304
G1 X284.763Y320.585
G1 X284.901Y320.84
G1 X285.084Y321.062
G1 X285.306Y321.245
G1 X285.561Y321.384
G1 X285.843Y321.471
G1 X286.145Y321.502
G1 X286.447Y321.471
G1 X286.729Y321.384
G1 X286.984Y321.245
G1 X287.206Y321.062
G1 X287.389Y320.84
G1 X287.527Y320.585
G1 X287.615Y320.304
G1 X287.645Y320.002
G1 X287.615Y319.699
G1 X287.527Y319.418
G1 X287.389Y319.163
G1 X287.206Y318.941
G1 X286.984Y318.758
G1 X286.729Y318.619
G1 X286.79Y318.676
G0 X299.984Y321.245
G1 X300.206Y321.062
G1 X300.389Y320.84
G1 X300.527Y320.585
G1 X300.615Y320.304
G1 X300.645Y320.002
G1 X300.615Y319.699
G1 X300.527Y319.418
G1 X300.389Y319.163
G1 X300.206Y318.941
G1 X299.984Y318.758
G1 X299.729Y318.619
G1 X299.447Y318.532
G1 X299.145Y318.502
G1 X298.843Y318.532
G1 X298.561Y318.619
G1 X298.306Y318.758
G1 X298.084Y318.941
G1 X297.901Y319.163
G1 X297.763Y319.418
G1 X297.676Y319.699
G1 X297.645Y320.002
G1 X297.676Y320.304
G1 X297.763Y320.585
G1 X297.901Y320.84
G1 X298.084Y321.062
G1 X298.306Y321.245
G1 X298.561Y321.384
G1 X298.843Y321.471
G1 X299.145Y321.502
G1 X299.447Y321.471
G1 X299.729Y321.384
G1 X299.984Y321.245
G1 X300.206Y321.062
G1 X300.134Y321.095
G0 X255.622Y335.728
G1 X255.805Y335.95
G1 X256.027Y336.133
G1 X256.282Y336.272
G1 X256.563Y336.359
G1 X256.866Y336.39
G1 X257.168Y336.359
G1 X257.45Y336.272
G1 X257.704Y336.133
G1 X257.926Y335.95
G1 X258.11Y335.728
G1 X258.248Y335.473
G1 X258.335Y335.192
G1 X258.366Y334.889
G1 X258.335Y334.587
G1 X258.248Y334.306
G1 X258.11Y334.051
G1 X257.926Y333.829
G1 X257.704Y333.646
G1 X257.45Y333.507
G1 X257.168Y333.42
G1 X256.866Y333.389
G1 X256.563Y333.42
G1 X256.282Y333.507
G1 X256.027Y333.646
G1 X255.805Y333.829
G1 X255.622Y334.051
G1 X255.484Y334.306
G1 X255.396Y334.587
G1 X255.366Y334.889
G1 X255.396Y335.192
G1 X255.484Y335.473
G1 X255.622Y335.728
G1 X255.805Y335.95
G1 X255.772Y335.878
G0 X207.027Y333.646
G1 X206.805Y333.829
G1 X206.622Y334.051
G1 X206.484Y334.306
G1 X206.396Y334.587
G1 X206.366Y334.889
G1 X206.396Y335.192
G1 X206.484Y335.473
G1 X206.622Y335.728
G1 X206.805Y335.95
G1 X207.027Y336.133
G1 X207.282Y336.272
G1 X207.563Y336.359
G1 X207.866Y336.39
G1 X208.168Y336.359
G1 X208.45Y336.272
G1 X208.704Y336.133
G1 X208.926Y335.95
G1 X209.11Y335.728
G1 X209.248Y335.473
G1 X209.335Y335.192
G1 X209.366Y334.889
G1 X209.335Y334.587
G1 X209.248Y334.306
G1 X209.11Y334.051
G1 X208.926Y333.829
G1 X208.704Y333.646
G1 X208.45Y333.507
G1 X208.168Y333.42
G1 X207.866Y333.389
G1 X207.563Y333.42
G1 X207.282Y333.507
G1 X207.027Y333.646
G1 X206.805Y333.829
G1 X206.877Y333.796
G0 X182.262Y350.186
G1 X182.445Y350.409
G1 X182.667Y350.592
G1 X182.922Y350.73
G1 X183.203Y350.817
G1 X183.505Y350.848
G1 X183.808Y350.817
G1 X184.089Y350.73
G1 X184.344Y350.592
G1 X184.566Y350.409
G1 X184.749Y350.186
G1 X184.888Y349.932
G1 X184.975Y349.65
G1 X185.005Y349.348
G1 X184.975Y349.046
G1 X184.888Y348.764
G1 X184.749Y348.509
G1 X184.566Y348.287
G1 X184.344Y348.104
G1 X184.089Y347.966
G1 X183.808Y347.878
G1 X183.505Y347.848
G1 X183.203Y347.878
G1 X182.922Y347.966
G1 X182.667Y348.104
G1 X182.445Y348.287
G1 X182.262Y348.509
G1 X182.123Y348.764
G1 X182.036Y349.046
G1 X182.005Y349.348
G1 X182.036Y349.65
G1 X182.123Y349.932
G1 X182.262Y350.186
G1 X182.445Y350.409
G1 X182.412Y350.337
G0 X146.825Y348.104
G1 X146.603Y348.287
G1 X146.419Y348.509
G1 X146.281Y348.764
G1 X146.194Y349.046
G1 X146.163Y349.348
G1 X146.194Y349.65
G1 X146.281Y349.932
G1 X146.419Y350.186
G1 X146.603Y350.409
G1 X146.825Y350.592
G1 X147.079Y350.73
G1 X147.361Y350.817
G1 X147.663Y350.848
G1 X147.965Y350.817
G1 X148.247Y350.73
G1 X148.502Y350.592
G1 X148.724Y350.409
G1 X148.907Y350.186
G1 X149.045Y349.932
G1 X149.133Y349.65
G1 X149.163Y349.348
G1 X149.133Y349.046
G1 X149.045Y348.764
G1 X148.907Y348.509
G1 X148.724Y348.287
G1 X148.502Y348.104
G1 X148.247Y347.966
G1 X147.965Y347.878
G1 X147.663Y347.848
G1 X147.361Y347.878
G1 X147.079Y347.966
G1 X146.825Y348.104
G1 X146.603Y348.287
G1 X146.675Y348.254
G0 X100.719Y367.986
G1 X100.903Y368.208
G1 X101.125Y368.392
G1 X101.379Y368.53
G1 X101.661Y368.617
G1 X101.963Y368.648
G1 X102.265Y368.617
G1 X102.547Y368.53
G1 X102.802Y368.392
G1 X103.024Y368.208
G1 X103.207Y367.986
G1 X103.345Y367.732
G1 X103.433Y367.45
G1 X103.463Y367.148
G1 X103.433Y366.846
G1 X103.345Y366.564
G1 X103.207Y366.309
G1 X103.024Y366.087
G1 X102.802Y365.904
G1 X102.547Y365.766
G1 X102.265Y365.678
G1 X101.963Y365.648
G1 X101.661Y365.678
G1 X101.379Y365.766
G1 X101.125Y365.904
G1 X100.903Y366.087
G1 X100.719Y366.309
G1 X100.581Y366.564
G1 X100.494Y366.846
G1 X100.463Y367.148
G1 X100.494Y367.45
G1 X100.581Y367.732
G1 X100.719Y367.986
G1 X100.903Y368.208
G1 X100.869Y368.137
G0 X54.49Y359.065
G1 Y325.558
G1 X54.532Y324.735
G1 X54.655Y323.935
G1 X54.855Y323.161
G1 X55.128Y322.42
G1 X55.47Y321.714
G1 X55.876Y321.047
G1 X56.342Y320.424
G1 X56.865Y319.85
G1 X57.439Y319.327
G1 X58.062Y318.861
G1 X58.728Y318.455
G1 X59.435Y318.113
G1 X60.176Y317.84
G1 X60.949Y317.64
G1 X61.75Y317.517
G1 X62.573Y317.475
G1 X85.4
G1 X86.224Y317.517
G1 X87.024Y317.64
G1 X87.797Y317.84
G1 X88.539Y318.113
G1 X89.245Y318.455
G1 X89.911Y318.861
G1 X90.534Y319.327
G1 X91.109Y319.85
G1 X91.631Y320.424
G1 X92.098Y321.047
G1 X92.504Y321.714
G1 X92.845Y322.42
G1 X93.118Y323.161
G1 X93.318Y323.935
G1 X93.441Y324.735
G1 X93.483Y325.558
G1 Y359.065
G1 X93.441Y359.888
G1 X93.318Y360.689
G1 X93.118Y361.462
G1 X92.845Y362.203
G1 X92.504Y362.91
G1 X92.098Y363.576
G1 X91.631Y364.199
G1 X91.109Y364.774
G1 X90.534Y365.296
G1 X89.911Y365.763
G1 X89.245Y366.169
G1 X88.539Y366.51
G1 X87.797Y366.783
G1 X87.024Y366.983
G1 X86.224Y367.106
G1 X85.4Y367.148
G1 X62.573
G1 X61.75Y367.106
G1 X60.949Y366.983
G1 X60.176Y366.783
G1 X59.435Y366.51
G1 X58.728Y366.169
G1 X58.062Y365.763
G1 X57.439Y365.296
G1 X56.865Y364.774
G1 X56.342Y364.199
G1 X55.876Y363.576
G1 X55.47Y362.91
G1 X55.128Y362.203
G1 X54.855Y361.462
G1 X54.655Y360.689
G1 X54.532Y359.888
G1 X54.49Y359.065
G1 Y358.565
G0 X20.427Y331.218
G1 X20.025Y331.238
G1 X19.635Y331.298
G1 X19.258Y331.396
G1 X18.897Y331.529
G1 X18.552Y331.696
G1 X18.227Y331.894
G1 X17.924Y332.121
G1 X17.643Y332.376
G1 X17.388Y332.656
G1 X17.161Y332.96
G1 X16.963Y333.285
G1 X16.796Y333.629
G1 X16.663Y333.991
G1 X16.566Y334.368
G1 X16.506Y334.758
G1 X16.485Y335.16
G1 Y369.61
G1 X16.506Y370.011
G1 X16.566Y370.402
G1 X16.663Y370.779
G1 X16.796Y371.14
G1 X16.963Y371.485
G1 X17.161Y371.81
G1 X17.388Y372.113
G1 X17.643Y372.393
G1 X17.924Y372.648
G1 X18.227Y372.876
G1 X18.552Y373.074
G1 X18.897Y373.24
G1 X19.258Y373.373
G1 X19.635Y373.471
G1 X20.025Y373.531
G1 X20.427Y373.551
G1 X20.828Y373.531
G1 X21.219Y373.471
G1 X21.596Y373.373
G1 X21.957Y373.24
G1 X22.302Y373.074
G1 X22.627Y372.876
G1 X22.93Y372.648
G1 X23.211Y372.393
G1 X23.466Y372.113
G1 X23.693Y371.81
G1 X23.891Y371.485
G1 X24.058Y371.14
G1 X24.191Y370.779
G1 X24.288Y370.402
G1 X24.348Y370.011
G1 X24.369Y369.61
G1 Y335.16
G1 X24.348Y334.758
G1 X24.288Y334.368
G1 X24.191Y333.991
G1 X24.058Y333.629
G1 X23.891Y333.285
G1 X23.693Y332.96
G1 X23.466Y332.656
G1 X23.211Y332.376
G1 X22.93Y332.121
G1 X22.627Y331.894
G1 X22.302Y331.696
G1 X21.957Y331.529
G1 X21.596Y331.396
G1 X21.219Y331.298
G1 X20.828Y331.238
G1 X20.427Y331.218
G1 X20.025Y331.238
G1 X20.33Y331.228
G0 X13.541Y386.842
G1 X13.657Y387.218
G1 X13.842Y387.557
G1 X14.086Y387.853
G1 X14.382Y388.097
G1 X14.722Y388.282
G1 X15.097Y388.398
G1 X15.5Y388.439
G1 X15.903Y388.398
G1 X16.279Y388.282
G1 X16.618Y388.097
G1 X16.914Y387.853
G1 X17.159Y387.557
G1 X17.343Y387.218
G1 X17.459Y386.842
G1 X17.5Y386.439
G1 X17.459Y386.036
G1 X17.343Y385.661
G1 X17.159Y385.321
G1 X16.914Y385.025
G1 X16.618Y384.781
G1 X16.279Y384.596
G1 X15.903Y384.48
G1 X15.5Y384.439
G1 X15.097Y384.48
G1 X14.722Y384.596
G1 X14.382Y384.781
G1 X14.086Y385.025
G1 X13.842Y385.321
G1 X13.657Y385.661
G1 X13.541Y386.036
G1 X13.5Y386.439
G1 X13.541Y386.842
G1 X13.657Y387.218
G1 X13.582Y386.941
G0 X45.535Y369.61
G1 Y335.16
G1 X45.515Y334.758
G1 X45.455Y334.368
G1 X45.357Y333.991
G1 X45.224Y333.629
G1 X45.058Y333.285
G1 X44.86Y332.96
G1 X44.632Y332.656
G1 X44.377Y332.376
G1 X44.097Y332.121
G1 X43.793Y331.894
G1 X43.468Y331.696
G1 X43.124Y331.529
G1 X42.762Y331.396
G1 X42.385Y331.298
G1 X41.995Y331.238
G1 X41.594Y331.218
G1 X41.192Y331.238
G1 X40.802Y331.298
G1 X40.425Y331.396
G1 X40.063Y331.529
G1 X39.719Y331.696
G1 X39.394Y331.894
G1 X39.09Y332.121
G1 X38.81Y332.376
G1 X38.555Y332.656
G1 X38.328Y332.96
G1 X38.13Y333.285
G1 X37.963Y333.629
G1 X37.83Y333.991
G1 X37.733Y334.368
G1 X37.673Y334.758
G1 X37.652Y335.16
G1 Y369.61
G1 X37.673Y370.011
G1 X37.733Y370.402
G1 X37.83Y370.779
G1 X37.963Y371.14
G1 X38.13Y371.485
G1 X38.328Y371.81
G1 X38.555Y372.113
G1 X38.81Y372.393
G1 X39.09Y372.648
G1 X39.394Y372.876
G1 X39.719Y373.074
G1 X40.063Y373.24
G1 X40.425Y373.373
G1 X40.802Y373.471
G1 X41.192Y373.531
G1 X41.594Y373.551
G1 X41.995Y373.531
G1 X42.385Y373.471
G1 X42.762Y373.373
G1 X43.124Y373.24
G1 X43.468Y373.074
G1 X43.793Y372.876
G1 X44.097Y372.648
G1 X44.377Y372.393
G1 X44.632Y372.113
G1 X44.86Y371.81
G1 X45.058Y371.485
G1 X45.224Y371.14
G1 X45.357Y370.779
G1 X45.455Y370.402
G1 X45.515Y370.011
G1 X45.535Y369.61
G1 Y369.11
G0 X66.903Y388.398
G1 X67.279Y388.282
G1 X67.618Y388.097
G1 X67.914Y387.853
G1 X68.159Y387.557
G1 X68.343Y387.218
G1 X68.46Y386.842
G1 X68.5Y386.439
G1 X68.46Y386.036
G1 X68.343Y385.661
G1 X68.159Y385.321
G1 X67.914Y385.025
G1 X67.618Y384.781
G1 X67.279Y384.596
G1 X66.903Y384.48
G1 X66.5Y384.439
G1 X66.097Y384.48
G1 X65.722Y384.596
G1 X65.382Y384.781
G1 X65.086Y385.025
G1 X64.842Y385.321
G1 X64.657Y385.661
G1 X64.541Y386.036
G1 X64.5Y386.439
G1 X64.541Y386.842
G1 X64.657Y387.218
G1 X64.842Y387.557
G1 X65.086Y387.853
G1 X65.382Y388.097
G1 X65.722Y388.282
G1 X66.097Y388.398
G1 X66.5Y388.439
G1 X66.903Y388.398
G1 X67.279Y388.282
G1 X67.002Y388.357
G0 X103.207Y348.509
G1 X103.024Y348.287
G1 X102.802Y348.104
G1 X102.547Y347.966
G1 X102.265Y347.878
G1 X101.963Y347.848
G1 X101.661Y347.878
G1 X101.379Y347.966
G1 X101.125Y348.104
G1 X100.903Y348.287
G1 X100.719Y348.509
G1 X100.581Y348.764
G1 X100.494Y349.046
G1 X100.463Y349.348
G1 X100.494Y349.65
G1 X100.581Y349.932
G1 X100.719Y350.186
G1 X100.903Y350.409
G1 X101.125Y350.592
G1 X101.379Y350.73
G1 X101.661Y350.817
G1 X101.963Y350.848
G1 X102.265Y350.817
G1 X102.547Y350.73
G1 X102.802Y350.592
G1 X103.024Y350.409
G1 X103.207Y350.186
G1 X103.345Y349.932
G1 X103.433Y349.65
G1 X103.463Y349.348
G1 X103.433Y349.046
G1 X103.345Y348.764
G1 X103.207Y348.509
G1 X103.024Y348.287
G1 X103.057Y348.359
G0 X16.485Y314.978
G1 Y280.528
G1 X16.506Y280.127
G1 X16.566Y279.736
G1 X16.663Y279.359
G1 X16.796Y278.998
G1 X16.963Y278.653
G1 X17.161Y278.328
G1 X17.388Y278.025
G1 X17.643Y277.745
G1 X17.924Y277.49
G1 X18.227Y277.262
G1 X18.552Y277.064
G1 X18.897Y276.898
G1 X19.258Y276.765
G1 X19.635Y276.667
G1 X20.025Y276.607
G1 X20.427Y276.587
G1 X20.828Y276.607
G1 X21.219Y276.667
G1 X21.596Y276.765
G1 X21.957Y276.898
G1 X22.302Y277.064
G1 X22.627Y277.262
G1 X22.93Y277.49
G1 X23.211Y277.745
G1 X23.466Y278.025
G1 X23.693Y278.328
G1 X23.891Y278.653
G1 X24.058Y278.998
G1 X24.191Y279.359
G1 X24.288Y279.736
G1 X24.348Y280.127
G1 X24.369Y280.528
G1 Y314.978
G1 X24.348Y315.38
G1 X24.288Y315.77
G1 X24.191Y316.147
G1 X24.058Y316.509
G1 X23.891Y316.853
G1 X23.693Y317.178
G1 X23.466Y317.482
G1 X23.211Y317.762
G1 X22.93Y318.017
G1 X22.627Y318.244
G1 X22.302Y318.442
G1 X21.957Y318.609
G1 X21.596Y318.742
G1 X21.219Y318.84
G1 X20.828Y318.9
G1 X20.427Y318.92
G1 X20.025Y318.9
G1 X19.635Y318.84
G1 X19.258Y318.742
G1 X18.897Y318.609
G1 X18.552Y318.442
G1 X18.227Y318.244
G1 X17.924Y318.017
G1 X17.643Y317.762
G1 X17.388Y317.482
G1 X17.161Y317.178
G1 X16.963Y316.853
G1 X16.796Y316.509
G1 X16.663Y316.147
G1 X16.566Y315.77
G1 X16.506Y315.38
G1 X16.485Y314.978
G1 Y314.478
G0 X24.369Y260.347
G1 Y225.897
G1 X24.348Y225.495
G1 X24.288Y225.105
G1 X24.191Y224.728
G1 X24.058Y224.366
G1 X23.891Y224.022
G1 X23.693Y223.697
G1 X23.466Y223.393
G1 X23.211Y223.113
G1 X22.93Y222.858
G1 X22.627Y222.631
G1 X22.302Y222.433
G1 X21.957Y222.266
G1 X21.596Y222.133
G1 X21.219Y222.036
G1 X20.828Y221.976
G1 X20.427Y221.955
G1 X20.025Y221.976
G1 X19.635Y222.036
G1 X19.258Y222.133
G1 X18.897Y222.266
G1 X18.552Y222.433
G1 X18.227Y222.631
G1 X17.924Y222.858
G1 X17.643Y223.113
G1 X17.388Y223.393
G1 X17.161Y223.697
G1 X16.963Y224.022
G1 X16.796Y224.366
G1 X16.663Y224.728
G1 X16.566Y225.105
G1 X16.506Y225.495
G1 X16.485Y225.897
G1 Y260.347
G1 X16.506Y260.749
G1 X16.566Y261.139
G1 X16.663Y261.516
G1 X16.796Y261.878
G1 X16.963Y262.222
G1 X17.161Y262.547
G1 X17.388Y262.851
G1 X17.643Y263.131
G1 X17.924Y263.386
G1 X18.227Y263.613
G1 X18.552Y263.811
G1 X18.897Y263.978
G1 X19.258Y264.111
G1 X19.635Y264.208
G1 X20.025Y264.268
G1 X20.427Y264.289
G1 X20.828Y264.268
G1 X21.219Y264.208
G1 X21.596Y264.111
G1 X21.957Y263.978
G1 X22.302Y263.811
G1 X22.627Y263.613
G1 X22.93Y263.386
G1 X23.211Y263.131
G1 X23.466Y262.851
G1 X23.693Y262.547
G1 X23.891Y262.222
G1 X24.058Y261.878
G1 X24.191Y261.516
G1 X24.288Y261.139
G1 X24.348Y260.749
G1 X24.369Y260.347
G1 Y259.847
G0 X20.427Y167.324
G1 X20.025Y167.344
G1 X19.635Y167.404
G1 X19.258Y167.502
G1 X18.897Y167.635
G1 X18.552Y167.801
G1 X18.227Y167.999
G1 X17.924Y168.227
G1 X17.643Y168.482
G1 X17.388Y168.762
G1 X17.161Y169.066
G1 X16.963Y169.391
G1 X16.796Y169.735
G1 X16.663Y170.097
G1 X16.566Y170.474
G1 X16.506Y170.864
G1 X16.485Y171.266
G1 Y205.716
G1 X16.506Y206.117
G1 X16.566Y206.507
G1 X16.663Y206.884
G1 X16.796Y207.246
G1 X16.963Y207.59
G1 X17.161Y207.915
G1 X17.388Y208.219
G1 X17.643Y208.499
G1 X17.924Y208.754
G1 X18.227Y208.982
G1 X18.552Y209.18
G1 X18.897Y209.346
G1 X19.258Y209.479
G1 X19.635Y209.577
G1 X20.025Y209.637
G1 X20.427Y209.657
G1 X20.828Y209.637
G1 X21.219Y209.577
G1 X21.596Y209.479
G1 X21.957Y209.346
G1 X22.302Y209.18
G1 X22.627Y208.982
G1 X22.93Y208.754
G1 X23.211Y208.499
G1 X23.466Y208.219
G1 X23.693Y207.915
G1 X23.891Y207.59
G1 X24.058Y207.246
G1 X24.191Y206.884
G1 X24.288Y206.507
G1 X24.348Y206.117
G1 X24.369Y205.716
G1 Y171.266
G1 X24.348Y170.864
G1 X24.288Y170.474
G1 X24.191Y170.097
G1 X24.058Y169.735
G1 X23.891Y169.391
G1 X23.693Y169.066
G1 X23.466Y168.762
G1 X23.211Y168.482
G1 X22.93Y168.227
G1 X22.627Y167.999
G1 X22.302Y167.801
G1 X21.957Y167.635
G1 X21.596Y167.502
G1 X21.219Y167.404
G1 X20.828Y167.344
G1 X20.427Y167.324
G1 X20.025Y167.344
G1 X20.33Y167.334
G0 X41.594Y318.92
G1 X41.995Y318.9
G1 X42.385Y318.84
G1 X42.762Y318.742
G1 X43.124Y318.609
G1 X43.468Y318.442
G1 X43.793Y318.244
G1 X44.097Y318.017
G1 X44.377Y317.762
G1 X44.632Y317.482
G1 X44.86Y317.178
G1 X45.058Y316.853
G1 X45.224Y316.509
G1 X45.357Y316.147
G1 X45.455Y315.77
G1 X45.515Y315.38
G1 X45.535Y314.978
G1 Y280.528
G1 X45.515Y280.127
G1 X45.455Y279.736
G1 X45.357Y279.359
G1 X45.224Y278.998
G1 X45.058Y278.653
G1 X44.86Y278.328
G1 X44.632Y278.025
G1 X44.377Y277.745
G1 X44.097Y277.49
G1 X43.793Y277.262
G1 X43.468Y277.064
G1 X43.124Y276.898
G1 X42.762Y276.765
G1 X42.385Y276.667
G1 X41.995Y276.607
G1 X41.594Y276.587
G1 X41.192Y276.607
G1 X40.802Y276.667
G1 X40.425Y276.765
G1 X40.063Y276.898
G1 X39.719Y277.064
G1 X39.394Y277.262
G1 X39.09Y277.49
G1 X38.81Y277.745
G1 X38.555Y278.025
G1 X38.328Y278.328
G1 X38.13Y278.653
G1 X37.963Y278.998
G1 X37.83Y279.359
G1 X37.733Y279.736
G1 X37.673Y280.127
G1 X37.652Y280.528
G1 Y314.978
G1 X37.673Y315.38
G1 X37.733Y315.77
G1 X37.83Y316.147
G1 X37.963Y316.509
G1 X38.13Y316.853
G1 X38.328Y317.178
G1 X38.555Y317.482
G1 X38.81Y317.762
G1 X39.09Y318.017
G1 X39.394Y318.244
G1 X39.719Y318.442
G1 X40.063Y318.609
G1 X40.425Y318.742
G1 X40.802Y318.84
G1 X41.192Y318.9
G1 X41.594Y318.92
G1 X41.995Y318.9
G1 X41.691Y318.91
G0 X45.535Y260.347
G1 Y225.897
G1 X45.515Y225.495
G1 X45.455Y225.105
G1 X45.357Y224.728
G1 X45.224Y224.366
G1 X45.058Y224.022
G1 X44.86Y223.697
G1 X44.632Y223.393
G1 X44.377Y223.113
G1 X44.097Y222.858
G1 X43.793Y222.631
G1 X43.468Y222.433
G1 X43.124Y222.266
G1 X42.762Y222.133
G1 X42.385Y222.036
G1 X41.995Y221.976
G1 X41.594Y221.955
G1 X41.192Y221.976
G1 X40.802Y222.036
G1 X40.425Y222.133
G1 X40.063Y222.266
G1 X39.719Y222.433
G1 X39.394Y222.631
G1 X39.09Y222.858
G1 X38.81Y223.113
G1 X38.555Y223.393
G1 X38.328Y223.697
G1 X38.13Y224.022
G1 X37.963Y224.366
G1 X37.83Y224.728
G1 X37.733Y225.105
G1 X37.673Y225.495
G1 X37.652Y225.897
G1 Y260.347
G1 X37.673Y260.749
G1 X37.733Y261.139
G1 X37.83Y261.516
G1 X37.963Y261.878
G1 X38.13Y262.222
G1 X38.328Y262.547
G1 X38.555Y262.851
G1 X38.81Y263.131
G1 X39.09Y263.386
G1 X39.394Y263.613
G1 X39.719Y263.811
G1 X40.063Y263.978
G1 X40.425Y264.111
G1 X40.802Y264.208
G1 X41.192Y264.268
G1 X41.594Y264.289
G1 X41.995Y264.268
G1 X42.385Y264.208
G1 X42.762Y264.111
G1 X43.124Y263.978
G1 X43.468Y263.811
G1 X43.793Y263.613
G1 X44.097Y263.386
G1 X44.377Y263.131
G1 X44.632Y262.851
G1 X44.86Y262.547
G1 X45.058Y262.222
G1 X45.224Y261.878
G1 X45.357Y261.516
G1 X45.455Y261.139
G1 X45.515Y260.749
G1 X45.535Y260.347
G1 Y259.847
G0 X138.529Y333.775
G1 X138.96Y333.753
G1 X139.379Y333.689
G1 X139.784Y333.584
G1 X140.172Y333.441
G1 X140.542Y333.262
G1 X140.891Y333.05
G1 X141.218Y332.806
G1 X141.519Y332.532
G1 X141.792Y332.231
G1 X142.037Y331.905
G1 X142.249Y331.556
G1 X142.428Y331.186
G1 X142.571Y330.797
G1 X142.676Y330.392
G1 X142.74Y329.973
G1 X142.762Y329.542
G1 Y323.209
G1 X142.74Y322.777
G1 X142.676Y322.358
G1 X142.571Y321.953
G1 X142.428Y321.565
G1 X142.249Y321.195
G1 X142.037Y320.846
G1 X141.792Y320.52
G1 X141.519Y320.219
G1 X141.218Y319.945
G1 X140.891Y319.701
G1 X140.542Y319.488
G1 X140.172Y319.309
G1 X139.784Y319.166
G1 X139.379Y319.062
G1 X138.96Y318.997
G1 X138.529Y318.975
G1 X111.097
G1 X110.666Y318.997
G1 X110.247Y319.062
G1 X109.842Y319.166
G1 X109.454Y319.309
G1 X109.084Y319.488
G1 X108.735Y319.701
G1 X108.409Y319.945
G1 X108.108Y320.219
G1 X107.834Y320.52
G1 X107.59Y320.846
G1 X107.377Y321.195
G1 X107.198Y321.565
G1 X107.055Y321.953
G1 X106.951Y322.358
G1 X106.886Y322.777
G1 X106.864Y323.209
G1 Y329.542
G1 X106.886Y329.973
G1 X106.951Y330.392
G1 X107.055Y330.797
G1 X107.198Y331.186
G1 X107.377Y331.556
G1 X107.59Y331.905
G1 X107.834Y332.231
G1 X108.108Y332.532
G1 X108.409Y332.806
G1 X108.735Y333.05
G1 X109.084Y333.262
G1 X109.454Y333.441
G1 X109.842Y333.584
G1 X110.247Y333.689
G1 X110.666Y333.753
G1 X111.097Y333.775
G1 X138.529
G1 X138.96Y333.753
G1 X138.597Y333.768
G0 X192.824Y337.715
G1 X193.199Y337.599
G1 X193.539Y337.414
G1 X193.835Y337.17
G1 X194.079Y336.874
G1 X194.263Y336.534
G1 X194.38Y336.159
G1 X194.42Y335.756
G1 X194.38Y335.353
G1 X194.263Y334.977
G1 X194.079Y334.638
G1 X193.835Y334.342
G1 X193.539Y334.098
G1 X193.199Y333.913
G1 X192.824Y333.797
G1 X192.421Y333.756
G1 X192.017Y333.797
G1 X191.642Y333.913
G1 X191.302Y334.098
G1 X191.006Y334.342
G1 X190.762Y334.638
G1 X190.577Y334.977
G1 X190.461Y335.353
G1 X190.42Y335.756
G1 X190.461Y336.159
G1 X190.577Y336.534
G1 X190.762Y336.874
G1 X191.006Y337.17
G1 X191.302Y337.414
G1 X191.642Y337.599
G1 X192.017Y337.715
G1 X192.421Y337.756
G1 X192.824Y337.715
G1 X193.199Y337.599
G1 X192.922Y337.674
G0 X184.962Y333.797
G1 X184.586Y333.913
G1 X184.247Y334.098
G1 X183.951Y334.342
G1 X183.706Y334.638
G1 X183.522Y334.977
G1 X183.405Y335.353
G1 X183.365Y335.756
G1 X183.405Y336.159
G1 X183.522Y336.534
G1 X183.706Y336.874
G1 X183.951Y337.17
G1 X184.247Y337.414
G1 X184.586Y337.599
G1 X184.962Y337.715
G1 X185.365Y337.756
G1 X185.768Y337.715
G1 X186.143Y337.599
G1 X186.483Y337.414
G1 X186.779Y337.17
G1 X187.023Y336.874
G1 X187.208Y336.534
G1 X187.324Y336.159
G1 X187.365Y335.756
G1 X187.324Y335.353
G1 X187.208Y334.977
G1 X187.023Y334.638
G1 X186.779Y334.342
G1 X186.483Y334.098
G1 X186.143Y333.913
G1 X185.768Y333.797
G1 X185.365Y333.756
G1 X184.962Y333.797
G1 X184.586Y333.913
G1 X184.863Y333.838
G0 X176.35Y336.159
G1 X176.466Y336.534
G1 X176.651Y336.874
G1 X176.895Y337.17
G1 X177.191Y337.414
G1 X177.531Y337.599
G1 X177.906Y337.715
G1 X178.309Y337.756
G1 X178.712Y337.715
G1 X179.088Y337.599
G1 X179.428Y337.414
G1 X179.724Y337.17
G1 X179.968Y336.874
G1 X180.152Y336.534
G1 X180.269Y336.159
G1 X180.309Y335.756
G1 X180.269Y335.353
G1 X180.152Y334.977
G1 X179.968Y334.638
G1 X179.724Y334.342
G1 X179.428Y334.098
G1 X179.088Y333.913
G1 X178.712Y333.797
G1 X178.309Y333.756
G1 X177.906Y333.797
G1 X177.531Y333.913
G1 X177.191Y334.098
G1 X176.895Y334.342
G1 X176.651Y334.638
G1 X176.466Y334.977
G1 X176.35Y335.353
G1 X176.309Y335.756
G1 X176.35Y336.159
G1 X176.466Y336.534
G1 X176.391Y336.258
G0 X170.851Y333.797
G1 X170.475Y333.913
G1 X170.136Y334.098
G1 X169.84Y334.342
G1 X169.595Y334.638
G1 X169.411Y334.977
G1 X169.294Y335.353
G1 X169.254Y335.756
G1 X169.294Y336.159
G1 X169.411Y336.534
G1 X169.595Y336.874
G1 X169.84Y337.17
G1 X170.136Y337.414
G1 X170.475Y337.599
G1 X170.851Y337.715
G1 X171.254Y337.756
G1 X171.657Y337.715
G1 X172.032Y337.599
G1 X172.372Y337.414
G1 X172.668Y337.17
G1 X172.912Y336.874
G1 X173.097Y336.534
G1 X173.213Y336.159
G1 X173.254Y335.756
G1 X173.213Y335.353
G1 X173.097Y334.977
G1 X172.912Y334.638
G1 X172.668Y334.342
G1 X172.372Y334.098
G1 X172.032Y333.913
G1 X171.657Y333.797
G1 X171.254Y333.756
G1 X170.851Y333.797
G1 X170.475Y333.913
G1 X170.752Y333.838
G0 X173.213Y328.716
G1 X173.097Y328.341
G1 X172.912Y328.001
G1 X172.668Y327.705
G1 X172.372Y327.461
G1 X172.032Y327.276
G1 X171.657Y327.16
G1 X171.254Y327.119
G1 X170.851Y327.16
G1 X170.475Y327.276
G1 X170.136Y327.461
G1 X169.84Y327.705
G1 X169.595Y328.001
G1 X169.411Y328.341
G1 X169.294Y328.716
G1 X169.254Y329.119
G1 X169.294Y329.522
G1 X169.411Y329.898
G1 X169.595Y330.237
G1 X169.84Y330.533
G1 X170.136Y330.778
G1 X170.475Y330.962
G1 X170.851Y331.078
G1 X171.254Y331.119
G1 X171.657Y331.078
G1 X172.032Y330.962
G1 X172.372Y330.778
G1 X172.668Y330.533
G1 X172.912Y330.237
G1 X173.097Y329.898
G1 X173.213Y329.522
G1 X173.254Y329.119
G1 X173.213Y328.716
G1 X173.097Y328.341
G1 X173.172Y328.618
G0 X178.712Y331.078
G1 X179.088Y330.962
G1 X179.428Y330.778
G1 X179.724Y330.533
G1 X179.968Y330.237
G1 X180.152Y329.898
G1 X180.269Y329.522
G1 X180.309Y329.119
G1 X180.269Y328.716
G1 X180.152Y328.341
G1 X179.968Y328.001
G1 X179.724Y327.705
G1 X179.428Y327.461
G1 X179.088Y327.276
G1 X178.712Y327.16
G1 X178.309Y327.119
G1 X177.906Y327.16
G1 X177.531Y327.276
G1 X177.191Y327.461
G1 X176.895Y327.705
G1 X176.651Y328.001
G1 X176.466Y328.341
G1 X176.35Y328.716
G1 X176.309Y329.119
G1 X176.35Y329.522
G1 X176.466Y329.898
G1 X176.651Y330.237
G1 X176.895Y330.533
G1 X177.191Y330.778
G1 X177.531Y330.962
G1 X177.906Y331.078
G1 X178.309Y331.119
G1 X178.712Y331.078
G1 X179.088Y330.962
G1 X178.811Y331.037
G0 X187.324Y328.716
G1 X187.208Y328.341
G1 X187.023Y328.001
G1 X186.779Y327.705
G1 X186.483Y327.461
G1 X186.143Y327.276
G1 X185.768Y327.16
G1 X185.365Y327.119
G1 X184.962Y327.16
G1 X184.586Y327.276
G1 X184.247Y327.461
G1 X183.951Y327.705
G1 X183.706Y328.001
G1 X183.522Y328.341
G1 X183.405Y328.716
G1 X183.365Y329.119
G1 X183.405Y329.522
G1 X183.522Y329.898
G1 X183.706Y330.237
G1 X183.951Y330.533
G1 X184.247Y330.778
G1 X184.586Y330.962
G1 X184.962Y331.078
G1 X185.365Y331.119
G1 X185.768Y331.078
G1 X186.143Y330.962
G1 X186.483Y330.778
G1 X186.779Y330.533
G1 X187.023Y330.237
G1 X187.208Y329.898
G1 X187.324Y329.522
G1 X187.365Y329.119
G1 X187.324Y328.716
G1 X187.208Y328.341
G1 X187.283Y328.618
G0 X192.824Y331.078
G1 X193.199Y330.962
G1 X193.539Y330.778
G1 X193.835Y330.533
G1 X194.079Y330.237
G1 X194.263Y329.898
G1 X194.38Y329.522
G1 X194.42Y329.119
G1 X194.38Y328.716
G1 X194.263Y328.341
G1 X194.079Y328.001
G1 X193.835Y327.705
G1 X193.539Y327.461
G1 X193.199Y327.276
G1 X192.824Y327.16
G1 X192.421Y327.119
G1 X192.017Y327.16
G1 X191.642Y327.276
G1 X191.302Y327.461
G1 X191.006Y327.705
G1 X190.762Y328.001
G1 X190.577Y328.341
G1 X190.461Y328.716
G1 X190.42Y329.119
G1 X190.461Y329.522
G1 X190.577Y329.898
G1 X190.762Y330.237
G1 X191.006Y330.533
G1 X191.302Y330.778
G1 X191.642Y330.962
G1 X192.017Y331.078
G1 X192.421Y331.119
G1 X192.824Y331.078
G1 X193.199Y330.962
G1 X192.922Y331.037
G0 X184.962Y320.523
G1 X184.586Y320.64
G1 X184.247Y320.824
G1 X183.951Y321.068
G1 X183.706Y321.364
G1 X183.522Y321.704
G1 X183.405Y322.079
G1 X183.365Y322.482
G1 X183.405Y322.885
G1 X183.522Y323.261
G1 X183.706Y323.601
G1 X183.951Y323.897
G1 X184.247Y324.141
G1 X184.586Y324.325
G1 X184.962Y324.442
G1 X185.365Y324.482
G1 X185.768Y324.442
G1 X186.143Y324.325
G1 X186.483Y324.141
G1 X186.779Y323.897
G1 X187.023Y323.601
G1 X187.208Y323.261
G1 X187.324Y322.885
G1 X187.365Y322.482
G1 X187.324Y322.079
G1 X187.208Y321.704
G1 X187.023Y321.364
G1 X186.779Y321.068
G1 X186.483Y320.824
G1 X186.143Y320.64
G1 X185.768Y320.523
G1 X185.365Y320.482
G1 X184.962Y320.523
G1 X184.586Y320.64
G1 X184.863Y320.565
G0 X176.35Y322.885
G1 X176.466Y323.261
G1 X176.651Y323.601
G1 X176.895Y323.897
G1 X177.191Y324.141
G1 X177.531Y324.325
G1 X177.906Y324.442
G1 X178.309Y324.482
G1 X178.712Y324.442
G1 X179.088Y324.325
G1 X179.428Y324.141
G1 X179.724Y323.897
G1 X179.968Y323.601
G1 X180.152Y323.261
G1 X180.269Y322.885
G1 X180.309Y322.482
G1 X180.269Y322.079
G1 X180.152Y321.704
G1 X179.968Y321.364
G1 X179.724Y321.068
G1 X179.428Y320.824
G1 X179.088Y320.64
G1 X178.712Y320.523
G1 X178.309Y320.482
G1 X177.906Y320.523
G1 X177.531Y320.64
G1 X177.191Y320.824
G1 X176.895Y321.068
G1 X176.651Y321.364
G1 X176.466Y321.704
G1 X176.35Y322.079
G1 X176.309Y322.482
G1 X176.35Y322.885
G1 X176.466Y323.261
G1 X176.391Y322.984
G0 X170.851Y320.523
G1 X170.475Y320.64
G1 X170.136Y320.824
G1 X169.84Y321.068
G1 X169.595Y321.364
G1 X169.411Y321.704
G1 X169.294Y322.079
G1 X169.254Y322.482
G1 X169.294Y322.885
G1 X169.411Y323.261
G1 X169.595Y323.601
G1 X169.84Y323.897
G1 X170.136Y324.141
G1 X170.475Y324.325
G1 X170.851Y324.442
G1 X171.254Y324.482
G1 X171.657Y324.442
G1 X172.032Y324.325
G1 X172.372Y324.141
G1 X172.668Y323.897
G1 X172.912Y323.601
G1 X173.097Y323.261
G1 X173.213Y322.885
G1 X173.254Y322.482
G1 X173.213Y322.079
G1 X173.097Y321.704
G1 X172.912Y321.364
G1 X172.668Y321.068
G1 X172.372Y320.824
G1 X172.032Y320.64
G1 X171.657Y320.523
G1 X171.254Y320.482
G1 X170.851Y320.523
G1 X170.475Y320.64
G1 X170.752Y320.565
G0 X173.213Y315.443
G1 X173.097Y315.067
G1 X172.912Y314.727
G1 X172.668Y314.431
G1 X172.372Y314.187
G1 X172.032Y314.003
G1 X171.657Y313.886
G1 X171.254Y313.846
G1 X170.851Y313.886
G1 X170.475Y314.003
G1 X170.136Y314.187
G1 X169.84Y314.431
G1 X169.595Y314.727
G1 X169.411Y315.067
G1 X169.294Y315.443
G1 X169.254Y315.846
G1 X169.294Y316.249
G1 X169.411Y316.624
G1 X169.595Y316.964
G1 X169.84Y317.26
G1 X170.136Y317.504
G1 X170.475Y317.688
G1 X170.851Y317.805
G1 X171.254Y317.846
G1 X171.657Y317.805
G1 X172.032Y317.688
G1 X172.372Y317.504
G1 X172.668Y317.26
G1 X172.912Y316.964
G1 X173.097Y316.624
G1 X173.213Y316.249
G1 X173.254Y315.846
G1 X173.213Y315.443
G1 X173.097Y315.067
G1 X173.172Y315.344
G0 X178.712Y317.805
G1 X179.088Y317.688
G1 X179.428Y317.504
G1 X179.724Y317.26
G1 X179.968Y316.964
G1 X180.152Y316.624
G1 X180.269Y316.249
G1 X180.309Y315.846
G1 X180.269Y315.443
G1 X180.152Y315.067
G1 X179.968Y314.727
G1 X179.724Y314.431
G1 X179.428Y314.187
G1 X179.088Y314.003
G1 X178.712Y313.886
G1 X178.309Y313.846
G1 X177.906Y313.886
G1 X177.531Y314.003
G1 X177.191Y314.187
G1 X176.895Y314.431
G1 X176.651Y314.727
G1 X176.466Y315.067
G1 X176.35Y315.443
G1 X176.309Y315.846
G1 X176.35Y316.249
G1 X176.466Y316.624
G1 X176.651Y316.964
G1 X176.895Y317.26
G1 X177.191Y317.504
G1 X177.531Y317.688
G1 X177.906Y317.805
G1 X178.309Y317.846
G1 X178.712Y317.805
G1 X179.088Y317.688
G1 X178.811Y317.763
G0 X192.824Y324.442
G1 X193.199Y324.325
G1 X193.539Y324.141
G1 X193.835Y323.897
G1 X194.079Y323.601
G1 X194.263Y323.261
G1 X194.38Y322.885
G1 X194.42Y322.482
G1 X194.38Y322.079
G1 X194.263Y321.704
G1 X194.079Y321.364
G1 X193.835Y321.068
G1 X193.539Y320.824
G1 X193.199Y320.64
G1 X192.824Y320.523
G1 X192.421Y320.482
G1 X192.017Y320.523
G1 X191.642Y320.64
G1 X191.302Y320.824
G1 X191.006Y321.068
G1 X190.762Y321.364
G1 X190.577Y321.704
G1 X190.461Y322.079
G1 X190.42Y322.482
G1 X190.461Y322.885
G1 X190.577Y323.261
G1 X190.762Y323.601
G1 X191.006Y323.897
G1 X191.302Y324.141
G1 X191.642Y324.325
G1 X192.017Y324.442
G1 X192.421Y324.482
G1 X192.824Y324.442
G1 X193.199Y324.325
G1 X192.922Y324.4
G0 X184.962Y313.886
G1 X184.586Y314.003
G1 X184.247Y314.187
G1 X183.951Y314.431
G1 X183.706Y314.727
G1 X183.522Y315.067
G1 X183.405Y315.443
G1 X183.365Y315.846
G1 X183.405Y316.249
G1 X183.522Y316.624
G1 X183.706Y316.964
G1 X183.951Y317.26
G1 X184.247Y317.504
G1 X184.586Y317.688
G1 X184.962Y317.805
G1 X185.365Y317.846
G1 X185.768Y317.805
G1 X186.143Y317.688
G1 X186.483Y317.504
G1 X186.779Y317.26
G1 X187.023Y316.964
G1 X187.208Y316.624
G1 X187.324Y316.249
G1 X187.365Y315.846
G1 X187.324Y315.443
G1 X187.208Y315.067
G1 X187.023Y314.727
G1 X186.779Y314.431
G1 X186.483Y314.187
G1 X186.143Y314.003
G1 X185.768Y313.886
G1 X185.365Y313.846
G1 X184.962Y313.886
G1 X184.586Y314.003
G1 X184.863Y313.928
G0 X192.824Y317.805
G1 X193.199Y317.688
G1 X193.539Y317.504
G1 X193.835Y317.26
G1 X194.079Y316.964
G1 X194.263Y316.624
G1 X194.38Y316.249
G1 X194.42Y315.846
G1 X194.38Y315.443
G1 X194.263Y315.067
G1 X194.079Y314.727
G1 X193.835Y314.431
G1 X193.539Y314.187
G1 X193.199Y314.003
G1 X192.824Y313.886
G1 X192.421Y313.846
G1 X192.017Y313.886
G1 X191.642Y314.003
G1 X191.302Y314.187
G1 X191.006Y314.431
G1 X190.762Y314.727
G1 X190.577Y315.067
G1 X190.461Y315.443
G1 X190.42Y315.846
G1 X190.461Y316.249
G1 X190.577Y316.624
G1 X190.762Y316.964
G1 X191.006Y317.26
G1 X191.302Y317.504
G1 X191.642Y317.688
G1 X192.017Y317.805
G1 X192.421Y317.846
G1 X192.824Y317.805
G1 X193.199Y317.688
G1 X192.922Y317.763
G0 X184.962Y307.25
G1 X184.586Y307.366
G1 X184.247Y307.551
G1 X183.951Y307.795
G1 X183.706Y308.091
G1 X183.522Y308.43
G1 X183.405Y308.806
G1 X183.365Y309.209
G1 X183.405Y309.612
G1 X183.522Y309.987
G1 X183.706Y310.327
G1 X183.951Y310.623
G1 X184.247Y310.867
G1 X184.586Y311.052
G1 X184.962Y311.168
G1 X185.365Y311.209
G1 X185.768Y311.168
G1 X186.143Y311.052
G1 X186.483Y310.867
G1 X186.779Y310.623
G1 X187.023Y310.327
G1 X187.208Y309.987
G1 X187.324Y309.612
G1 X187.365Y309.209
G1 X187.324Y308.806
G1 X187.208Y308.43
G1 X187.023Y308.091
G1 X186.779Y307.795
G1 X186.483Y307.551
G1 X186.143Y307.366
G1 X185.768Y307.25
G1 X185.365Y307.209
G1 X184.962Y307.25
G1 X184.586Y307.366
G1 X184.863Y307.291
G0 X176.35Y309.612
G1 X176.466Y309.987
G1 X176.651Y310.327
G1 X176.895Y310.623
G1 X177.191Y310.867
G1 X177.531Y311.052
G1 X177.906Y311.168
G1 X178.309Y311.209
G1 X178.712Y311.168
G1 X179.088Y311.052
G1 X179.428Y310.867
G1 X179.724Y310.623
G1 X179.968Y310.327
G1 X180.152Y309.987
G1 X180.269Y309.612
G1 X180.309Y309.209
G1 X180.269Y308.806
G1 X180.152Y308.43
G1 X179.968Y308.091
G1 X179.724Y307.795
G1 X179.428Y307.551
G1 X179.088Y307.366
G1 X178.712Y307.25
G1 X178.309Y307.209
G1 X177.906Y307.25
G1 X177.531Y307.366
G1 X177.191Y307.551
G1 X176.895Y307.795
G1 X176.651Y308.091
G1 X176.466Y308.43
G1 X176.35Y308.806
G1 X176.309Y309.209
G1 X176.35Y309.612
G1 X176.466Y309.987
G1 X176.391Y309.711
G0 X170.851Y307.25
G1 X170.475Y307.366
G1 X170.136Y307.551
G1 X169.84Y307.795
G1 X169.595Y308.091
G1 X169.411Y308.43
G1 X169.294Y308.806
G1 X169.254Y309.209
G1 X169.294Y309.612
G1 X169.411Y309.987
G1 X169.595Y310.327
G1 X169.84Y310.623
G1 X170.136Y310.867
G1 X170.475Y311.052
G1 X170.851Y311.168
G1 X171.254Y311.209
G1 X171.657Y311.168
G1 X172.032Y311.052
G1 X172.372Y310.867
G1 X172.668Y310.623
G1 X172.912Y310.327
G1 X173.097Y309.987
G1 X173.213Y309.612
G1 X173.254Y309.209
G1 X173.213Y308.806
G1 X173.097Y308.43
G1 X172.912Y308.091
G1 X172.668Y307.795
G1 X172.372Y307.551
G1 X172.032Y307.366
G1 X171.657Y307.25
G1 X171.254Y307.209
G1 X170.851Y307.25
G1 X170.475Y307.366
G1 X170.752Y307.291
G0 X146.419Y318.314
G1 X146.603Y318.536
G1 X146.825Y318.719
G1 X147.079Y318.857
G1 X147.361Y318.945
G1 X147.663Y318.975
G1 X147.965Y318.945
G1 X148.247Y318.857
G1 X148.502Y318.719
G1 X148.724Y318.536
G1 X148.907Y318.314
G1 X149.045Y318.059
G1 X149.133Y317.778
G1 X149.163Y317.475
G1 X149.133Y317.173
G1 X149.045Y316.891
G1 X148.907Y316.637
G1 X148.724Y316.415
G1 X148.502Y316.231
G1 X148.247Y316.093
G1 X147.965Y316.006
G1 X147.663Y315.975
G1 X147.361Y316.006
G1 X147.079Y316.093
G1 X146.825Y316.231
G1 X146.603Y316.415
G1 X146.419Y316.637
G1 X146.281Y316.891
G1 X146.194Y317.173
G1 X146.163Y317.475
G1 X146.194Y317.778
G1 X146.281Y318.059
G1 X146.419Y318.314
G1 X146.603Y318.536
G1 X146.569Y318.464
G0 X148.502Y336.519
G1 X148.724Y336.336
G1 X148.907Y336.114
G1 X149.045Y335.859
G1 X149.133Y335.578
G1 X149.163Y335.275
G1 X149.133Y334.973
G1 X149.045Y334.691
G1 X148.907Y334.437
G1 X148.724Y334.215
G1 X148.502Y334.031
G1 X148.247Y333.893
G1 X147.965Y333.806
G1 X147.663Y333.775
G1 X147.361Y333.806
G1 X147.079Y333.893
G1 X146.825Y334.031
G1 X146.603Y334.215
G1 X146.419Y334.437
G1 X146.281Y334.691
G1 X146.194Y334.973
G1 X146.163Y335.275
G1 X146.194Y335.578
G1 X146.281Y335.859
G1 X146.419Y336.114
G1 X146.603Y336.336
G1 X146.825Y336.519
G1 X147.079Y336.657
G1 X147.361Y336.745
G1 X147.663Y336.775
G1 X147.965Y336.745
G1 X148.247Y336.657
G1 X148.502Y336.519
G1 X148.724Y336.336
G1 X148.652Y336.369
G0 X101.125Y334.031
G1 X100.903Y334.215
G1 X100.719Y334.437
G1 X100.581Y334.691
G1 X100.494Y334.973
G1 X100.463Y335.275
G1 X100.494Y335.578
G1 X100.581Y335.859
G1 X100.719Y336.114
G1 X100.903Y336.336
G1 X101.125Y336.519
G1 X101.379Y336.657
G1 X101.661Y336.745
G1 X101.963Y336.775
G1 X102.265Y336.745
G1 X102.547Y336.657
G1 X102.802Y336.519
G1 X103.024Y336.336
G1 X103.207Y336.114
G1 X103.345Y335.859
G1 X103.433Y335.578
G1 X103.463Y335.275
G1 X103.433Y334.973
G1 X103.345Y334.691
G1 X103.207Y334.437
G1 X103.024Y334.215
G1 X102.802Y334.031
G1 X102.547Y333.893
G1 X102.265Y333.806
G1 X101.963Y333.775
G1 X101.661Y333.806
G1 X101.379Y333.893
G1 X101.125Y334.031
G1 X100.903Y334.215
G1 X100.975Y334.181
G0 X103.207Y316.637
G1 X103.024Y316.415
G1 X102.802Y316.231
G1 X102.547Y316.093
G1 X102.265Y316.006
G1 X101.963Y315.975
G1 X101.661Y316.006
G1 X101.379Y316.093
G1 X101.125Y316.231
G1 X100.903Y316.415
G1 X100.719Y316.637
G1 X100.581Y316.891
G1 X100.494Y317.173
G1 X100.463Y317.475
G1 X100.494Y317.778
G1 X100.581Y318.059
G1 X100.719Y318.314
G1 X100.903Y318.536
G1 X101.125Y318.719
G1 X101.379Y318.857
G1 X101.661Y318.945
G1 X101.963Y318.975
G1 X102.265Y318.945
G1 X102.547Y318.857
G1 X102.802Y318.719
G1 X103.024Y318.536
G1 X103.207Y318.314
G1 X103.345Y318.059
G1 X103.433Y317.778
G1 X103.463Y317.475
G1 X103.433Y317.173
G1 X103.345Y316.891
G1 X103.207Y316.637
G1 X103.024Y316.415
G1 X103.057Y316.487
G0 X149.163Y289.789
G1 Y243.184
G1 X149.14Y242.268
G1 X149.071Y241.364
G1 X148.956Y240.473
G1 X148.799Y239.595
G1 X148.598Y238.732
G1 X148.356Y237.886
G1 X148.074Y237.057
G1 X147.753Y236.246
G1 X147.394Y235.455
G1 X146.998Y234.685
G1 X146.567Y233.937
G1 X146.101Y233.212
G1 X145.601Y232.511
G1 X145.07Y231.835
G1 X144.507Y231.186
G1 X143.914Y230.565
G1 X143.293Y229.972
G1 X142.644Y229.409
G1 X141.968Y228.878
G1 X141.267Y228.378
G1 X140.542Y227.912
G1 X139.794Y227.481
G1 X139.024Y227.085
G1 X138.233Y226.726
G1 X137.422Y226.405
G1 X136.593Y226.123
G1 X135.747Y225.881
G1 X134.884Y225.681
G1 X134.006Y225.523
G1 X133.115Y225.409
G1 X132.211Y225.339
G1 X131.295Y225.316
G1 X72.359
G1 X71.443Y225.339
G1 X70.538Y225.409
G1 X69.647Y225.523
G1 X68.769Y225.681
G1 X67.907Y225.881
G1 X67.06Y226.123
G1 X66.231Y226.405
G1 X65.421Y226.726
G1 X64.63Y227.085
G1 X63.859Y227.481
G1 X63.111Y227.912
G1 X62.386Y228.378
G1 X61.685Y228.878
G1 X61.009Y229.409
G1 X60.36Y229.972
G1 X59.739Y230.565
G1 X59.146Y231.186
G1 X58.584Y231.835
G1 X58.052Y232.511
G1 X57.552Y233.212
G1 X57.086Y233.937
G1 X56.655Y234.685
G1 X56.259Y235.455
G1 X55.9Y236.246
G1 X55.579Y237.057
G1 X55.297Y237.886
G1 X55.055Y238.732
G1 X54.855Y239.595
G1 X54.697Y240.473
G1 X54.583Y241.364
G1 X54.513Y242.268
G1 X54.49Y243.184
G1 Y289.789
G1 X54.513Y290.705
G1 X54.583Y291.609
G1 X54.697Y292.501
G1 X54.855Y293.378
G1 X55.055Y294.241
G1 X55.297Y295.087
G1 X55.579Y295.916
G1 X55.9Y296.727
G1 X56.259Y297.518
G1 X56.655Y298.288
G1 X57.086Y299.036
G1 X57.552Y299.761
G1 X58.052Y300.462
G1 X58.584Y301.138
G1 X59.146Y301.787
G1 X59.739Y302.408
G1 X60.36Y303.001
G1 X61.009Y303.564
G1 X61.685Y304.096
G1 X62.386Y304.595
G1 X63.111Y305.061
G1 X63.859Y305.493
G1 X64.63Y305.888
G1 X65.421Y306.247
G1 X66.231Y306.569
G1 X67.06Y306.851
G1 X67.907Y307.092
G1 X68.769Y307.293
G1 X69.647Y307.451
G1 X70.538Y307.565
G1 X71.443Y307.634
G1 X72.359Y307.657
G1 X131.295
G1 X132.211Y307.634
G1 X133.115Y307.565
G1 X134.006Y307.451
G1 X134.884Y307.293
G1 X135.747Y307.092
G1 X136.593Y306.851
G1 X137.422Y306.569
G1 X138.233Y306.247
G1 X139.024Y305.888
G1 X139.794Y305.493
G1 X140.542Y305.061
G1 X141.267Y304.595
G1 X141.968Y304.096
G1 X142.644Y303.564
G1 X143.293Y303.001
G1 X143.914Y302.408
G1 X144.507Y301.787
G1 X145.07Y301.138
G1 X145.601Y300.462
G1 X146.101Y299.761
G1 X146.567Y299.036
G1 X146.998Y298.288
G1 X147.394Y297.518
G1 X147.753Y296.727
G1 X148.074Y295.916
G1 X148.356Y295.087
G1 X148.598Y294.241
G1 X148.799Y293.378
G1 X148.956Y292.501
G1 X149.071Y291.609
G1 X149.14Y290.705
G1 X149.163Y289.789
G1 Y289.289
G0 X192.824Y311.168
G1 X193.199Y311.052
G1 X193.539Y310.867
G1 X193.835Y310.623
G1 X194.079Y310.327
G1 X194.263Y309.987
G1 X194.38Y309.612
G1 X194.42Y309.209
G1 X194.38Y308.806
G1 X194.263Y308.43
G1 X194.079Y308.091
G1 X193.835Y307.795
G1 X193.539Y307.551
G1 X193.199Y307.366
G1 X192.824Y307.25
G1 X192.421Y307.209
G1 X192.017Y307.25
G1 X191.642Y307.366
G1 X191.302Y307.551
G1 X191.006Y307.795
G1 X190.762Y308.091
G1 X190.577Y308.43
G1 X190.461Y308.806
G1 X190.42Y309.209
G1 X190.461Y309.612
G1 X190.577Y309.987
G1 X190.762Y310.327
G1 X191.006Y310.623
G1 X191.302Y310.867
G1 X191.642Y311.052
G1 X192.017Y311.168
G1 X192.421Y311.209
G1 X192.824Y311.168
G1 X193.199Y311.052
G1 X192.922Y311.127
G0 X184.962Y300.613
G1 X184.586Y300.729
G1 X184.247Y300.914
G1 X183.951Y301.158
G1 X183.706Y301.454
G1 X183.522Y301.794
G1 X183.405Y302.169
G1 X183.365Y302.572
G1 X183.405Y302.975
G1 X183.522Y303.351
G1 X183.706Y303.69
G1 X183.951Y303.986
G1 X184.247Y304.23
G1 X184.586Y304.415
G1 X184.962Y304.531
G1 X185.365Y304.572
G1 X185.768Y304.531
G1 X186.143Y304.415
G1 X186.483Y304.23
G1 X186.779Y303.986
G1 X187.023Y303.69
G1 X187.208Y303.351
G1 X187.324Y302.975
G1 X187.365Y302.572
G1 X187.324Y302.169
G1 X187.208Y301.794
G1 X187.023Y301.454
G1 X186.779Y301.158
G1 X186.483Y300.914
G1 X186.143Y300.729
G1 X185.768Y300.613
G1 X185.365Y300.572
G1 X184.962Y300.613
G1 X184.586Y300.729
G1 X184.863Y300.654
G0 X176.35Y302.975
G1 X176.466Y303.351
G1 X176.651Y303.69
G1 X176.895Y303.986
G1 X177.191Y304.23
G1 X177.531Y304.415
G1 X177.906Y304.531
G1 X178.309Y304.572
G1 X178.712Y304.531
G1 X179.088Y304.415
G1 X179.428Y304.23
G1 X179.724Y303.986
G1 X179.968Y303.69
G1 X180.152Y303.351
G1 X180.269Y302.975
G1 X180.309Y302.572
G1 X180.269Y302.169
G1 X180.152Y301.794
G1 X179.968Y301.454
G1 X179.724Y301.158
G1 X179.428Y300.914
G1 X179.088Y300.729
G1 X178.712Y300.613
G1 X178.309Y300.572
G1 X177.906Y300.613
G1 X177.531Y300.729
G1 X177.191Y300.914
G1 X176.895Y301.158
G1 X176.651Y301.454
G1 X176.466Y301.794
G1 X176.35Y302.169
G1 X176.309Y302.572
G1 X176.35Y302.975
G1 X176.466Y303.351
G1 X176.391Y303.074
G0 X170.851Y300.613
G1 X170.475Y300.729
G1 X170.136Y300.914
G1 X169.84Y301.158
G1 X169.595Y301.454
G1 X169.411Y301.794
G1 X169.294Y302.169
G1 X169.254Y302.572
G1 X169.294Y302.975
G1 X169.411Y303.351
G1 X169.595Y303.69
G1 X169.84Y303.986
G1 X170.136Y304.23
G1 X170.475Y304.415
G1 X170.851Y304.531
G1 X171.254Y304.572
G1 X171.657Y304.531
G1 X172.032Y304.415
G1 X172.372Y304.23
G1 X172.668Y303.986
G1 X172.912Y303.69
G1 X173.097Y303.351
G1 X173.213Y302.975
G1 X173.254Y302.572
G1 X173.213Y302.169
G1 X173.097Y301.794
G1 X172.912Y301.454
G1 X172.668Y301.158
G1 X172.372Y300.914
G1 X172.032Y300.729
G1 X171.657Y300.613
G1 X171.254Y300.572
G1 X170.851Y300.613
G1 X170.475Y300.729
G1 X170.752Y300.654
G0 X173.213Y295.532
G1 X173.097Y295.157
G1 X172.912Y294.817
G1 X172.668Y294.521
G1 X172.372Y294.277
G1 X172.032Y294.093
G1 X171.657Y293.976
G1 X171.254Y293.935
G1 X170.851Y293.976
G1 X170.475Y294.093
G1 X170.136Y294.277
G1 X169.84Y294.521
G1 X169.595Y294.817
G1 X169.411Y295.157
G1 X169.294Y295.532
G1 X169.254Y295.935
G1 X169.294Y296.338
G1 X169.411Y296.714
G1 X169.595Y297.054
G1 X169.84Y297.35
G1 X170.136Y297.594
G1 X170.475Y297.778
G1 X170.851Y297.895
G1 X171.254Y297.935
G1 X171.657Y297.895
G1 X172.032Y297.778
G1 X172.372Y297.594
G1 X172.668Y297.35
G1 X172.912Y297.054
G1 X173.097Y296.714
G1 X173.213Y296.338
G1 X173.254Y295.935
G1 X173.213Y295.532
G1 X173.097Y295.157
G1 X173.172Y295.434
G0 X178.712Y297.895
G1 X179.088Y297.778
G1 X179.428Y297.594
G1 X179.724Y297.35
G1 X179.968Y297.054
G1 X180.152Y296.714
G1 X180.269Y296.338
G1 X180.309Y295.935
G1 X180.269Y295.532
G1 X180.152Y295.157
G1 X179.968Y294.817
G1 X179.724Y294.521
G1 X179.428Y294.277
G1 X179.088Y294.093
G1 X178.712Y293.976
G1 X178.309Y293.935
G1 X177.906Y293.976
G1 X177.531Y294.093
G1 X177.191Y294.277
G1 X176.895Y294.521
G1 X176.651Y294.817
G1 X176.466Y295.157
G1 X176.35Y295.532
G1 X176.309Y295.935
G1 X176.35Y296.338
G1 X176.466Y296.714
G1 X176.651Y297.054
G1 X176.895Y297.35
G1 X177.191Y297.594
G1 X177.531Y297.778
G1 X177.906Y297.895
G1 X178.309Y297.935
G1 X178.712Y297.895
G1 X179.088Y297.778
G1 X178.811Y297.853
G0 X192.824Y304.531
G1 X193.199Y304.415
G1 X193.539Y304.23
G1 X193.835Y303.986
G1 X194.079Y303.69
G1 X194.263Y303.351
G1 X194.38Y302.975
G1 X194.42Y302.572
G1 X194.38Y302.169
G1 X194.263Y301.794
G1 X194.079Y301.454
G1 X193.835Y301.158
G1 X193.539Y300.914
G1 X193.199Y300.729
G1 X192.824Y300.613
G1 X192.421Y300.572
G1 X192.017Y300.613
G1 X191.642Y300.729
G1 X191.302Y300.914
G1 X191.006Y301.158
G1 X190.762Y301.454
G1 X190.577Y301.794
G1 X190.461Y302.169
G1 X190.42Y302.572
G1 X190.461Y302.975
G1 X190.577Y303.351
G1 X190.762Y303.69
G1 X191.006Y303.986
G1 X191.302Y304.23
G1 X191.642Y304.415
G1 X192.017Y304.531
G1 X192.421Y304.572
G1 X192.824Y304.531
G1 X193.199Y304.415
G1 X192.922Y304.49
G0 X184.962Y293.976
G1 X184.586Y294.093
G1 X184.247Y294.277
G1 X183.951Y294.521
G1 X183.706Y294.817
G1 X183.522Y295.157
G1 X183.405Y295.532
G1 X183.365Y295.935
G1 X183.405Y296.338
G1 X183.522Y296.714
G1 X183.706Y297.054
G1 X183.951Y297.35
G1 X184.247Y297.594
G1 X184.586Y297.778
G1 X184.962Y297.895
G1 X185.365Y297.935
G1 X185.768Y297.895
G1 X186.143Y297.778
G1 X186.483Y297.594
G1 X186.779Y297.35
G1 X187.023Y297.054
G1 X187.208Y296.714
G1 X187.324Y296.338
G1 X187.365Y295.935
G1 X187.324Y295.532
G1 X187.208Y295.157
G1 X187.023Y294.817
G1 X186.779Y294.521
G1 X186.483Y294.277
G1 X186.143Y294.093
G1 X185.768Y293.976
G1 X185.365Y293.935
G1 X184.962Y293.976
G1 X184.586Y294.093
G1 X184.863Y294.018
G0 X187.324Y288.896
G1 X187.208Y288.52
G1 X187.023Y288.18
G1 X186.779Y287.884
G1 X186.483Y287.64
G1 X186.143Y287.456
G1 X185.768Y287.339
G1 X185.365Y287.299
G1 X184.962Y287.339
G1 X184.586Y287.456
G1 X184.247Y287.64
G1 X183.951Y287.884
G1 X183.706Y288.18
G1 X183.522Y288.52
G1 X183.405Y288.896
G1 X183.365Y289.299
G1 X183.405Y289.702
G1 X183.522Y290.077
G1 X183.706Y290.417
G1 X183.951Y290.713
G1 X184.247Y290.957
G1 X184.586Y291.141
G1 X184.962Y291.258
G1 X185.365Y291.299
G1 X185.768Y291.258
G1 X186.143Y291.141
G1 X186.483Y290.957
G1 X186.779Y290.713
G1 X187.023Y290.417
G1 X187.208Y290.077
G1 X187.324Y289.702
G1 X187.365Y289.299
G1 X187.324Y288.896
G1 X187.208Y288.52
G1 X187.283Y288.797
G0 X192.824Y291.258
G1 X193.199Y291.141
G1 X193.539Y290.957
G1 X193.835Y290.713
G1 X194.079Y290.417
G1 X194.263Y290.077
G1 X194.38Y289.702
G1 X194.42Y289.299
G1 X194.38Y288.896
G1 X194.263Y288.52
G1 X194.079Y288.18
G1 X193.835Y287.884
G1 X193.539Y287.64
G1 X193.199Y287.456
G1 X192.824Y287.339
G1 X192.421Y287.299
G1 X192.017Y287.339
G1 X191.642Y287.456
G1 X191.302Y287.64
G1 X191.006Y287.884
G1 X190.762Y288.18
G1 X190.577Y288.52
G1 X190.461Y288.896
G1 X190.42Y289.299
G1 X190.461Y289.702
G1 X190.577Y290.077
G1 X190.762Y290.417
G1 X191.006Y290.713
G1 X191.302Y290.957
G1 X191.642Y291.141
G1 X192.017Y291.258
G1 X192.421Y291.299
G1 X192.824Y291.258
G1 X193.199Y291.141
G1 X192.922Y291.216
G0 X190.461Y296.338
G1 X190.577Y296.714
G1 X190.762Y297.054
G1 X191.006Y297.35
G1 X191.302Y297.594
G1 X191.642Y297.778
G1 X192.017Y297.895
G1 X192.421Y297.935
G1 X192.824Y297.895
G1 X193.199Y297.778
G1 X193.539Y297.594
G1 X193.835Y297.35
G1 X194.079Y297.054
G1 X194.263Y296.714
G1 X194.38Y296.338
G1 X194.42Y295.935
G1 X194.38Y295.532
G1 X194.263Y295.157
G1 X194.079Y294.817
G1 X193.835Y294.521
G1 X193.539Y294.277
G1 X193.199Y294.093
G1 X192.824Y293.976
G1 X192.421Y293.935
G1 X192.017Y293.976
G1 X191.642Y294.093
G1 X191.302Y294.277
G1 X191.006Y294.521
G1 X190.762Y294.817
G1 X190.577Y295.157
G1 X190.461Y295.532
G1 X190.42Y295.935
G1 X190.461Y296.338
G1 X190.577Y296.714
G1 X190.502Y296.437
G0 X177.906Y287.339
G1 X177.531Y287.456
G1 X177.191Y287.64
G1 X176.895Y287.884
G1 X176.651Y288.18
G1 X176.466Y288.52
G1 X176.35Y288.896
G1 X176.309Y289.299
G1 X176.35Y289.702
G1 X176.466Y290.077
G1 X176.651Y290.417
G1 X176.895Y290.713
G1 X177.191Y290.957
G1 X177.531Y291.141
G1 X177.906Y291.258
G1 X178.309Y291.299
G1 X178.712Y291.258
G1 X179.088Y291.141
G1 X179.428Y290.957
G1 X179.724Y290.713
G1 X179.968Y290.417
G1 X180.152Y290.077
G1 X180.269Y289.702
G1 X180.309Y289.299
G1 X180.269Y288.896
G1 X180.152Y288.52
G1 X179.968Y288.18
G1 X179.724Y287.884
G1 X179.428Y287.64
G1 X179.088Y287.456
G1 X178.712Y287.339
G1 X178.309Y287.299
G1 X177.906Y287.339
G1 X177.531Y287.456
G1 X177.808Y287.381
G0 X169.294Y289.702
G1 X169.411Y290.077
G1 X169.595Y290.417
G1 X169.84Y290.713
G1 X170.136Y290.957
G1 X170.475Y291.141
G1 X170.851Y291.258
G1 X171.254Y291.299
G1 X171.657Y291.258
G1 X172.032Y291.141
G1 X172.372Y290.957
G1 X172.668Y290.713
G1 X172.912Y290.417
G1 X173.097Y290.077
G1 X173.213Y289.702
G1 X173.254Y289.299
G1 X173.213Y288.896
G1 X173.097Y288.52
G1 X172.912Y288.18
G1 X172.668Y287.884
G1 X172.372Y287.64
G1 X172.032Y287.456
G1 X171.657Y287.339
G1 X171.254Y287.299
G1 X170.851Y287.339
G1 X170.475Y287.456
G1 X170.136Y287.64
G1 X169.84Y287.884
G1 X169.595Y288.18
G1 X169.411Y288.52
G1 X169.294Y288.896
G1 X169.254Y289.299
G1 X169.294Y289.702
G1 X169.411Y290.077
G1 X169.336Y289.8
G0 X173.213Y282.259
G1 X173.097Y281.883
G1 X172.912Y281.544
G1 X172.668Y281.248
G1 X172.372Y281.004
G1 X172.032Y280.819
G1 X171.657Y280.703
G1 X171.254Y280.662
G1 X170.851Y280.703
G1 X170.475Y280.819
G1 X170.136Y281.004
G1 X169.84Y281.248
G1 X169.595Y281.544
G1 X169.411Y281.883
G1 X169.294Y282.259
G1 X169.254Y282.662
G1 X169.294Y283.065
G1 X169.411Y283.44
G1 X169.595Y283.78
G1 X169.84Y284.076
G1 X170.136Y284.32
G1 X170.475Y284.505
G1 X170.851Y284.621
G1 X171.254Y284.662
G1 X171.657Y284.621
G1 X172.032Y284.505
G1 X172.372Y284.32
G1 X172.668Y284.076
G1 X172.912Y283.78
G1 X173.097Y283.44
G1 X173.213Y283.065
G1 X173.254Y282.662
G1 X173.213Y282.259
G1 X173.097Y281.883
G1 X173.172Y282.16
G0 X178.712Y284.621
G1 X179.088Y284.505
G1 X179.428Y284.32
G1 X179.724Y284.076
G1 X179.968Y283.78
G1 X180.152Y283.44
G1 X180.269Y283.065
G1 X180.309Y282.662
G1 X180.269Y282.259
G1 X180.152Y281.883
G1 X179.968Y281.544
G1 X179.724Y281.248
G1 X179.428Y281.004
G1 X179.088Y280.819
G1 X178.712Y280.703
G1 X178.309Y280.662
G1 X177.906Y280.703
G1 X177.531Y280.819
G1 X177.191Y281.004
G1 X176.895Y281.248
G1 X176.651Y281.544
G1 X176.466Y281.883
G1 X176.35Y282.259
G1 X176.309Y282.662
G1 X176.35Y283.065
G1 X176.466Y283.44
G1 X176.651Y283.78
G1 X176.895Y284.076
G1 X177.191Y284.32
G1 X177.531Y284.505
G1 X177.906Y284.621
G1 X178.309Y284.662
G1 X178.712Y284.621
G1 X179.088Y284.505
G1 X178.811Y284.58
G0 X187.324Y282.259
G1 X187.208Y281.883
G1 X187.023Y281.544
G1 X186.779Y281.248
G1 X186.483Y281.004
G1 X186.143Y280.819
G1 X185.768Y280.703
G1 X185.365Y280.662
G1 X184.962Y280.703
G1 X184.586Y280.819
G1 X184.247Y281.004
G1 X183.951Y281.248
G1 X183.706Y281.544
G1 X183.522Y281.883
G1 X183.405Y282.259
G1 X183.365Y282.662
G1 X183.405Y283.065
G1 X183.522Y283.44
G1 X183.706Y283.78
G1 X183.951Y284.076
G1 X184.247Y284.32
G1 X184.586Y284.505
G1 X184.962Y284.621
G1 X185.365Y284.662
G1 X185.768Y284.621
G1 X186.143Y284.505
G1 X186.483Y284.32
G1 X186.779Y284.076
G1 X187.023Y283.78
G1 X187.208Y283.44
G1 X187.324Y283.065
G1 X187.365Y282.662
G1 X187.324Y282.259
G1 X187.208Y281.883
G1 X187.283Y282.16
G0 X192.824Y284.621
G1 X193.199Y284.505
G1 X193.539Y284.32
G1 X193.835Y284.076
G1 X194.079Y283.78
G1 X194.263Y283.44
G1 X194.38Y283.065
G1 X194.42Y282.662
G1 X194.38Y282.259
G1 X194.263Y281.883
G1 X194.079Y281.544
G1 X193.835Y281.248
G1 X193.539Y281.004
G1 X193.199Y280.819
G1 X192.824Y280.703
G1 X192.421Y280.662
G1 X192.017Y280.703
G1 X191.642Y280.819
G1 X191.302Y281.004
G1 X191.006Y281.248
G1 X190.762Y281.544
G1 X190.577Y281.883
G1 X190.461Y282.259
G1 X190.42Y282.662
G1 X190.461Y283.065
G1 X190.577Y283.44
G1 X190.762Y283.78
G1 X191.006Y284.076
G1 X191.302Y284.32
G1 X191.642Y284.505
G1 X192.017Y284.621
G1 X192.421Y284.662
G1 X192.824Y284.621
G1 X193.199Y284.505
G1 X192.922Y284.58
G0 X209.11Y276.051
G1 X208.926Y275.829
G1 X208.704Y275.646
G1 X208.45Y275.507
G1 X208.168Y275.42
G1 X207.866Y275.389
G1 X207.563Y275.42
G1 X207.282Y275.507
G1 X207.027Y275.646
G1 X206.805Y275.829
G1 X206.622Y276.051
G1 X206.484Y276.306
G1 X206.396Y276.587
G1 X206.366Y276.89
G1 X206.396Y277.192
G1 X206.484Y277.473
G1 X206.622Y277.728
G1 X206.805Y277.95
G1 X207.027Y278.133
G1 X207.282Y278.272
G1 X207.563Y278.359
G1 X207.866Y278.39
G1 X208.168Y278.359
G1 X208.45Y278.272
G1 X208.704Y278.133
G1 X208.926Y277.95
G1 X209.11Y277.728
G1 X209.248Y277.473
G1 X209.335Y277.192
G1 X209.366Y276.89
G1 X209.335Y276.587
G1 X209.248Y276.306
G1 X209.11Y276.051
G1 X208.926Y275.829
G1 X208.96Y275.901
G0 X211.6Y257.983
G1 X211.483Y257.608
G1 X211.299Y257.268
G1 X211.055Y256.972
G1 X210.759Y256.728
G1 X210.419Y256.543
G1 X210.044Y256.427
G1 X209.64Y256.386
G1 X209.237Y256.427
G1 X208.862Y256.543
G1 X208.522Y256.728
G1 X208.226Y256.972
G1 X207.982Y257.268
G1 X207.798Y257.608
G1 X207.681Y257.983
G1 X207.641Y258.386
G1 X207.681Y258.789
G1 X207.798Y259.165
G1 X207.982Y259.505
G1 X208.226Y259.801
G1 X208.522Y260.045
G1 X208.862Y260.229
G1 X209.237Y260.346
G1 X209.64Y260.386
G1 X210.044Y260.346
G1 X210.419Y260.229
G1 X210.759Y260.045
G1 X211.055Y259.801
G1 X211.299Y259.505
G1 X211.483Y259.165
G1 X211.6Y258.789
G1 X211.64Y258.386
G1 X211.6Y257.983
G1 X211.483Y257.608
G1 X211.558Y257.885
G0 X216.68Y260.346
G1 X217.056Y260.229
G1 X217.395Y260.045
G1 X217.691Y259.801
G1 X217.936Y259.505
G1 X218.12Y259.165
G1 X218.236Y258.789
G1 X218.277Y258.386
G1 X218.236Y257.983
G1 X218.12Y257.608
G1 X217.936Y257.268
G1 X217.691Y256.972
G1 X217.395Y256.728
G1 X217.056Y256.543
G1 X216.68Y256.427
G1 X216.277Y256.386
G1 X215.874Y256.427
G1 X215.499Y256.543
G1 X215.159Y256.728
G1 X214.863Y256.972
G1 X214.619Y257.268
G1 X214.434Y257.608
G1 X214.318Y257.983
G1 X214.277Y258.386
G1 X214.318Y258.789
G1 X214.434Y259.165
G1 X214.619Y259.505
G1 X214.863Y259.801
G1 X215.159Y260.045
G1 X215.499Y260.229
G1 X215.874Y260.346
G1 X216.277Y260.386
G1 X216.68Y260.346
G1 X217.056Y260.229
G1 X216.779Y260.304
G0 X224.873Y257.983
G1 X224.757Y257.608
G1 X224.572Y257.268
G1 X224.328Y256.972
G1 X224.032Y256.728
G1 X223.692Y256.543
G1 X223.317Y256.427
G1 X222.914Y256.386
G1 X222.511Y256.427
G1 X222.135Y256.543
G1 X221.796Y256.728
G1 X221.5Y256.972
G1 X221.256Y257.268
G1 X221.071Y257.608
G1 X220.955Y257.983
G1 X220.914Y258.386
G1 X220.955Y258.789
G1 X221.071Y259.165
G1 X221.256Y259.505
G1 X221.5Y259.801
G1 X221.796Y260.045
G1 X222.135Y260.229
G1 X222.511Y260.346
G1 X222.914Y260.386
G1 X223.317Y260.346
G1 X223.692Y260.229
G1 X224.032Y260.045
G1 X224.328Y259.801
G1 X224.572Y259.505
G1 X224.757Y259.165
G1 X224.873Y258.789
G1 X224.914Y258.386
G1 X224.873Y257.983
G1 X224.757Y257.608
G1 X224.832Y257.885
G0 X229.954Y260.346
G1 X230.329Y260.229
G1 X230.669Y260.045
G1 X230.965Y259.801
G1 X231.209Y259.505
G1 X231.393Y259.165
G1 X231.51Y258.789
G1 X231.551Y258.386
G1 X231.51Y257.983
G1 X231.393Y257.608
G1 X231.209Y257.268
G1 X230.965Y256.972
G1 X230.669Y256.728
G1 X230.329Y256.543
G1 X229.954Y256.427
G1 X229.551Y256.386
G1 X229.148Y256.427
G1 X228.772Y256.543
G1 X228.433Y256.728
G1 X228.137Y256.972
G1 X227.892Y257.268
G1 X227.708Y257.608
G1 X227.591Y257.983
G1 X227.551Y258.386
G1 X227.591Y258.789
G1 X227.708Y259.165
G1 X227.892Y259.505
G1 X228.137Y259.801
G1 X228.433Y260.045
G1 X228.772Y260.229
G1 X229.148Y260.346
G1 X229.551Y260.386
G1 X229.954Y260.346
G1 X230.329Y260.229
G1 X230.052Y260.304
G0 X238.147Y257.983
G1 X238.03Y257.608
G1 X237.846Y257.268
G1 X237.602Y256.972
G1 X237.306Y256.728
G1 X236.966Y256.543
G1 X236.591Y256.427
G1 X236.187Y256.386
G1 X235.784Y256.427
G1 X235.409Y256.543
G1 X235.069Y256.728
G1 X234.773Y256.972
G1 X234.529Y257.268
G1 X234.345Y257.608
G1 X234.228Y257.983
G1 X234.188Y258.386
G1 X234.228Y258.789
G1 X234.345Y259.165
G1 X234.529Y259.505
G1 X234.773Y259.801
G1 X235.069Y260.045
G1 X235.409Y260.229
G1 X235.784Y260.346
G1 X236.187Y260.386
G1 X236.591Y260.346
G1 X236.966Y260.229
G1 X237.306Y260.045
G1 X237.602Y259.801
G1 X237.846Y259.505
G1 X238.03Y259.165
G1 X238.147Y258.789
G1 X238.187Y258.386
G1 X238.147Y257.983
G1 X238.03Y257.608
G1 X238.105Y257.885
G0 X243.227Y260.346
G1 X243.603Y260.229
G1 X243.942Y260.045
G1 X244.238Y259.801
G1 X244.483Y259.505
G1 X244.667Y259.165
G1 X244.784Y258.789
G1 X244.824Y258.386
G1 X244.784Y257.983
G1 X244.667Y257.608
G1 X244.483Y257.268
G1 X244.238Y256.972
G1 X243.942Y256.728
G1 X243.603Y256.543
G1 X243.227Y256.427
G1 X242.824Y256.386
G1 X242.421Y256.427
G1 X242.046Y256.543
G1 X241.706Y256.728
G1 X241.41Y256.972
G1 X241.166Y257.268
G1 X240.982Y257.608
G1 X240.865Y257.983
G1 X240.824Y258.386
G1 X240.865Y258.789
G1 X240.982Y259.165
G1 X241.166Y259.505
G1 X241.41Y259.801
G1 X241.706Y260.045
G1 X242.046Y260.229
G1 X242.421Y260.346
G1 X242.824Y260.386
G1 X243.227Y260.346
G1 X243.603Y260.229
G1 X243.326Y260.304
G0 X251.42Y257.983
G1 X251.304Y257.608
G1 X251.119Y257.268
G1 X250.875Y256.972
G1 X250.579Y256.728
G1 X250.239Y256.543
G1 X249.864Y256.427
G1 X249.461Y256.386
G1 X249.058Y256.427
G1 X248.683Y256.543
G1 X248.343Y256.728
G1 X248.047Y256.972
G1 X247.803Y257.268
G1 X247.618Y257.608
G1 X247.502Y257.983
G1 X247.461Y258.386
G1 X247.502Y258.789
G1 X247.618Y259.165
G1 X247.803Y259.505
G1 X248.047Y259.801
G1 X248.343Y260.045
G1 X248.683Y260.229
G1 X249.058Y260.346
G1 X249.461Y260.386
G1 X249.864Y260.346
G1 X250.239Y260.229
G1 X250.579Y260.045
G1 X250.875Y259.801
G1 X251.119Y259.505
G1 X251.304Y259.165
G1 X251.42Y258.789
G1 X251.461Y258.386
G1 X251.42Y257.983
G1 X251.304Y257.608
G1 X251.379Y257.885
G0 X256.501Y260.346
G1 X256.876Y260.229
G1 X257.216Y260.045
G1 X257.512Y259.801
G1 X257.756Y259.505
G1 X257.94Y259.165
G1 X258.057Y258.789
G1 X258.098Y258.386
G1 X258.057Y257.983
G1 X257.94Y257.608
G1 X257.756Y257.268
G1 X257.512Y256.972
G1 X257.216Y256.728
G1 X256.876Y256.543
G1 X256.501Y256.427
G1 X256.098Y256.386
G1 X255.695Y256.427
G1 X255.319Y256.543
G1 X254.98Y256.728
G1 X254.684Y256.972
G1 X254.439Y257.268
G1 X254.255Y257.608
G1 X254.138Y257.983
G1 X254.098Y258.386
G1 X254.138Y258.789
G1 X254.255Y259.165
G1 X254.439Y259.505
G1 X254.684Y259.801
G1 X254.98Y260.045
G1 X255.319Y260.229
G1 X255.695Y260.346
G1 X256.098Y260.386
G1 X256.501Y260.346
G1 X256.876Y260.229
G1 X256.599Y260.304
G0 X264.694Y257.983
G1 X264.577Y257.608
G1 X264.393Y257.268
G1 X264.149Y256.972
G1 X263.853Y256.728
G1 X263.513Y256.543
G1 X263.138Y256.427
G1 X262.734Y256.386
G1 X262.331Y256.427
G1 X261.956Y256.543
G1 X261.616Y256.728
G1 X261.32Y256.972
G1 X261.076Y257.268
G1 X260.892Y257.608
G1 X260.775Y257.983
G1 X260.735Y258.386
G1 X260.775Y258.789
G1 X260.892Y259.165
G1 X261.076Y259.505
G1 X261.32Y259.801
G1 X261.616Y260.045
G1 X261.956Y260.229
G1 X262.331Y260.346
G1 X262.734Y260.386
G1 X263.138Y260.346
G1 X263.513Y260.229
G1 X263.853Y260.045
G1 X264.149Y259.801
G1 X264.393Y259.505
G1 X264.577Y259.165
G1 X264.694Y258.789
G1 X264.734Y258.386
G1 X264.694Y257.983
G1 X264.577Y257.608
G1 X264.652Y257.885
G0 X262.331Y249.371
G1 X261.956Y249.488
G1 X261.616Y249.672
G1 X261.32Y249.916
G1 X261.076Y250.213
G1 X260.892Y250.552
G1 X260.775Y250.928
G1 X260.735Y251.331
G1 X260.775Y251.734
G1 X260.892Y252.109
G1 X261.076Y252.449
G1 X261.32Y252.745
G1 X261.616Y252.989
G1 X261.956Y253.174
G1 X262.331Y253.29
G1 X262.734Y253.331
G1 X263.138Y253.29
G1 X263.513Y253.174
G1 X263.853Y252.989
G1 X264.149Y252.745
G1 X264.393Y252.449
G1 X264.577Y252.109
G1 X264.694Y251.734
G1 X264.734Y251.331
G1 X264.694Y250.928
G1 X264.577Y250.552
G1 X264.393Y250.213
G1 X264.149Y249.916
G1 X263.853Y249.672
G1 X263.513Y249.488
G1 X263.138Y249.371
G1 X262.734Y249.331
G1 X262.331Y249.371
G1 X261.956Y249.488
G1 X262.233Y249.413
G0 X286.359Y274.984
G1 X294.131
G1 X294.389Y274.971
G1 X294.64Y274.932
G1 X294.882Y274.87
G1 X295.114Y274.784
G1 X295.544Y274.55
G1 X295.919Y274.24
G1 X296.229Y273.865
G1 X296.463Y273.435
G1 X296.548Y273.203
G1 X296.611Y272.961
G1 X296.649Y272.71
G1 X296.662Y272.452
G1 Y262.715
G1 X296.649Y262.457
G1 X296.611Y262.207
G1 X296.548Y261.964
G1 X296.463Y261.732
G1 X296.229Y261.302
G1 X295.919Y260.927
G1 X295.544Y260.618
G1 X295.114Y260.384
G1 X294.882Y260.298
G1 X294.64Y260.235
G1 X294.389Y260.197
G1 X294.131Y260.184
G1 X286.359
G1 X286.101Y260.197
G1 X285.85Y260.235
G1 X285.608Y260.298
G1 X285.376Y260.384
G1 X284.946Y260.618
G1 X284.571Y260.927
G1 X284.262Y261.302
G1 X284.027Y261.732
G1 X283.942Y261.964
G1 X283.879Y262.207
G1 X283.841Y262.457
G1 X283.828Y262.715
G1 Y272.452
G1 X283.841Y272.71
G1 X283.879Y272.961
G1 X283.942Y273.203
G1 X284.027Y273.435
G1 X284.262Y273.865
G1 X284.571Y274.24
G1 X284.946Y274.55
G1 X285.376Y274.784
G1 X285.608Y274.87
G1 X285.85Y274.932
G1 X286.101Y274.971
G1 X286.359Y274.984
G1 X286.859
G0 X280.101Y300.54
G1 X280.284Y300.762
G1 X280.507Y300.945
G1 X280.761Y301.084
G1 X281.043Y301.171
G1 X281.345Y301.202
G1 X281.647Y301.171
G1 X281.929Y301.084
G1 X282.184Y300.945
G1 X282.406Y300.762
G1 X282.589Y300.54
G1 X282.727Y300.285
G1 X282.815Y300.004
G1 X282.845Y299.702
G1 X282.815Y299.399
G1 X282.727Y299.118
G1 X282.589Y298.863
G1 X282.406Y298.641
G1 X282.184Y298.458
G1 X281.929Y298.319
G1 X281.647Y298.232
G1 X281.345Y298.202
G1 X281.043Y298.232
G1 X280.761Y298.319
G1 X280.507Y298.458
G1 X280.284Y298.641
G1 X280.101Y298.863
G1 X279.963Y299.118
G1 X279.876Y299.399
G1 X279.845Y299.702
G1 X279.876Y300.004
G1 X279.963Y300.285
G1 X280.101Y300.54
G1 X280.284Y300.762
G1 X280.251Y300.69
G0 X286.984Y298.458
G1 X286.729Y298.319
G1 X286.447Y298.232
G1 X286.145Y298.202
G1 X285.843Y298.232
G1 X285.561Y298.319
G1 X285.306Y298.458
G1 X285.084Y298.641
G1 X284.901Y298.863
G1 X284.763Y299.118
G1 X284.676Y299.399
G1 X284.645Y299.702
G1 X284.676Y300.004
G1 X284.763Y300.285
G1 X284.901Y300.54
G1 X285.084Y300.762
G1 X285.306Y300.945
G1 X285.561Y301.084
G1 X285.843Y301.171
G1 X286.145Y301.202
G1 X286.447Y301.171
G1 X286.729Y301.084
G1 X286.984Y300.945
G1 X287.206Y300.762
G1 X287.389Y300.54
G1 X287.527Y300.285
G1 X287.615Y300.004
G1 X287.645Y299.702
G1 X287.615Y299.399
G1 X287.527Y299.118
G1 X287.389Y298.863
G1 X287.206Y298.641
G1 X286.984Y298.458
G1 X286.729Y298.319
G1 X286.79Y298.376
G0 X299.984Y300.945
G1 X300.206Y300.762
G1 X300.389Y300.54
G1 X300.527Y300.285
G1 X300.615Y300.004
G1 X300.645Y299.702
G1 X300.615Y299.399
G1 X300.527Y299.118
G1 X300.389Y298.863
G1 X300.206Y298.641
G1 X299.984Y298.458
G1 X299.729Y298.319
G1 X299.447Y298.232
G1 X299.145Y298.202
G1 X298.843Y298.232
G1 X298.561Y298.319
G1 X298.306Y298.458
G1 X298.084Y298.641
G1 X297.901Y298.863
G1 X297.763Y299.118
G1 X297.676Y299.399
G1 X297.645Y299.702
G1 X297.676Y300.004
G1 X297.763Y300.285
G1 X297.901Y300.54
G1 X298.084Y300.762
G1 X298.306Y300.945
G1 X298.561Y301.084
G1 X298.843Y301.171
G1 X299.145Y301.202
G1 X299.447Y301.171
G1 X299.729Y301.084
G1 X299.984Y300.945
G1 X300.206Y300.762
G1 X300.134Y300.795
G0 X297.901Y276.895
G1 X297.763Y277.15
G1 X297.676Y277.431
G1 X297.645Y277.734
G1 X297.676Y278.036
G1 X297.763Y278.318
G1 X297.901Y278.572
G1 X298.084Y278.794
G1 X298.306Y278.978
G1 X298.561Y279.116
G1 X298.843Y279.203
G1 X299.145Y279.234
G1 X299.447Y279.203
G1 X299.729Y279.116
G1 X299.984Y278.978
G1 X300.206Y278.794
G1 X300.389Y278.572
G1 X300.527Y278.318
G1 X300.615Y278.036
G1 X300.645Y277.734
G1 X300.615Y277.431
G1 X300.527Y277.15
G1 X300.389Y276.895
G1 X300.206Y276.673
G1 X299.984Y276.49
G1 X299.729Y276.352
G1 X299.447Y276.264
G1 X299.145Y276.234
G1 X298.843Y276.264
G1 X298.561Y276.352
G1 X298.306Y276.49
G1 X298.084Y276.673
G1 X297.901Y276.895
G1 X297.763Y277.15
G1 X297.82Y277.089
G0 X285.306Y278.978
G1 X285.561Y279.116
G1 X285.843Y279.203
G1 X286.145Y279.234
G1 X286.447Y279.203
G1 X286.729Y279.116
G1 X286.984Y278.978
G1 X287.206Y278.794
G1 X287.389Y278.572
G1 X287.527Y278.318
G1 X287.615Y278.036
G1 X287.645Y277.734
G1 X287.615Y277.431
G1 X287.527Y277.15
G1 X287.389Y276.895
G1 X287.206Y276.673
G1 X286.984Y276.49
G1 X286.729Y276.352
G1 X286.447Y276.264
G1 X286.145Y276.234
G1 X285.843Y276.264
G1 X285.561Y276.352
G1 X285.306Y276.49
G1 X285.084Y276.673
G1 X284.901Y276.895
G1 X284.763Y277.15
G1 X284.676Y277.431
G1 X284.645Y277.734
G1 X284.676Y278.036
G1 X284.763Y278.318
G1 X284.901Y278.572
G1 X285.084Y278.794
G1 X285.306Y278.978
G1 X285.561Y279.116
G1 X285.5Y279.059
G0 X280.507Y276.49
G1 X280.284Y276.673
G1 X280.101Y276.895
G1 X279.963Y277.15
G1 X279.876Y277.431
G1 X279.845Y277.734
G1 X279.876Y278.036
G1 X279.963Y278.318
G1 X280.101Y278.572
G1 X280.284Y278.794
G1 X280.507Y278.978
G1 X280.761Y279.116
G1 X281.043Y279.203
G1 X281.345Y279.234
G1 X281.647Y279.203
G1 X281.929Y279.116
G1 X282.184Y278.978
G1 X282.406Y278.794
G1 X282.589Y278.572
G1 X282.727Y278.318
G1 X282.815Y278.036
G1 X282.845Y277.734
G1 X282.815Y277.431
G1 X282.727Y277.15
G1 X282.589Y276.895
G1 X282.406Y276.673
G1 X282.184Y276.49
G1 X281.929Y276.352
G1 X281.647Y276.264
G1 X281.345Y276.234
G1 X281.043Y276.264
G1 X280.761Y276.352
G1 X280.507Y276.49
G1 X280.284Y276.673
G1 X280.356Y276.64
G0 X282.589Y256.595
G1 X282.406Y256.373
G1 X282.184Y256.19
G1 X281.929Y256.052
G1 X281.647Y255.964
G1 X281.345Y255.934
G1 X281.043Y255.964
G1 X280.761Y256.052
G1 X280.507Y256.19
G1 X280.284Y256.373
G1 X280.101Y256.595
G1 X279.963Y256.85
G1 X279.876Y257.131
G1 X279.845Y257.434
G1 X279.876Y257.736
G1 X279.963Y258.018
G1 X280.101Y258.272
G1 X280.284Y258.494
G1 X280.507Y258.678
G1 X280.761Y258.816
G1 X281.043Y258.903
G1 X281.345Y258.934
G1 X281.647Y258.903
G1 X281.929Y258.816
G1 X282.184Y258.678
G1 X282.406Y258.494
G1 X282.589Y258.272
G1 X282.727Y258.018
G1 X282.815Y257.736
G1 X282.845Y257.434
G1 X282.815Y257.131
G1 X282.727Y256.85
G1 X282.589Y256.595
G1 X282.406Y256.373
G1 X282.439Y256.445
G0 X286.984Y258.678
G1 X287.206Y258.494
G1 X287.389Y258.272
G1 X287.527Y258.018
G1 X287.615Y257.736
G1 X287.645Y257.434
G1 X287.615Y257.131
G1 X287.527Y256.85
G1 X287.389Y256.595
G1 X287.206Y256.373
G1 X286.984Y256.19
G1 X286.729Y256.052
G1 X286.447Y255.964
G1 X286.145Y255.934
G1 X285.843Y255.964
G1 X285.561Y256.052
G1 X285.306Y256.19
G1 X285.084Y256.373
G1 X284.901Y256.595
G1 X284.763Y256.85
G1 X284.676Y257.131
G1 X284.645Y257.434
G1 X284.676Y257.736
G1 X284.763Y258.018
G1 X284.901Y258.272
G1 X285.084Y258.494
G1 X285.306Y258.678
G1 X285.561Y258.816
G1 X285.843Y258.903
G1 X286.145Y258.934
G1 X286.447Y258.903
G1 X286.729Y258.816
G1 X286.984Y258.678
G1 X287.206Y258.494
G1 X287.134Y258.528
G0 X300.389Y256.595
G1 X300.206Y256.373
G1 X299.984Y256.19
G1 X299.729Y256.052
G1 X299.447Y255.964
G1 X299.145Y255.934
G1 X298.843Y255.964
G1 X298.561Y256.052
G1 X298.306Y256.19
G1 X298.084Y256.373
G1 X297.901Y256.595
G1 X297.763Y256.85
G1 X297.676Y257.131
G1 X297.645Y257.434
G1 X297.676Y257.736
G1 X297.763Y258.018
G1 X297.901Y258.272
G1 X298.084Y258.494
G1 X298.306Y258.678
G1 X298.561Y258.816
G1 X298.843Y258.903
G1 X299.145Y258.934
G1 X299.447Y258.903
G1 X299.729Y258.816
G1 X299.984Y258.678
G1 X300.206Y258.494
G1 X300.389Y258.272
G1 X300.527Y258.018
G1 X300.615Y257.736
G1 X300.645Y257.434
G1 X300.615Y257.131
G1 X300.527Y256.85
G1 X300.389Y256.595
G1 X300.206Y256.373
G1 X300.239Y256.445
G0 X128.664Y188.642
G1 X94.214
G1 X93.812Y188.663
G1 X93.422Y188.723
G1 X93.045Y188.82
G1 X92.683Y188.953
G1 X92.339Y189.12
G1 X92.014Y189.318
G1 X91.71Y189.545
G1 X91.43Y189.8
G1 X91.175Y190.08
G1 X90.948Y190.384
G1 X90.75Y190.709
G1 X90.583Y191.053
G1 X90.45Y191.415
G1 X90.352Y191.792
G1 X90.292Y192.182
G1 X90.272Y192.584
G1 X90.292Y192.985
G1 X90.352Y193.376
G1 X90.45Y193.752
G1 X90.583Y194.114
G1 X90.75Y194.459
G1 X90.948Y194.784
G1 X91.175Y195.087
G1 X91.43Y195.367
G1 X91.71Y195.622
G1 X92.014Y195.85
G1 X92.339Y196.048
G1 X92.683Y196.214
G1 X93.045Y196.347
G1 X93.422Y196.445
G1 X93.812Y196.505
G1 X94.214Y196.525
G1 X128.664
G1 X129.065Y196.505
G1 X129.456Y196.445
G1 X129.833Y196.347
G1 X130.194Y196.214
G1 X130.539Y196.048
G1 X130.864Y195.85
G1 X131.167Y195.622
G1 X131.447Y195.367
G1 X131.702Y195.087
G1 X131.93Y194.784
G1 X132.128Y194.459
G1 X132.294Y194.114
G1 X132.427Y193.752
G1 X132.525Y193.376
G1 X132.585Y192.985
G1 X132.605Y192.584
G1 X132.585Y192.182
G1 X132.525Y191.792
G1 X132.427Y191.415
G1 X132.294Y191.053
G1 X132.128Y190.709
G1 X131.93Y190.384
G1 X131.702Y190.08
G1 X131.447Y189.8
G1 X131.167Y189.545
G1 X130.864Y189.318
G1 X130.539Y189.12
G1 X130.194Y188.953
G1 X129.833Y188.82
G1 X129.456Y188.723
G1 X129.065Y188.663
G1 X128.664Y188.642
G1 X128.164
G0 X148.845Y196.525
G1 X183.295
G1 X183.697Y196.505
G1 X184.087Y196.445
G1 X184.464Y196.347
G1 X184.826Y196.214
G1 X185.17Y196.048
G1 X185.495Y195.85
G1 X185.799Y195.622
G1 X186.079Y195.367
G1 X186.334Y195.087
G1 X186.561Y194.784
G1 X186.759Y194.459
G1 X186.926Y194.114
G1 X187.059Y193.752
G1 X187.156Y193.376
G1 X187.216Y192.985
G1 X187.237Y192.584
G1 X187.216Y192.182
G1 X187.156Y191.792
G1 X187.059Y191.415
G1 X186.926Y191.053
G1 X186.759Y190.709
G1 X186.561Y190.384
G1 X186.334Y190.08
G1 X186.079Y189.8
G1 X185.799Y189.545
G1 X185.495Y189.318
G1 X185.17Y189.12
G1 X184.826Y188.953
G1 X184.464Y188.82
G1 X184.087Y188.723
G1 X183.697Y188.663
G1 X183.295Y188.642
G1 X148.845
G1 X148.443Y188.663
G1 X148.053Y188.723
G1 X147.676Y188.82
G1 X147.314Y188.953
G1 X146.97Y189.12
G1 X146.645Y189.318
G1 X146.341Y189.545
G1 X146.061Y189.8
G1 X145.806Y190.08
G1 X145.579Y190.384
G1 X145.381Y190.709
G1 X145.214Y191.053
G1 X145.081Y191.415
G1 X144.984Y191.792
G1 X144.924Y192.182
G1 X144.903Y192.584
G1 X144.924Y192.985
G1 X144.984Y193.376
G1 X145.081Y193.752
G1 X145.214Y194.114
G1 X145.381Y194.459
G1 X145.579Y194.784
G1 X145.806Y195.087
G1 X146.061Y195.367
G1 X146.341Y195.622
G1 X146.645Y195.85
G1 X146.97Y196.048
G1 X147.314Y196.214
G1 X147.676Y196.347
G1 X148.053Y196.445
G1 X148.443Y196.505
G1 X148.845Y196.525
G1 X149.345
G0 X241.868Y192.584
G1 X241.848Y192.182
G1 X241.788Y191.792
G1 X241.69Y191.415
G1 X241.557Y191.053
G1 X241.391Y190.709
G1 X241.193Y190.384
G1 X240.965Y190.08
G1 X240.71Y189.8
G1 X240.43Y189.545
G1 X240.126Y189.318
G1 X239.801Y189.12
G1 X239.457Y188.953
G1 X239.095Y188.82
G1 X238.718Y188.723
G1 X238.328Y188.663
G1 X237.926Y188.642
G1 X203.476
G1 X203.075Y188.663
G1 X202.685Y188.723
G1 X202.308Y188.82
G1 X201.946Y188.953
G1 X201.602Y189.12
G1 X201.276Y189.318
G1 X200.973Y189.545
G1 X200.693Y189.8
G1 X200.438Y190.08
G1 X200.21Y190.384
G1 X200.012Y190.709
G1 X199.846Y191.053
G1 X199.713Y191.415
G1 X199.615Y191.792
G1 X199.555Y192.182
G1 X199.535Y192.584
G1 X199.555Y192.985
G1 X199.615Y193.376
G1 X199.713Y193.752
G1 X199.846Y194.114
G1 X200.012Y194.459
G1 X200.21Y194.784
G1 X200.438Y195.087
G1 X200.693Y195.367
G1 X200.973Y195.622
G1 X201.276Y195.85
G1 X201.602Y196.048
G1 X201.946Y196.214
G1 X202.308Y196.347
G1 X202.685Y196.445
G1 X203.075Y196.505
G1 X203.476Y196.525
G1 X237.926
G1 X238.328Y196.505
G1 X238.718Y196.445
G1 X239.095Y196.347
G1 X239.457Y196.214
G1 X239.801Y196.048
G1 X240.126Y195.85
G1 X240.43Y195.622
G1 X240.71Y195.367
G1 X240.965Y195.087
G1 X241.193Y194.784
G1 X241.391Y194.459
G1 X241.557Y194.114
G1 X241.69Y193.752
G1 X241.788Y193.376
G1 X241.848Y192.985
G1 X241.868Y192.584
G1 X241.848Y192.182
G1 X241.858Y192.486
G0 X265.46Y149.036
G1 X265.343Y148.661
G1 X265.159Y148.321
G1 X264.914Y148.025
G1 X264.618Y147.781
G1 X264.279Y147.596
G1 X263.903Y147.48
G1 X263.5Y147.439
G1 X263.097Y147.48
G1 X262.722Y147.596
G1 X262.382Y147.781
G1 X262.086Y148.025
G1 X261.842Y148.321
G1 X261.657Y148.661
G1 X261.541Y149.036
G1 X261.5Y149.439
G1 X261.541Y149.842
G1 X261.657Y150.218
G1 X261.842Y150.557
G1 X262.086Y150.853
G1 X262.382Y151.097
G1 X262.722Y151.282
G1 X263.097Y151.398
G1 X263.5Y151.439
G1 X263.903Y151.398
G1 X264.279Y151.282
G1 X264.618Y151.097
G1 X264.914Y150.853
G1 X265.159Y150.557
G1 X265.343Y150.218
G1 X265.46Y149.842
G1 X265.5Y149.439
G1 X265.46Y149.036
G1 X265.343Y148.661
G1 X265.418Y148.938
G0 X199.535Y213.75
G1 X199.555Y214.152
G1 X199.615Y214.542
G1 X199.713Y214.919
G1 X199.846Y215.281
G1 X200.012Y215.625
G1 X200.21Y215.95
G1 X200.438Y216.254
G1 X200.693Y216.534
G1 X200.973Y216.789
G1 X201.276Y217.016
G1 X201.602Y217.214
G1 X201.946Y217.381
G1 X202.308Y217.514
G1 X202.685Y217.612
G1 X203.075Y217.672
G1 X203.476Y217.692
G1 X237.926
G1 X238.328Y217.672
G1 X238.718Y217.612
G1 X239.095Y217.514
G1 X239.457Y217.381
G1 X239.801Y217.214
G1 X240.126Y217.016
G1 X240.43Y216.789
G1 X240.71Y216.534
G1 X240.965Y216.254
G1 X241.193Y215.95
G1 X241.391Y215.625
G1 X241.557Y215.281
G1 X241.69Y214.919
G1 X241.788Y214.542
G1 X241.848Y214.152
G1 X241.868Y213.75
G1 X241.848Y213.349
G1 X241.788Y212.959
G1 X241.69Y212.582
G1 X241.557Y212.22
G1 X241.391Y211.876
G1 X241.193Y211.551
G1 X240.965Y211.247
G1 X240.71Y210.967
G1 X240.43Y210.712
G1 X240.126Y210.484
G1 X239.801Y210.286
G1 X239.457Y210.12
G1 X239.095Y209.987
G1 X238.718Y209.889
G1 X238.328Y209.829
G1 X237.926Y209.809
G1 X203.476
G1 X203.075Y209.829
G1 X202.685Y209.889
G1 X202.308Y209.987
G1 X201.946Y210.12
G1 X201.602Y210.286
G1 X201.276Y210.484
G1 X200.973Y210.712
G1 X200.693Y210.967
G1 X200.438Y211.247
G1 X200.21Y211.551
G1 X200.012Y211.876
G1 X199.846Y212.22
G1 X199.713Y212.582
G1 X199.615Y212.959
G1 X199.555Y213.349
G1 X199.535Y213.75
G1 X199.555Y214.152
G1 X199.545Y213.848
G0 X41.594Y167.324
G1 X41.192Y167.344
G1 X40.802Y167.404
G1 X40.425Y167.502
G1 X40.063Y167.635
G1 X39.719Y167.801
G1 X39.394Y167.999
G1 X39.09Y168.227
G1 X38.81Y168.482
G1 X38.555Y168.762
G1 X38.328Y169.066
G1 X38.13Y169.391
G1 X37.963Y169.735
G1 X37.83Y170.097
G1 X37.733Y170.474
G1 X37.673Y170.864
G1 X37.652Y171.266
G1 Y205.716
G1 X37.673Y206.117
G1 X37.733Y206.507
G1 X37.83Y206.884
G1 X37.963Y207.246
G1 X38.13Y207.59
G1 X38.328Y207.915
G1 X38.555Y208.219
G1 X38.81Y208.499
G1 X39.09Y208.754
G1 X39.394Y208.982
G1 X39.719Y209.18
G1 X40.063Y209.346
G1 X40.425Y209.479
G1 X40.802Y209.577
G1 X41.192Y209.637
G1 X41.594Y209.657
G1 X41.995Y209.637
G1 X42.385Y209.577
G1 X42.762Y209.479
G1 X43.124Y209.346
G1 X43.468Y209.18
G1 X43.793Y208.982
G1 X44.097Y208.754
G1 X44.377Y208.499
G1 X44.632Y208.219
G1 X44.86Y207.915
G1 X45.058Y207.59
G1 X45.224Y207.246
G1 X45.357Y206.884
G1 X45.455Y206.507
G1 X45.515Y206.117
G1 X45.535Y205.716
G1 Y171.266
G1 X45.515Y170.864
G1 X45.455Y170.474
G1 X45.357Y170.097
G1 X45.224Y169.735
G1 X45.058Y169.391
G1 X44.86Y169.066
G1 X44.632Y168.762
G1 X44.377Y168.482
G1 X44.097Y168.227
G1 X43.793Y167.999
G1 X43.468Y167.801
G1 X43.124Y167.635
G1 X42.762Y167.502
G1 X42.385Y167.404
G1 X41.995Y167.344
G1 X41.594Y167.324
G1 X41.192Y167.344
G1 X41.496Y167.334
G0 X15.097Y147.48
G1 X14.722Y147.596
G1 X14.382Y147.781
G1 X14.086Y148.025
G1 X13.842Y148.321
G1 X13.657Y148.661
G1 X13.541Y149.036
G1 X13.5Y149.439
G1 X13.541Y149.842
G1 X13.657Y150.218
G1 X13.842Y150.557
G1 X14.086Y150.853
G1 X14.382Y151.097
G1 X14.722Y151.282
G1 X15.097Y151.398
G1 X15.5Y151.439
G1 X15.903Y151.398
G1 X16.279Y151.282
G1 X16.618Y151.097
G1 X16.914Y150.853
G1 X17.159Y150.557
G1 X17.343Y150.218
G1 X17.459Y149.842
G1 X17.5Y149.439
G1 X17.459Y149.036
G1 X17.343Y148.661
G1 X17.159Y148.321
G1 X16.914Y148.025
G1 X16.618Y147.781
G1 X16.279Y147.596
G1 X15.903Y147.48
G1 X15.5Y147.439
G1 X15.097Y147.48
G1 X14.722Y147.596
G1 X14.999Y147.521
G0 X94.214Y217.692
G1 X128.664
G1 X129.065Y217.672
G1 X129.456Y217.612
G1 X129.833Y217.514
G1 X130.194Y217.381
G1 X130.539Y217.214
G1 X130.864Y217.016
G1 X131.167Y216.789
G1 X131.447Y216.534
G1 X131.702Y216.254
G1 X131.93Y215.95
G1 X132.128Y215.625
G1 X132.294Y215.281
G1 X132.427Y214.919
G1 X132.525Y214.542
G1 X132.585Y214.152
G1 X132.605Y213.75
G1 X132.585Y213.349
G1 X132.525Y212.959
G1 X132.427Y212.582
G1 X132.294Y212.22
G1 X132.128Y211.876
G1 X131.93Y211.551
G1 X131.702Y211.247
G1 X131.447Y210.967
G1 X131.167Y210.712
G1 X130.864Y210.484
G1 X130.539Y210.286
G1 X130.194Y210.12
G1 X129.833Y209.987
G1 X129.456Y209.889
G1 X129.065Y209.829
G1 X128.664Y209.809
G1 X94.214
G1 X93.812Y209.829
G1 X93.422Y209.889
G1 X93.045Y209.987
G1 X92.683Y210.12
G1 X92.339Y210.286
G1 X92.014Y210.484
G1 X91.71Y210.712
G1 X91.43Y210.967
G1 X91.175Y211.247
G1 X90.948Y211.551
G1 X90.75Y211.876
G1 X90.583Y212.22
G1 X90.45Y212.582
G1 X90.352Y212.959
G1 X90.292Y213.349
G1 X90.272Y213.75
G1 X90.292Y214.152
G1 X90.352Y214.542
G1 X90.45Y214.919
G1 X90.583Y215.281
G1 X90.75Y215.625
G1 X90.948Y215.95
G1 X91.175Y216.254
G1 X91.43Y216.534
G1 X91.71Y216.789
G1 X92.014Y217.016
G1 X92.339Y217.214
G1 X92.683Y217.381
G1 X93.045Y217.514
G1 X93.422Y217.612
G1 X93.812Y217.672
G1 X94.214Y217.692
G1 X94.714
G0 X187.237Y213.75
G1 X187.216Y213.349
G1 X187.156Y212.959
G1 X187.059Y212.582
G1 X186.926Y212.22
G1 X186.759Y211.876
G1 X186.561Y211.551
G1 X186.334Y211.247
G1 X186.079Y210.967
G1 X185.799Y210.712
G1 X185.495Y210.484
G1 X185.17Y210.286
G1 X184.826Y210.12
G1 X184.464Y209.987
G1 X184.087Y209.889
G1 X183.697Y209.829
G1 X183.295Y209.809
G1 X148.845
G1 X148.443Y209.829
G1 X148.053Y209.889
G1 X147.676Y209.987
G1 X147.314Y210.12
G1 X146.97Y210.286
G1 X146.645Y210.484
G1 X146.341Y210.712
G1 X146.061Y210.967
G1 X145.806Y211.247
G1 X145.579Y211.551
G1 X145.381Y211.876
G1 X145.214Y212.22
G1 X145.081Y212.582
G1 X144.984Y212.959
G1 X144.924Y213.349
G1 X144.903Y213.75
G1 X144.924Y214.152
G1 X144.984Y214.542
G1 X145.081Y214.919
G1 X145.214Y215.281
G1 X145.381Y215.625
G1 X145.579Y215.95
G1 X145.806Y216.254
G1 X146.061Y216.534
G1 X146.341Y216.789
G1 X146.645Y217.016
G1 X146.97Y217.214
G1 X147.314Y217.381
G1 X147.676Y217.514
G1 X148.053Y217.612
G1 X148.443Y217.672
G1 X148.845Y217.692
G1 X183.295
G1 X183.697Y217.672
G1 X184.087Y217.612
G1 X184.464Y217.514
G1 X184.826Y217.381
G1 X185.17Y217.214
G1 X185.495Y217.016
G1 X185.799Y216.789
G1 X186.079Y216.534
G1 X186.334Y216.254
G1 X186.561Y215.95
G1 X186.759Y215.625
G1 X186.926Y215.281
G1 X187.059Y214.919
G1 X187.156Y214.542
G1 X187.216Y214.152
G1 X187.237Y213.75
G1 X187.216Y213.349
G1 X187.227Y213.653
G0 X216.68Y232.123
G1 X217.056Y232.007
G1 X217.395Y231.822
G1 X217.691Y231.578
G1 X217.936Y231.282
G1 X218.12Y230.943
G1 X218.236Y230.567
G1 X218.277Y230.164
G1 X218.236Y229.761
G1 X218.12Y229.386
G1 X217.936Y229.046
G1 X217.691Y228.75
G1 X217.395Y228.506
G1 X217.056Y228.321
G1 X216.68Y228.205
G1 X216.277Y228.164
G1 X215.874Y228.205
G1 X215.499Y228.321
G1 X215.159Y228.506
G1 X214.863Y228.75
G1 X214.619Y229.046
G1 X214.434Y229.386
G1 X214.318Y229.761
G1 X214.277Y230.164
G1 X214.318Y230.567
G1 X214.434Y230.943
G1 X214.619Y231.282
G1 X214.863Y231.578
G1 X215.159Y231.822
G1 X215.499Y232.007
G1 X215.874Y232.123
G1 X216.277Y232.164
G1 X216.68Y232.123
G1 X217.056Y232.007
G1 X216.779Y232.082
G0 X214.318Y244.678
G1 X214.434Y245.054
G1 X214.619Y245.393
G1 X214.863Y245.689
G1 X215.159Y245.934
G1 X215.499Y246.118
G1 X215.874Y246.235
G1 X216.277Y246.275
G1 X216.68Y246.235
G1 X217.056Y246.118
G1 X217.395Y245.934
G1 X217.691Y245.689
G1 X217.936Y245.393
G1 X218.12Y245.054
G1 X218.236Y244.678
G1 X218.277Y244.275
G1 X218.236Y243.872
G1 X218.12Y243.497
G1 X217.936Y243.157
G1 X217.691Y242.861
G1 X217.395Y242.617
G1 X217.056Y242.432
G1 X216.68Y242.316
G1 X216.277Y242.275
G1 X215.874Y242.316
G1 X215.499Y242.432
G1 X215.159Y242.617
G1 X214.863Y242.861
G1 X214.619Y243.157
G1 X214.434Y243.497
G1 X214.318Y243.872
G1 X214.277Y244.275
G1 X214.318Y244.678
G1 X214.434Y245.054
G1 X214.359Y244.777
G0 X207.681Y251.734
G1 X207.798Y252.109
G1 X207.982Y252.449
G1 X208.226Y252.745
G1 X208.522Y252.989
G1 X208.862Y253.174
G1 X209.237Y253.29
G1 X209.64Y253.331
G1 X210.044Y253.29
G1 X210.419Y253.174
G1 X210.759Y252.989
G1 X211.055Y252.745
G1 X211.299Y252.449
G1 X211.483Y252.109
G1 X211.6Y251.734
G1 X211.64Y251.331
G1 X211.6Y250.928
G1 X211.483Y250.552
G1 X211.299Y250.213
G1 X211.055Y249.916
G1 X210.759Y249.672
G1 X210.419Y249.488
G1 X210.044Y249.371
G1 X209.64Y249.331
G1 X209.237Y249.371
G1 X208.862Y249.488
G1 X208.522Y249.672
G1 X208.226Y249.916
G1 X207.982Y250.213
G1 X207.798Y250.552
G1 X207.681Y250.928
G1 X207.641Y251.331
G1 X207.681Y251.734
G1 X207.798Y252.109
G1 X207.723Y251.832
G0 X202.601Y249.371
G1 X202.225Y249.488
G1 X201.886Y249.672
G1 X201.59Y249.916
G1 X201.345Y250.213
G1 X201.161Y250.552
G1 X201.044Y250.928
G1 X201.004Y251.331
G1 X201.044Y251.734
G1 X201.161Y252.109
G1 X201.345Y252.449
G1 X201.59Y252.745
G1 X201.886Y252.989
G1 X202.225Y253.174
G1 X202.601Y253.29
G1 X203.004Y253.331
G1 X203.407Y253.29
G1 X203.782Y253.174
G1 X204.122Y252.989
G1 X204.418Y252.745
G1 X204.662Y252.449
G1 X204.846Y252.109
G1 X204.963Y251.734
G1 X205.004Y251.331
G1 X204.963Y250.928
G1 X204.846Y250.552
G1 X204.662Y250.213
G1 X204.418Y249.916
G1 X204.122Y249.672
G1 X203.782Y249.488
G1 X203.407Y249.371
G1 X203.004Y249.331
G1 X202.601Y249.371
G1 X202.225Y249.488
G1 X202.502Y249.413
G0 X204.963Y243.872
G1 X204.846Y243.497
G1 X204.662Y243.157
G1 X204.418Y242.861
G1 X204.122Y242.617
G1 X203.782Y242.432
G1 X203.407Y242.316
G1 X203.004Y242.275
G1 X202.601Y242.316
G1 X202.225Y242.432
G1 X201.886Y242.617
G1 X201.59Y242.861
G1 X201.345Y243.157
G1 X201.161Y243.497
G1 X201.044Y243.872
G1 X201.004Y244.275
G1 X201.044Y244.678
G1 X201.161Y245.054
G1 X201.345Y245.393
G1 X201.59Y245.689
G1 X201.886Y245.934
G1 X202.225Y246.118
G1 X202.601Y246.235
G1 X203.004Y246.275
G1 X203.407Y246.235
G1 X203.782Y246.118
G1 X204.122Y245.934
G1 X204.418Y245.689
G1 X204.662Y245.393
G1 X204.846Y245.054
G1 X204.963Y244.678
G1 X205.004Y244.275
G1 X204.963Y243.872
G1 X204.846Y243.497
G1 X204.921Y243.774
G0 X210.044Y246.235
G1 X210.419Y246.118
G1 X210.759Y245.934
G1 X211.055Y245.689
G1 X211.299Y245.393
G1 X211.483Y245.054
G1 X211.6Y244.678
G1 X211.64Y244.275
G1 X211.6Y243.872
G1 X211.483Y243.497
G1 X211.299Y243.157
G1 X211.055Y242.861
G1 X210.759Y242.617
G1 X210.419Y242.432
G1 X210.044Y242.316
G1 X209.64Y242.275
G1 X209.237Y242.316
G1 X208.862Y242.432
G1 X208.522Y242.617
G1 X208.226Y242.861
G1 X207.982Y243.157
G1 X207.798Y243.497
G1 X207.681Y243.872
G1 X207.641Y244.275
G1 X207.681Y244.678
G1 X207.798Y245.054
G1 X207.982Y245.393
G1 X208.226Y245.689
G1 X208.522Y245.934
G1 X208.862Y246.118
G1 X209.237Y246.235
G1 X209.64Y246.275
G1 X210.044Y246.235
G1 X210.419Y246.118
G1 X210.142Y246.193
G0 X216.68Y253.29
G1 X217.056Y253.174
G1 X217.395Y252.989
G1 X217.691Y252.745
G1 X217.936Y252.449
G1 X218.12Y252.109
G1 X218.236Y251.734
G1 X218.277Y251.331
G1 X218.236Y250.928
G1 X218.12Y250.552
G1 X217.936Y250.213
G1 X217.691Y249.916
G1 X217.395Y249.672
G1 X217.056Y249.488
G1 X216.68Y249.371
G1 X216.277Y249.331
G1 X215.874Y249.371
G1 X215.499Y249.488
G1 X215.159Y249.672
G1 X214.863Y249.916
G1 X214.619Y250.213
G1 X214.434Y250.552
G1 X214.318Y250.928
G1 X214.277Y251.331
G1 X214.318Y251.734
G1 X214.434Y252.109
G1 X214.619Y252.449
G1 X214.863Y252.745
G1 X215.159Y252.989
G1 X215.499Y253.174
G1 X215.874Y253.29
G1 X216.277Y253.331
G1 X216.68Y253.29
G1 X217.056Y253.174
G1 X216.779Y253.249
G0 X224.873Y250.928
G1 X224.757Y250.552
G1 X224.572Y250.213
G1 X224.328Y249.916
G1 X224.032Y249.672
G1 X223.692Y249.488
G1 X223.317Y249.371
G1 X222.914Y249.331
G1 X222.511Y249.371
G1 X222.135Y249.488
G1 X221.796Y249.672
G1 X221.5Y249.916
G1 X221.256Y250.213
G1 X221.071Y250.552
G1 X220.955Y250.928
G1 X220.914Y251.331
G1 X220.955Y251.734
G1 X221.071Y252.109
G1 X221.256Y252.449
G1 X221.5Y252.745
G1 X221.796Y252.989
G1 X222.135Y253.174
G1 X222.511Y253.29
G1 X222.914Y253.331
G1 X223.317Y253.29
G1 X223.692Y253.174
G1 X224.032Y252.989
G1 X224.328Y252.745
G1 X224.572Y252.449
G1 X224.757Y252.109
G1 X224.873Y251.734
G1 X224.914Y251.331
G1 X224.873Y250.928
G1 X224.757Y250.552
G1 X224.832Y250.829
G0 X229.954Y253.29
G1 X230.329Y253.174
G1 X230.669Y252.989
G1 X230.965Y252.745
G1 X231.209Y252.449
G1 X231.393Y252.109
G1 X231.51Y251.734
G1 X231.551Y251.331
G1 X231.51Y250.928
G1 X231.393Y250.552
G1 X231.209Y250.213
G1 X230.965Y249.916
G1 X230.669Y249.672
G1 X230.329Y249.488
G1 X229.954Y249.371
G1 X229.551Y249.331
G1 X229.148Y249.371
G1 X228.772Y249.488
G1 X228.433Y249.672
G1 X228.137Y249.916
G1 X227.892Y250.213
G1 X227.708Y250.552
G1 X227.591Y250.928
G1 X227.551Y251.331
G1 X227.591Y251.734
G1 X227.708Y252.109
G1 X227.892Y252.449
G1 X228.137Y252.745
G1 X228.433Y252.989
G1 X228.772Y253.174
G1 X229.148Y253.29
G1 X229.551Y253.331
G1 X229.954Y253.29
G1 X230.329Y253.174
G1 X230.052Y253.249
G0 X238.147Y250.928
G1 X238.03Y250.552
G1 X237.846Y250.213
G1 X237.602Y249.916
G1 X237.306Y249.672
G1 X236.966Y249.488
G1 X236.591Y249.371
G1 X236.187Y249.331
G1 X235.784Y249.371
G1 X235.409Y249.488
G1 X235.069Y249.672
G1 X234.773Y249.916
G1 X234.529Y250.213
G1 X234.345Y250.552
G1 X234.228Y250.928
G1 X234.188Y251.331
G1 X234.228Y251.734
G1 X234.345Y252.109
G1 X234.529Y252.449
G1 X234.773Y252.745
G1 X235.069Y252.989
G1 X235.409Y253.174
G1 X235.784Y253.29
G1 X236.187Y253.331
G1 X236.591Y253.29
G1 X236.966Y253.174
G1 X237.306Y252.989
G1 X237.602Y252.745
G1 X237.846Y252.449
G1 X238.03Y252.109
G1 X238.147Y251.734
G1 X238.187Y251.331
G1 X238.147Y250.928
G1 X238.03Y250.552
G1 X238.105Y250.829
G0 X243.227Y253.29
G1 X243.603Y253.174
G1 X243.942Y252.989
G1 X244.238Y252.745
G1 X244.483Y252.449
G1 X244.667Y252.109
G1 X244.784Y251.734
G1 X244.824Y251.331
G1 X244.784Y250.928
G1 X244.667Y250.552
G1 X244.483Y250.213
G1 X244.238Y249.916
G1 X243.942Y249.672
G1 X243.603Y249.488
G1 X243.227Y249.371
G1 X242.824Y249.331
G1 X242.421Y249.371
G1 X242.046Y249.488
G1 X241.706Y249.672
G1 X241.41Y249.916
G1 X241.166Y250.213
G1 X240.982Y250.552
G1 X240.865Y250.928
G1 X240.824Y251.331
G1 X240.865Y251.734
G1 X240.982Y252.109
G1 X241.166Y252.449
G1 X241.41Y252.745
G1 X241.706Y252.989
G1 X242.046Y253.174
G1 X242.421Y253.29
G1 X242.824Y253.331
G1 X243.227Y253.29
G1 X243.603Y253.174
G1 X243.326Y253.249
G0 X251.42Y250.928
G1 X251.304Y250.552
G1 X251.119Y250.213
G1 X250.875Y249.916
G1 X250.579Y249.672
G1 X250.239Y249.488
G1 X249.864Y249.371
G1 X249.461Y249.331
G1 X249.058Y249.371
G1 X248.683Y249.488
G1 X248.343Y249.672
G1 X248.047Y249.916
G1 X247.803Y250.213
G1 X247.618Y250.552
G1 X247.502Y250.928
G1 X247.461Y251.331
G1 X247.502Y251.734
G1 X247.618Y252.109
G1 X247.803Y252.449
G1 X248.047Y252.745
G1 X248.343Y252.989
G1 X248.683Y253.174
G1 X249.058Y253.29
G1 X249.461Y253.331
G1 X249.864Y253.29
G1 X250.239Y253.174
G1 X250.579Y252.989
G1 X250.875Y252.745
G1 X251.119Y252.449
G1 X251.304Y252.109
G1 X251.42Y251.734
G1 X251.461Y251.331
G1 X251.42Y250.928
G1 X251.304Y250.552
G1 X251.379Y250.829
G0 X256.501Y253.29
G1 X256.876Y253.174
G1 X257.216Y252.989
G1 X257.512Y252.745
G1 X257.756Y252.449
G1 X257.94Y252.109
G1 X258.057Y251.734
G1 X258.098Y251.331
G1 X258.057Y250.928
G1 X257.94Y250.552
G1 X257.756Y250.213
G1 X257.512Y249.916
G1 X257.216Y249.672
G1 X256.876Y249.488
G1 X256.501Y249.371
G1 X256.098Y249.331
G1 X255.695Y249.371
G1 X255.319Y249.488
G1 X254.98Y249.672
G1 X254.684Y249.916
G1 X254.439Y250.213
G1 X254.255Y250.552
G1 X254.138Y250.928
G1 X254.098Y251.331
G1 X254.138Y251.734
G1 X254.255Y252.109
G1 X254.439Y252.449
G1 X254.684Y252.745
G1 X254.98Y252.989
G1 X255.319Y253.174
G1 X255.695Y253.29
G1 X256.098Y253.331
G1 X256.501Y253.29
G1 X256.876Y253.174
G1 X256.599Y253.249
G0 X264.694Y243.872
G1 X264.577Y243.497
G1 X264.393Y243.157
G1 X264.149Y242.861
G1 X263.853Y242.617
G1 X263.513Y242.432
G1 X263.138Y242.316
G1 X262.734Y242.275
G1 X262.331Y242.316
G1 X261.956Y242.432
G1 X261.616Y242.617
G1 X261.32Y242.861
G1 X261.076Y243.157
G1 X260.892Y243.497
G1 X260.775Y243.872
G1 X260.735Y244.275
G1 X260.775Y244.678
G1 X260.892Y245.054
G1 X261.076Y245.393
G1 X261.32Y245.689
G1 X261.616Y245.934
G1 X261.956Y246.118
G1 X262.331Y246.235
G1 X262.734Y246.275
G1 X263.138Y246.235
G1 X263.513Y246.118
G1 X263.853Y245.934
G1 X264.149Y245.689
G1 X264.393Y245.393
G1 X264.577Y245.054
G1 X264.694Y244.678
G1 X264.734Y244.275
G1 X264.694Y243.872
G1 X264.577Y243.497
G1 X264.652Y243.774
G0 X254.98Y245.934
G1 X255.319Y246.118
G1 X255.695Y246.235
