; LightBurn 1.7.04
; GRBL device profile, absolute coords
; Bounds: X15 Y50 to X385 Y350
G00 G17 G40 G21 G54
G90
M4
; Cut @ 30 mm/sec, 50% power
M8
G0 X203.874Y338.906
; Layer C11
G1 X206.486S500F1800
G0 X206.486Y337.506
G1 X203.874
G0 X203.874Y336.106
G1 X206.486
G0 X206.486Y334.706
G1 X203.874
G0 X206.486Y333.306
G1 X200.847
G0 X203.874Y331.906
G1 X206.486
G0 X206.486Y330.506
G1 X203.874
G0 X203.874Y329.106
G1 X206.486
G0 X206.486Y327.706
G1 X203.874
G0 X206.486Y326.306
G1 X200.847
G0 X201.263Y202.699
G1 Y197.301
G0 X200.263Y198.75
G1 Y201.25
G0 X199.263Y201.25
G1 Y198.75
G0 X198.263Y198.75
G1 Y201.25
G0 X197.263Y201.25
G1 Y198.75
G0 X202.263Y198.75
G1 Y201.25
G0 X203.263Y201.25
G1 Y198.75
G0 X204.263Y198.75
G1 Y201.25
G0 X205.263Y201.25
G1 Y198.75
G0 X201.263Y170
G1 X199.719Y170.039
G1 X198.195Y170.155
G1 X196.694Y170.346
G1 X195.217Y170.609
G1 X193.765Y170.944
G1 X192.342Y171.349
G1 X190.948Y171.82
G1 X189.585Y172.358
G1 X188.256Y172.958
G1 X186.963Y173.621
G1 X185.707Y174.343
G1 X184.489Y175.123
G1 X183.313Y175.96
G1 X182.18Y176.85
G1 X181.091Y177.793
G1 X180.049Y178.787
G1 X179.056Y179.829
G1 X178.113Y180.917
G1 X177.222Y182.05
G1 X176.386Y183.227
G1 X175.606Y184.444
G1 X174.883Y185.7
G1 X174.221Y186.994
G1 X173.62Y188.323
G1 X173.083Y189.685
G1 X172.611Y191.079
G1 X172.207Y192.502
G1 X171.872Y193.954
G1 X171.608Y195.431
G1 X171.417Y196.933
G1 X171.301Y198.456
G1 X171.262Y200
G1 X171.301Y201.544
G1 X171.417Y203.067
G1 X171.608Y204.569
G1 X171.872Y206.046
G1 X172.207Y207.497
G1 X172.611Y208.921
G1 X173.083Y210.315
G1 X173.62Y211.677
G1 X174.221Y213.006
G1 X174.883Y214.3
G1 X175.606Y215.556
G1 X176.386Y216.773
G1 X177.222Y217.949
G1 X178.113Y219.083
G1 X179.056Y220.171
G1 X180.049Y221.213
G1 X181.091Y222.206
G1 X182.18Y223.149
G1 X183.313Y224.04
G1 X184.489Y224.876
G1 X185.707Y225.657
G1 X186.963Y226.379
G1 X188.256Y227.041
G1 X189.585Y227.642
G1 X190.948Y228.179
G1 X192.342Y228.651
G1 X193.765Y229.055
G1 X195.217Y229.39
G1 X196.694Y229.654
G1 X198.195Y229.845
G1 X199.719Y229.961
G1 X201.263Y230
G1 X202.806Y229.961
G1 X204.33Y229.845
G1 X205.831Y229.654
G1 X207.309Y229.39
G1 X208.76Y229.055
G1 X210.184Y228.651
G1 X211.578Y228.179
G1 X212.94Y227.642
G1 X214.269Y227.041
G1 X215.562Y226.379
G1 X216.819Y225.657
G1 X218.036Y224.876
G1 X219.212Y224.04
G1 X220.345Y223.149
G1 X221.434Y222.206
G1 X222.476Y221.213
G1 X223.469Y220.171
G1 X224.412Y219.083
G1 X225.303Y217.949
G1 X226.139Y216.773
G1 X226.919Y215.556
G1 X227.642Y214.3
G1 X228.304Y213.006
G1 X228.905Y211.677
G1 X229.442Y210.315
G1 X229.914Y208.921
G1 X230.318Y207.497
G1 X230.653Y206.046
G1 X230.917Y204.569
G1 X231.108Y203.067
G1 X231.224Y201.544
G1 X231.263Y200
G1 X231.224Y198.456
G1 X231.108Y196.933
G1 X230.917Y195.431
G1 X230.653Y193.954
G1 X230.318Y192.502
G1 X229.914Y191.079
G1 X229.442Y189.685
G1 X228.905Y188.323
G1 X228.304Y186.994
G1 X227.642Y185.7
G1 X226.919Y184.444
G1 X226.139Y183.227
G1 X225.303Y182.05
G1 X224.412Y180.917
G1 X223.469Y179.829
G1 X222.476Y178.787
G1 X221.434Y177.793
G1 X220.345Y176.85
G1 X219.212Y175.96
G1 X218.036Y175.123
G1 X216.819Y174.343
G1 X215.562Y173.621
G1 X214.269Y172.958
G1 X212.94Y172.358
G1 X211.578Y171.82
G1 X210.184Y171.349
G1 X208.76Y170.944
G1 X207.309Y170.609
G1 X205.831Y170.346
G1 X204.33Y170.155
G1 X202.806Y170.039
G1 X201.263Y170
G0 X161.262Y200
G1 X161.276Y201.032
G1 X161.315Y202.058
G1 X161.379Y203.077
G1 X161.469Y204.09
G1 X161.584Y205.094
G1 X161.723Y206.091
G1 X161.887Y207.081
G1 X162.075Y208.061
G1 X162.522Y209.996
G1 X163.061Y211.895
G1 X163.69Y213.753
G1 X164.406Y215.57
G1 X165.207Y217.341
G1 X166.09Y219.066
G1 X167.053Y220.741
G1 X168.094Y222.364
G1 X169.209Y223.932
G1 X170.397Y225.444
G1 X171.654Y226.895
G1 X172.978Y228.284
G1 X174.367Y229.609
G1 X175.819Y230.866
G1 X177.33Y232.053
G1 X178.898Y233.169
G1 X180.521Y234.209
G1 X182.196Y235.172
G1 X183.921Y236.055
G1 X185.693Y236.857
G1 X187.509Y237.573
G1 X189.368Y238.202
G1 X191.266Y238.741
G1 X193.201Y239.187
G1 X194.182Y239.375
G1 X195.171Y239.539
G1 X196.168Y239.679
G1 X197.173Y239.793
G1 X198.185Y239.883
G1 X199.204Y239.948
G1 X200.23Y239.987
G1 X201.263Y240
G1 X202.295Y239.987
G1 X203.321Y239.948
G1 X204.34Y239.883
G1 X205.352Y239.793
G1 X206.357Y239.679
G1 X207.354Y239.539
G1 X208.343Y239.375
G1 X209.324Y239.187
G1 X211.259Y238.741
G1 X213.157Y238.202
G1 X215.016Y237.573
G1 X216.832Y236.857
G1 X218.604Y236.055
G1 X220.329Y235.172
G1 X222.004Y234.209
G1 X223.627Y233.169
G1 X225.195Y232.053
G1 X226.706Y230.866
G1 X228.158Y229.609
G1 X229.547Y228.284
G1 X230.871Y226.895
G1 X232.128Y225.444
G1 X233.316Y223.932
G1 X234.431Y222.364
G1 X235.472Y220.741
G1 X236.435Y219.066
G1 X237.318Y217.341
G1 X238.119Y215.57
G1 X238.835Y213.753
G1 X239.464Y211.895
G1 X240.003Y209.996
G1 X240.45Y208.061
G1 X240.638Y207.081
G1 X240.802Y206.091
G1 X240.941Y205.094
G1 X241.056Y204.09
G1 X241.146Y203.077
G1 X241.211Y202.058
G1 X241.25Y201.032
G1 X241.263Y200
G1 X241.25Y198.967
G1 X241.211Y197.941
G1 X241.146Y196.922
G1 X241.056Y195.91
G1 X240.941Y194.905
G1 X240.802Y193.908
G1 X240.638Y192.919
G1 X240.45Y191.939
G1 X240.003Y190.003
G1 X239.464Y188.105
G1 X238.835Y186.247
G1 X238.119Y184.43
G1 X237.318Y182.658
G1 X236.435Y180.934
G1 X235.472Y179.258
G1 X234.431Y177.635
G1 X233.316Y176.067
G1 X232.128Y174.556
G1 X230.871Y173.105
G1 X229.547Y171.716
G1 X228.158Y170.391
G1 X226.706Y169.134
G1 X225.195Y167.946
G1 X223.627Y166.831
G1 X222.004Y165.791
G1 X220.329Y164.828
G1 X218.604Y163.944
G1 X216.832Y163.143
G1 X215.016Y162.427
G1 X213.157Y161.798
G1 X211.259Y161.259
G1 X209.324Y160.812
G1 X208.343Y160.625
G1 X207.354Y160.461
G1 X206.357Y160.321
G1 X205.352Y160.206
G1 X204.34Y160.116
G1 X203.321Y160.052
G1 X202.295Y160.013
G1 X201.263Y160
G1 X200.23Y160.013
G1 X199.204Y160.052
G1 X198.185Y160.116
G1 X197.173Y160.206
G1 X196.168Y160.321
G1 X195.171Y160.461
G1 X194.182Y160.625
G1 X193.201Y160.812
G1 X191.266Y161.259
G1 X189.368Y161.798
G1 X187.509Y162.427
G1 X185.693Y163.143
G1 X183.921Y163.944
G1 X182.196Y164.828
G1 X180.521Y165.791
G1 X178.898Y166.831
G1 X177.33Y167.946
G1 X175.819Y169.134
G1 X174.367Y170.391
G1 X172.978Y171.716
G1 X171.654Y173.105
G1 X170.397Y174.556
G1 X169.209Y176.067
G1 X168.094Y177.635
G1 X167.053Y179.258
G1 X166.09Y180.934
G1 X165.207Y182.658
G1 X164.406Y184.43
G1 X163.69Y186.247
G1 X163.061Y188.105
G1 X162.522Y190.003
G1 X162.075Y191.939
G1 X161.887Y192.919
G1 X161.723Y193.908
G1 X161.584Y194.905
G1 X161.469Y195.91
G1 X161.379Y196.922
G1 X161.315Y197.941
G1 X161.276Y198.967
G1 X161.262Y200
G0 X201.263Y250
G1 X202.553Y249.984
G1 X203.836Y249.935
G1 X205.11Y249.854
G1 X206.375Y249.742
G1 X207.631Y249.598
G1 X208.877Y249.424
G1 X210.113Y249.219
G1 X211.339Y248.984
G1 X212.554Y248.72
G1 X213.758Y248.426
G1 X214.951Y248.103
G1 X216.131Y247.752
G1 X217.299Y247.373
G1 X218.454Y246.966
G1 X219.596Y246.532
G1 X220.725Y246.071
G1 X221.839Y245.583
G1 X222.94Y245.069
G1 X224.025Y244.53
G1 X225.096Y243.965
G1 X226.15Y243.376
G1 X227.189Y242.761
G1 X228.212Y242.123
G1 X229.218Y241.461
G1 X230.207Y240.775
G1 X231.178Y240.067
G1 X232.132Y239.336
G1 X233.067Y238.583
G1 X233.984Y237.807
G1 X234.881Y237.011
G1 X235.76Y236.194
G1 X236.618Y235.355
G1 X237.456Y234.497
G1 X238.273Y233.619
G1 X239.07Y232.721
G1 X239.845Y231.805
G1 X240.598Y230.869
G1 X241.329Y229.916
G1 X242.038Y228.945
G1 X242.723Y227.956
G1 X243.385Y226.95
G1 X244.024Y225.927
G1 X244.638Y224.888
G1 X245.228Y223.833
G1 X245.793Y222.763
G1 X246.332Y221.677
G1 X246.846Y220.577
G1 X247.333Y219.462
G1 X247.794Y218.334
G1 X248.229Y217.192
G1 X248.635Y216.037
G1 X249.015Y214.869
G1 X249.366Y213.688
G1 X249.688Y212.496
G1 X249.982Y211.292
G1 X250.247Y210.077
G1 X250.482Y208.851
G1 X250.686Y207.615
G1 X250.861Y206.368
G1 X251.004Y205.112
G1 X251.117Y203.847
G1 X251.197Y202.573
G1 X251.246Y201.291
G1 X251.263Y200
G1 X251.246Y198.71
G1 X251.197Y197.427
G1 X251.117Y196.153
G1 X251.004Y194.888
G1 X250.861Y193.632
G1 X250.686Y192.386
G1 X250.482Y191.149
G1 X250.247Y189.923
G1 X249.982Y188.708
G1 X249.688Y187.504
G1 X249.366Y186.312
G1 X249.015Y185.132
G1 X248.635Y183.964
G1 X248.229Y182.808
G1 X247.794Y181.666
G1 X247.333Y180.538
G1 X246.846Y179.423
G1 X246.332Y178.323
G1 X245.793Y177.237
G1 X245.228Y176.167
G1 X244.638Y175.112
G1 X244.024Y174.073
G1 X243.385Y173.051
G1 X242.723Y172.045
G1 X242.038Y171.056
G1 X241.329Y170.084
G1 X240.598Y169.131
G1 X239.845Y168.195
G1 X239.07Y167.279
G1 X238.273Y166.381
G1 X237.456Y165.503
G1 X236.618Y164.645
G1 X235.76Y163.807
G1 X234.881Y162.989
G1 X233.984Y162.193
G1 X233.067Y161.418
G1 X232.132Y160.664
G1 X231.178Y159.933
G1 X230.207Y159.225
G1 X229.218Y158.539
G1 X228.212Y157.877
G1 X227.189Y157.239
G1 X226.15Y156.625
G1 X225.096Y156.035
G1 X224.025Y155.47
G1 X222.94Y154.931
G1 X221.839Y154.417
G1 X220.725Y153.929
G1 X219.596Y153.468
G1 X218.454Y153.034
G1 X217.299Y152.627
G1 X216.131Y152.248
G1 X214.951Y151.897
G1 X213.758Y151.574
G1 X212.554Y151.281
G1 X211.339Y151.016
G1 X210.113Y150.781
G1 X208.877Y150.576
G1 X207.631Y150.402
G1 X206.375Y150.258
G1 X205.11Y150.146
G1 X203.836Y150.065
G1 X202.553Y150.017
G1 X201.263Y150
G1 X199.972Y150.017
G1 X198.69Y150.065
G1 X197.416Y150.146
G1 X196.15Y150.258
G1 X194.894Y150.402
G1 X193.648Y150.576
G1 X192.412Y150.781
G1 X191.186Y151.016
G1 X189.971Y151.281
G1 X188.767Y151.574
G1 X187.574Y151.897
G1 X186.394Y152.248
G1 X185.226Y152.627
G1 X184.071Y153.034
G1 X182.929Y153.468
G1 X181.8Y153.929
G1 X180.686Y154.417
G1 X179.585Y154.931
G1 X178.5Y155.47
G1 X177.43Y156.035
G1 X176.375Y156.625
G1 X175.336Y157.239
G1 X174.313Y157.877
G1 X173.307Y158.539
G1 X172.318Y159.225
G1 X171.347Y159.933
G1 X170.393Y160.664
G1 X169.458Y161.418
G1 X168.541Y162.193
G1 X167.644Y162.989
G1 X166.765Y163.807
G1 X165.907Y164.645
G1 X165.069Y165.503
G1 X164.252Y166.381
G1 X163.455Y167.279
G1 X162.68Y168.195
G1 X161.927Y169.131
G1 X161.196Y170.084
G1 X160.487Y171.056
G1 X159.802Y172.045
G1 X159.14Y173.051
G1 X158.501Y174.073
G1 X157.887Y175.112
G1 X157.297Y176.167
G1 X156.732Y177.237
G1 X156.193Y178.323
G1 X155.679Y179.423
G1 X155.192Y180.538
G1 X154.731Y181.666
G1 X154.296Y182.808
G1 X153.89Y183.964
G1 X153.51Y185.132
G1 X153.159Y186.312
G1 X152.837Y187.504
G1 X152.543Y188.708
G1 X152.278Y189.923
G1 X152.043Y191.149
G1 X151.839Y192.386
G1 X151.664Y193.632
G1 X151.521Y194.888
G1 X151.408Y196.153
G1 X151.327Y197.427
G1 X151.279Y198.71
G1 X151.262Y200
G1 X151.279Y201.291
G1 X151.327Y202.573
G1 X151.408Y203.847
G1 X151.521Y205.112
G1 X151.664Y206.368
G1 X151.839Y207.615
G1 X152.043Y208.851
G1 X152.278Y210.077
G1 X152.543Y211.292
G1 X152.837Y212.496
G1 X153.159Y213.688
G1 X153.51Y214.869
G1 X153.89Y216.037
G1 X154.296Y217.192
G1 X154.731Y218.334
G1 X155.192Y219.462
G1 X155.679Y220.577
G1 X156.193Y221.677
G1 X156.732Y222.763
G1 X157.297Y223.833
G1 X157.887Y224.888
G1 X158.501Y225.927
G1 X159.14Y226.95
G1 X159.802Y227.956
G1 X160.487Y228.945
G1 X161.196Y229.916
G1 X161.927Y230.869
G1 X162.68Y231.805
G1 X163.455Y232.721
G1 X164.252Y233.619
G1 X165.069Y234.497
G1 X165.907Y235.355
G1 X166.765Y236.194
G1 X167.644Y237.011
G1 X168.541Y237.807
G1 X169.458Y238.583
G1 X170.393Y239.336
G1 X171.347Y240.067
G1 X172.318Y240.775
G1 X173.307Y241.461
G1 X174.313Y242.123
G1 X175.336Y242.761
G1 X176.375Y243.376
G1 X177.43Y243.965
G1 X178.5Y244.53
G1 X179.585Y245.069
G1 X180.686Y245.583
G1 X181.8Y246.071
G1 X182.929Y246.532
G1 X184.071Y246.966
G1 X185.226Y247.373
G1 X186.394Y247.752
G1 X187.574Y248.103
G1 X188.767Y248.426
G1 X189.971Y248.72
G1 X191.186Y248.984
G1 X192.412Y249.219
G1 X193.648Y249.424
G1 X194.894Y249.598
G1 X196.15Y249.742
G1 X197.416Y249.854
G1 X198.69Y249.935
G1 X199.972Y249.984
G1 X201.263Y250
G0 X238.306Y247.203
G1 X239.428Y246.299
G1 X240.528Y245.369
G1 X241.605Y244.413
G1 X242.659Y243.432
G1 X243.689Y242.426
G1 X244.695Y241.396
G1 X245.676Y240.343
G1 X246.631Y239.265
G1 X247.561Y238.165
G1 X248.465Y237.043
G1 X249.343Y235.899
G1 X250.193Y234.733
G1 X251.016Y233.546
G1 X251.81Y232.339
G1 X252.576Y231.112
G1 X253.313Y229.865
G1 X254.021Y228.599
G1 X254.699Y227.315
G1 X255.346Y226.012
G1 X255.962Y224.692
G1 X256.547Y223.355
G1 X257.101Y222
G1 X257.622Y220.63
G1 X258.11Y219.244
G1 X258.565Y217.842
G1 X258.986Y216.426
G1 X259.374Y214.995
G1 X259.726Y213.55
G1 X260.044Y212.092
G1 X260.325Y210.621
G1 X260.571Y209.137
G1 X260.781Y207.642
G1 X260.953Y206.135
G1 X261.088Y204.616
G1 X261.185Y203.087
G1 X261.243Y201.548
G1 X261.263Y200
G1 X261.243Y198.451
G1 X261.185Y196.912
G1 X261.088Y195.383
G1 X260.953Y193.865
G1 X260.781Y192.358
G1 X260.571Y190.862
G1 X260.325Y189.379
G1 X260.044Y187.908
G1 X259.726Y186.45
G1 X259.374Y185.005
G1 X258.986Y183.574
G1 X258.565Y182.158
G1 X258.11Y180.756
G1 X257.622Y179.37
G1 X257.101Y177.999
G1 X256.547Y176.645
G1 X255.962Y175.308
G1 X255.346Y173.987
G1 X254.699Y172.685
G1 X254.021Y171.4
G1 X253.313Y170.134
G1 X252.576Y168.888
G1 X251.81Y167.66
G1 X251.016Y166.453
G1 X250.193Y165.267
G1 X249.343Y164.101
G1 X248.465Y162.957
G1 X247.561Y161.834
G1 X246.631Y160.734
G1 X245.676Y159.657
G1 X244.695Y158.603
G1 X243.689Y157.573
G1 X242.659Y156.568
G1 X241.605Y155.587
G1 X240.528Y154.631
G1 X239.428Y153.701
G1 X238.306Y152.797
G1 X237.161Y151.92
G1 X235.996Y151.069
G1 X234.809Y150.247
G1 X233.602Y149.452
G1 X232.375Y148.686
G1 X231.128Y147.949
G1 X229.862Y147.241
G1 X228.578Y146.564
G1 X227.275Y145.916
G1 X225.955Y145.3
G1 X224.617Y144.715
G1 X223.263Y144.162
G1 X221.893Y143.641
G1 X220.506Y143.152
G1 X219.105Y142.697
G1 X217.688Y142.276
G1 X216.257Y141.889
G1 X214.813Y141.536
G1 X213.355Y141.219
G1 X211.884Y140.937
G1 X210.4Y140.691
G1 X208.904Y140.482
G1 X207.397Y140.31
G1 X205.879Y140.175
G1 X204.35Y140.078
G1 X202.811Y140.019
G1 X201.262Y140
G1 X199.714Y140.019
G1 X198.175Y140.078
G1 X196.646Y140.175
G1 X195.128Y140.31
G1 X193.621Y140.482
G1 X192.125Y140.691
G1 X190.641Y140.937
G1 X189.17Y141.219
G1 X187.712Y141.536
G1 X186.268Y141.889
G1 X184.837Y142.276
G1 X183.42Y142.697
G1 X182.019Y143.152
G1 X180.632Y143.641
G1 X179.262Y144.162
G1 X177.908Y144.715
G1 X176.57Y145.3
G1 X175.25Y145.916
G1 X173.947Y146.564
G1 X172.663Y147.241
G1 X171.397Y147.949
G1 X170.15Y148.686
G1 X168.923Y149.452
G1 X167.716Y150.247
G1 X166.529Y151.069
G1 X165.363Y151.92
G1 X164.219Y152.797
G1 X163.097Y153.701
G1 X161.997Y154.631
G1 X160.92Y155.587
G1 X159.866Y156.568
G1 X158.836Y157.573
G1 X157.83Y158.603
G1 X156.849Y159.657
G1 X155.894Y160.734
G1 X154.964Y161.834
G1 X154.06Y162.957
G1 X153.182Y164.101
G1 X152.332Y165.267
G1 X151.509Y166.453
G1 X150.715Y167.66
G1 X149.949Y168.888
G1 X149.212Y170.134
G1 X148.504Y171.4
G1 X147.826Y172.685
G1 X147.179Y173.987
G1 X146.563Y175.308
G1 X145.978Y176.645
G1 X145.424Y177.999
G1 X144.903Y179.37
G1 X144.415Y180.756
G1 X143.96Y182.158
G1 X143.539Y183.574
G1 X143.151Y185.005
G1 X142.799Y186.45
G1 X142.481Y187.908
G1 X142.2Y189.379
G1 X141.954Y190.862
G1 X141.744Y192.358
G1 X141.572Y193.865
G1 X141.437Y195.383
G1 X141.34Y196.912
G1 X141.282Y198.451
G1 X141.262Y200
G1 X141.282Y201.548
G1 X141.34Y203.087
G1 X141.437Y204.616
G1 X141.572Y206.135
G1 X141.744Y207.642
G1 X141.954Y209.137
G1 X142.2Y210.621
G1 X142.481Y212.092
G1 X142.799Y213.55
G1 X143.151Y214.995
G1 X143.539Y216.426
G1 X143.96Y217.842
G1 X144.415Y219.244
G1 X144.903Y220.63
G1 X145.424Y222
G1 X145.978Y223.355
G1 X146.563Y224.692
G1 X147.179Y226.012
G1 X147.826Y227.315
G1 X148.504Y228.599
G1 X149.212Y229.865
G1 X149.949Y231.112
G1 X150.715Y232.339
G1 X151.509Y233.546
G1 X152.332Y234.733
G1 X153.182Y235.899
G1 X154.06Y237.043
G1 X154.964Y238.165
G1 X155.894Y239.265
G1 X156.849Y240.343
G1 X157.83Y241.396
G1 X158.836Y242.426
G1 X159.866Y243.432
G1 X160.92Y244.413
G1 X161.997Y245.369
G1 X163.097Y246.299
G1 X164.219Y247.203
G1 X165.363Y248.08
G1 X166.529Y248.93
G1 X167.716Y249.753
G1 X168.923Y250.547
G1 X170.15Y251.314
G1 X171.397Y252.051
G1 X172.663Y252.758
G1 X173.947Y253.436
G1 X175.25Y254.083
G1 X176.57Y254.7
G1 X177.908Y255.285
G1 X179.262Y255.838
G1 X180.632Y256.359
G1 X182.019Y256.847
G1 X183.42Y257.302
G1 X184.837Y257.724
G1 X186.268Y258.111
G1 X187.712Y258.464
G1 X189.17Y258.781
G1 X190.641Y259.063
G1 X192.125Y259.309
G1 X193.621Y259.518
G1 X195.128Y259.69
G1 X196.646Y259.825
G1 X198.175Y259.922
G1 X199.714Y259.98
G1 X201.262Y260
G1 X202.811Y259.98
G1 X204.35Y259.922
G1 X205.879Y259.825
G1 X207.397Y259.69
G1 X208.904Y259.518
G1 X210.4Y259.309
G1 X211.884Y259.063
G1 X213.355Y258.781
G1 X214.813Y258.464
G1 X216.257Y258.111
G1 X217.688Y257.724
G1 X219.105Y257.302
G1 X220.506Y256.847
G1 X221.893Y256.359
G1 X223.263Y255.838
G1 X224.617Y255.285
G1 X225.955Y254.7
G1 X227.275Y254.083
G1 X228.578Y253.436
G1 X229.862Y252.758
G1 X231.128Y252.051
G1 X232.375Y251.314
G1 X233.602Y250.547
G1 X234.809Y249.753
G1 X235.996Y248.93
G1 X237.161Y248.08
G1 X238.306Y247.203
G0 X261.988Y234.843
G1 X262.814Y233.366
G1 X263.605Y231.867
G1 X264.36Y230.348
G1 X265.079Y228.807
G1 X265.762Y227.247
G1 X266.407Y225.667
G1 X267.015Y224.068
G1 X267.585Y222.451
G1 X268.115Y220.816
G1 X268.607Y219.163
G1 X269.059Y217.494
G1 X269.47Y215.808
G1 X269.84Y214.107
G1 X270.169Y212.391
G1 X270.456Y210.66
G1 X270.7Y208.915
G1 X270.901Y207.157
G1 X271.058Y205.386
G1 X271.171Y203.602
G1 X271.24Y201.807
G1 X271.263Y200
G1 X271.24Y198.193
G1 X271.171Y196.398
G1 X271.058Y194.614
G1 X270.901Y192.843
G1 X270.7Y191.084
G1 X270.456Y189.34
G1 X270.169Y187.609
G1 X269.84Y185.892
G1 X269.47Y184.191
G1 X269.059Y182.506
G1 X268.607Y180.837
G1 X268.115Y179.184
G1 X267.585Y177.549
G1 X267.015Y175.932
G1 X266.407Y174.333
G1 X265.762Y172.753
G1 X265.079Y171.192
G1 X264.36Y169.652
G1 X263.605Y168.132
G1 X262.814Y166.634
G1 X261.988Y165.157
G1 X261.128Y163.702
G1 X260.235Y162.271
G1 X259.308Y160.862
G1 X258.348Y159.478
G1 X257.356Y158.118
G1 X256.333Y156.783
G1 X255.278Y155.473
G1 X254.193Y154.19
G1 X253.078Y152.934
G1 X251.933Y151.704
G1 X250.76Y150.502
G1 X249.558Y149.329
G1 X248.329Y148.185
G1 X247.072Y147.07
G1 X245.789Y145.985
G1 X244.48Y144.93
G1 X243.145Y143.906
G1 X241.785Y142.915
G1 X240.4Y141.955
G1 X238.992Y141.028
G1 X237.56Y140.134
G1 X236.106Y139.274
G1 X234.629Y138.449
G1 X233.13Y137.658
G1 X231.61Y136.903
G1 X230.07Y136.184
G1 X228.51Y135.501
G1 X226.93Y134.855
G1 X225.331Y134.248
G1 X223.714Y133.678
G1 X222.078Y133.147
G1 X220.426Y132.655
G1 X218.757Y132.204
G1 X217.071Y131.792
G1 X215.37Y131.422
G1 X213.654Y131.093
G1 X211.923Y130.806
G1 X210.178Y130.562
G1 X208.42Y130.361
G1 X206.648Y130.204
G1 X204.865Y130.091
G1 X203.069Y130.023
G1 X201.263Y130
G1 X199.456Y130.023
G1 X197.66Y130.091
G1 X195.877Y130.204
G1 X194.106Y130.361
G1 X192.347Y130.562
G1 X190.602Y130.806
G1 X188.871Y131.093
G1 X187.155Y131.422
G1 X185.454Y131.792
G1 X183.769Y132.204
G1 X182.099Y132.655
G1 X180.447Y133.147
G1 X178.812Y133.678
G1 X177.194Y134.248
G1 X175.595Y134.855
G1 X174.015Y135.501
G1 X172.455Y136.184
G1 X170.915Y136.903
G1 X169.395Y137.658
G1 X167.896Y138.449
G1 X166.42Y139.274
G1 X164.965Y140.134
G1 X163.533Y141.028
G1 X162.125Y141.955
G1 X160.741Y142.915
G1 X159.381Y143.906
G1 X158.046Y144.93
G1 X156.736Y145.985
G1 X155.453Y147.07
G1 X154.196Y148.185
G1 X152.967Y149.329
G1 X151.765Y150.502
G1 X150.592Y151.704
G1 X149.447Y152.934
G1 X148.332Y154.19
G1 X147.247Y155.473
G1 X146.193Y156.783
G1 X145.169Y158.118
G1 X144.177Y159.478
G1 X143.218Y160.862
G1 X142.291Y162.271
G1 X141.397Y163.702
G1 X140.537Y165.157
G1 X139.711Y166.634
G1 X138.921Y168.132
G1 X138.165Y169.652
G1 X137.446Y171.192
G1 X136.764Y172.753
G1 X136.118Y174.333
G1 X135.51Y175.932
G1 X134.941Y177.549
G1 X134.41Y179.184
G1 X133.918Y180.837
G1 X133.466Y182.506
G1 X133.055Y184.191
G1 X132.685Y185.892
G1 X132.356Y187.609
G1 X132.069Y189.34
G1 X131.825Y191.084
G1 X131.624Y192.843
G1 X131.467Y194.614
G1 X131.354Y196.398
G1 X131.286Y198.193
G1 X131.263Y200
G1 X131.286Y201.807
G1 X131.354Y203.602
G1 X131.467Y205.386
G1 X131.624Y207.157
G1 X131.825Y208.915
G1 X132.069Y210.66
G1 X132.356Y212.391
G1 X132.685Y214.107
G1 X133.055Y215.808
G1 X133.466Y217.494
G1 X133.918Y219.163
G1 X134.41Y220.816
G1 X134.941Y222.451
G1 X135.51Y224.068
G1 X136.118Y225.667
G1 X136.764Y227.247
G1 X137.446Y228.807
G1 X138.165Y230.348
G1 X138.921Y231.867
G1 X139.711Y233.366
G1 X140.537Y234.843
G1 X141.397Y236.297
G1 X142.291Y237.729
G1 X143.218Y239.137
G1 X144.177Y240.522
G1 X145.169Y241.882
G1 X146.193Y243.217
G1 X147.247Y244.526
G1 X148.332Y245.81
G1 X149.447Y247.066
G1 X150.592Y248.296
G1 X151.765Y249.497
G1 X152.967Y250.671
G1 X154.196Y251.815
G1 X155.453Y252.93
G1 X156.736Y254.015
G1 X158.046Y255.07
G1 X159.381Y256.093
G1 X160.741Y257.085
G1 X162.125Y258.045
G1 X163.533Y258.972
G1 X164.965Y259.866
G1 X166.42Y260.726
G1 X167.896Y261.551
G1 X169.395Y262.342
G1 X170.915Y263.097
G1 X172.455Y263.816
G1 X174.015Y264.499
G1 X175.595Y265.144
G1 X177.194Y265.752
G1 X178.812Y266.322
G1 X180.447Y266.853
G1 X182.099Y267.344
G1 X183.769Y267.796
G1 X185.454Y268.207
G1 X187.155Y268.578
G1 X188.871Y268.906
G1 X190.602Y269.193
G1 X192.347Y269.437
G1 X194.106Y269.638
G1 X195.877Y269.796
G1 X197.66Y269.909
G1 X199.456Y269.977
G1 X201.263Y270
G1 X203.069Y269.977
G1 X204.865Y269.909
G1 X206.648Y269.796
G1 X208.42Y269.638
G1 X210.178Y269.437
G1 X211.923Y269.193
G1 X213.654Y268.906
G1 X215.37Y268.578
G1 X217.071Y268.207
G1 X218.757Y267.796
G1 X220.426Y267.344
G1 X222.078Y266.853
G1 X223.714Y266.322
G1 X225.331Y265.752
G1 X226.93Y265.144
G1 X228.51Y264.499
G1 X230.07Y263.816
G1 X231.61Y263.097
G1 X233.13Y262.342
G1 X234.629Y261.551
G1 X236.106Y260.726
G1 X237.56Y259.866
G1 X238.992Y258.972
G1 X240.4Y258.045
G1 X241.785Y257.085
G1 X243.145Y256.093
G1 X244.48Y255.07
G1 X245.789Y254.015
G1 X247.072Y252.93
G1 X248.329Y251.815
G1 X249.558Y250.671
G1 X250.76Y249.497
G1 X251.933Y248.296
G1 X253.078Y247.066
G1 X254.193Y245.81
G1 X255.278Y244.526
G1 X256.333Y243.217
G1 X257.356Y241.882
G1 X258.348Y240.522
G1 X259.308Y239.137
G1 X260.235Y237.729
G1 X261.128Y236.297
G1 X261.988Y234.843
G0 X280.013Y214.161
G1 X280.341Y212.183
G1 X280.62Y210.189
G1 X280.849Y208.18
G1 X281.029Y206.155
G1 X281.158Y204.117
G1 X281.236Y202.065
G1 X281.263Y200
G1 X281.236Y197.935
G1 X281.158Y195.883
G1 X281.029Y193.845
G1 X280.849Y191.821
G1 X280.62Y189.811
G1 X280.341Y187.817
G1 X280.013Y185.839
G1 X279.637Y183.877
G1 X279.214Y181.933
G1 X278.744Y180.007
G1 X278.228Y178.099
G1 X277.666Y176.21
G1 X277.059Y174.342
G1 X276.408Y172.493
G1 X275.714Y170.666
G1 X274.976Y168.86
G1 X274.196Y167.077
G1 X273.374Y165.317
G1 X272.511Y163.58
G1 X271.607Y161.867
G1 X270.663Y160.179
G1 X269.681Y158.517
G1 X268.659Y156.881
G1 X267.6Y155.271
G1 X266.503Y153.689
G1 X265.369Y152.135
G1 X264.2Y150.609
G1 X262.994Y149.113
G1 X261.754Y147.646
G1 X260.48Y146.21
G1 X259.172Y144.805
G1 X257.831Y143.431
G1 X256.458Y142.09
G1 X255.053Y140.783
G1 X253.617Y139.508
G1 X252.15Y138.268
G1 X250.654Y137.063
G1 X249.128Y135.893
G1 X247.574Y134.76
G1 X245.991Y133.663
G1 X244.382Y132.603
G1 X242.745Y131.582
G1 X241.083Y130.599
G1 X239.395Y129.656
G1 X237.683Y128.752
G1 X235.946Y127.889
G1 X234.185Y127.067
G1 X232.402Y126.287
G1 X230.597Y125.549
G1 X228.769Y124.854
G1 X226.921Y124.203
G1 X225.052Y123.597
G1 X223.163Y123.035
G1 X221.256Y122.519
G1 X219.329Y122.049
G1 X217.385Y121.625
G1 X215.424Y121.249
G1 X213.446Y120.922
G1 X211.452Y120.643
G1 X209.442Y120.413
G1 X207.418Y120.233
G1 X205.379Y120.104
G1 X203.327Y120.026
G1 X201.262Y120
G1 X199.198Y120.026
G1 X197.146Y120.104
G1 X195.107Y120.233
G1 X193.083Y120.413
G1 X191.073Y120.643
G1 X189.079Y120.922
G1 X187.101Y121.249
G1 X185.14Y121.625
G1 X183.196Y122.049
G1 X181.269Y122.519
G1 X179.362Y123.035
G1 X177.473Y123.597
G1 X175.604Y124.203
G1 X173.756Y124.854
G1 X171.929Y125.549
G1 X170.123Y126.287
G1 X168.34Y127.067
G1 X166.579Y127.889
G1 X164.842Y128.752
G1 X163.13Y129.656
G1 X161.442Y130.599
G1 X159.78Y131.582
G1 X158.143Y132.603
G1 X156.534Y133.663
G1 X154.952Y134.76
G1 X153.397Y135.893
G1 X151.872Y137.063
G1 X150.375Y138.268
G1 X148.909Y139.508
G1 X147.472Y140.783
G1 X146.067Y142.09
G1 X144.694Y143.431
G1 X143.353Y144.805
G1 X142.045Y146.21
G1 X140.771Y147.646
G1 X139.531Y149.113
G1 X138.326Y150.609
G1 X137.156Y152.135
G1 X136.022Y153.689
G1 X134.925Y155.271
G1 X133.866Y156.881
G1 X132.845Y158.517
G1 X131.862Y160.179
G1 X130.918Y161.867
G1 X130.015Y163.58
G1 X129.152Y165.317
G1 X128.33Y167.077
G1 X127.549Y168.86
G1 X126.812Y170.666
G1 X126.117Y172.493
G1 X125.466Y174.342
G1 X124.859Y176.21
G1 X124.298Y178.099
G1 X123.781Y180.007
G1 X123.311Y181.933
G1 X122.888Y183.877
G1 X122.512Y185.839
G1 X122.184Y187.817
G1 X121.905Y189.811
G1 X121.676Y191.821
G1 X121.496Y193.845
G1 X121.367Y195.883
G1 X121.289Y197.935
G1 X121.263Y200
G1 X121.289Y202.065
G1 X121.367Y204.117
G1 X121.496Y206.155
G1 X121.676Y208.18
G1 X121.905Y210.189
G1 X122.184Y212.183
G1 X122.512Y214.161
G1 X122.888Y216.123
G1 X123.311Y218.067
G1 X123.781Y219.993
G1 X124.298Y221.901
G1 X124.859Y223.79
G1 X125.466Y225.658
G1 X126.117Y227.507
G1 X126.812Y229.334
G1 X127.549Y231.14
G1 X128.33Y232.923
G1 X129.152Y234.683
G1 X130.015Y236.42
G1 X130.918Y238.133
G1 X131.862Y239.821
G1 X132.845Y241.483
G1 X133.866Y243.119
G1 X134.925Y244.729
G1 X136.022Y246.311
G1 X137.156Y247.865
G1 X138.326Y249.391
G1 X139.531Y250.888
G1 X140.771Y252.354
G1 X142.045Y253.79
G1 X143.353Y255.195
G1 X144.694Y256.569
G1 X146.067Y257.91
G1 X147.472Y259.218
G1 X148.909Y260.492
G1 X150.375Y261.732
G1 X151.872Y262.937
G1 X153.397Y264.107
G1 X154.952Y265.241
G1 X156.534Y266.337
G1 X158.143Y267.397
G1 X159.78Y268.418
G1 X161.442Y269.401
G1 X163.13Y270.345
G1 X164.842Y271.248
G1 X166.579Y272.111
G1 X168.34Y272.933
G1 X170.123Y273.713
G1 X171.929Y274.451
G1 X173.756Y275.146
G1 X175.604Y275.797
G1 X177.473Y276.404
G1 X179.362Y276.965
G1 X181.269Y277.482
G1 X183.196Y277.952
G1 X185.14Y278.375
G1 X187.101Y278.751
G1 X189.079Y279.078
G1 X191.073Y279.357
G1 X193.083Y279.587
G1 X195.107Y279.767
G1 X197.146Y279.896
G1 X199.198Y279.974
G1 X201.262Y280
G1 X203.327Y279.974
G1 X205.379Y279.896
G1 X207.418Y279.767
G1 X209.442Y279.587
G1 X211.452Y279.357
G1 X213.446Y279.078
G1 X215.424Y278.751
G1 X217.385Y278.375
G1 X219.329Y277.952
G1 X221.256Y277.482
G1 X223.163Y276.965
G1 X225.052Y276.404
G1 X226.921Y275.797
G1 X228.769Y275.146
G1 X230.597Y274.451
G1 X232.402Y273.713
G1 X234.185Y272.933
G1 X235.946Y272.111
G1 X237.683Y271.248
G1 X239.395Y270.345
G1 X241.083Y269.401
G1 X242.745Y268.418
G1 X244.382Y267.397
G1 X245.991Y266.337
G1 X247.574Y265.241
G1 X249.128Y264.107
G1 X250.654Y262.937
G1 X252.15Y261.732
G1 X253.617Y260.492
G1 X255.053Y259.218
G1 X256.458Y257.91
G1 X257.831Y256.569
G1 X259.172Y255.195
G1 X260.48Y253.79
G1 X261.754Y252.354
G1 X262.994Y250.888
G1 X264.2Y249.391
G1 X265.369Y247.865
G1 X266.503Y246.311
G1 X267.6Y244.729
G1 X268.659Y243.119
G1 X269.681Y241.483
G1 X270.663Y239.821
G1 X271.607Y238.133
G1 X272.511Y236.42
G1 X273.374Y234.683
G1 X274.196Y232.923
G1 X274.976Y231.14
G1 X275.714Y229.334
G1 X276.408Y227.507
G1 X277.059Y225.658
G1 X277.666Y223.79
G1 X278.228Y221.901
G1 X278.744Y219.993
G1 X279.214Y218.067
G1 X279.637Y216.123
G1 X280.013Y214.161
G0 X290.539Y188.804
G1 X290.226Y186.561
G1 X289.857Y184.336
G1 X289.434Y182.129
G1 X288.958Y179.942
G1 X288.429Y177.775
G1 X287.848Y175.629
G1 X287.216Y173.504
G1 X286.534Y171.402
G1 X285.801Y169.322
G1 X285.02Y167.266
G1 X284.19Y165.235
G1 X283.312Y163.229
G1 X282.388Y161.248
G1 X281.417Y159.294
G1 X280.4Y157.368
G1 X279.339Y155.469
G1 X278.233Y153.599
G1 X277.084Y151.758
G1 X275.892Y149.947
G1 X274.658Y148.167
G1 X273.383Y146.419
G1 X272.067Y144.702
G1 X270.711Y143.019
G1 X269.316Y141.369
G1 X267.882Y139.753
G1 X266.411Y138.172
G1 X264.902Y136.628
G1 X263.357Y135.119
G1 X261.777Y133.647
G1 X260.161Y132.214
G1 X258.511Y130.819
G1 X256.827Y129.463
G1 X255.111Y128.147
G1 X253.363Y126.872
G1 X251.583Y125.638
G1 X249.772Y124.446
G1 X247.931Y123.297
G1 X246.061Y122.191
G1 X244.162Y121.13
G1 X242.235Y120.113
G1 X240.281Y119.142
G1 X238.301Y118.217
G1 X236.295Y117.34
G1 X234.263Y116.51
G1 X232.208Y115.728
G1 X230.128Y114.996
G1 X228.026Y114.313
G1 X225.901Y113.681
G1 X223.755Y113.101
G1 X221.588Y112.572
G1 X219.401Y112.096
G1 X217.194Y111.673
G1 X214.969Y111.304
G1 X212.725Y110.99
G1 X210.465Y110.732
G1 X208.187Y110.53
G1 X205.894Y110.384
G1 X203.586Y110.297
G1 X201.263Y110.267
G1 X198.94Y110.297
G1 X196.631Y110.384
G1 X194.338Y110.53
G1 X192.061Y110.732
G1 X189.8Y110.99
G1 X187.557Y111.304
G1 X185.331Y111.673
G1 X183.124Y112.096
G1 X180.937Y112.572
G1 X178.77Y113.101
G1 X176.624Y113.681
G1 X174.499Y114.313
G1 X172.397Y114.996
G1 X170.318Y115.728
G1 X168.262Y116.51
G1 X166.231Y117.34
G1 X164.224Y118.217
G1 X162.244Y119.142
G1 X160.29Y120.113
G1 X158.363Y121.13
G1 X156.464Y122.191
G1 X154.594Y123.297
G1 X152.754Y124.446
G1 X150.943Y125.638
G1 X149.163Y126.872
G1 X147.414Y128.147
G1 X145.698Y129.463
G1 X144.014Y130.819
G1 X142.364Y132.214
G1 X140.749Y133.647
G1 X139.168Y135.119
G1 X137.623Y136.628
G1 X136.114Y138.172
G1 X134.643Y139.753
G1 X133.209Y141.369
G1 X131.814Y143.019
G1 X130.458Y144.702
G1 X129.142Y146.419
G1 X127.867Y148.167
G1 X126.633Y149.947
G1 X125.441Y151.758
G1 X124.292Y153.599
G1 X123.187Y155.469
G1 X122.125Y157.368
G1 X121.109Y159.294
G1 X120.138Y161.248
G1 X119.213Y163.229
G1 X118.335Y165.235
G1 X117.505Y167.266
G1 X116.724Y169.322
G1 X115.991Y171.402
G1 X115.309Y173.504
G1 X114.677Y175.629
G1 X114.096Y177.775
G1 X113.567Y179.942
G1 X113.091Y182.129
G1 X112.668Y184.336
G1 X112.3Y186.561
G1 X111.986Y188.804
G1 X111.727Y191.065
G1 X111.525Y193.342
G1 X111.38Y195.636
G1 X111.292Y197.944
G1 X111.263Y200.267
G1 X111.292Y202.59
G1 X111.38Y204.899
G1 X111.525Y207.192
G1 X111.727Y209.469
G1 X111.986Y211.73
G1 X112.3Y213.973
G1 X112.668Y216.199
G1 X113.091Y218.405
G1 X113.567Y220.592
G1 X114.096Y222.76
G1 X114.677Y224.906
G1 X115.309Y227.03
G1 X115.991Y229.133
G1 X116.724Y231.212
G1 X117.505Y233.268
G1 X118.335Y235.299
G1 X119.213Y237.305
G1 X120.138Y239.286
G1 X121.109Y241.24
G1 X122.125Y243.166
G1 X123.187Y245.065
G1 X124.292Y246.935
G1 X125.441Y248.776
G1 X126.633Y250.587
G1 X127.867Y252.367
G1 X129.142Y254.116
G1 X130.458Y255.832
G1 X131.814Y257.515
G1 X133.209Y259.165
G1 X134.643Y260.781
G1 X136.114Y262.362
G1 X137.623Y263.907
G1 X139.168Y265.415
G1 X140.749Y266.887
G1 X142.364Y268.32
G1 X144.014Y269.716
G1 X145.698Y271.071
G1 X147.414Y272.387
G1 X149.163Y273.663
G1 X150.943Y274.897
G1 X152.754Y276.088
G1 X154.594Y277.237
G1 X156.464Y278.343
G1 X158.363Y279.405
G1 X160.29Y280.421
G1 X162.244Y281.392
G1 X164.224Y282.317
G1 X166.231Y283.194
G1 X168.262Y284.024
G1 X170.318Y284.806
G1 X172.397Y285.538
G1 X174.499Y286.221
G1 X176.624Y286.853
G1 X178.77Y287.434
G1 X180.937Y287.962
G1 X183.124Y288.439
G1 X185.331Y288.861
G1 X187.557Y289.23
G1 X189.8Y289.544
G1 X192.061Y289.802
G1 X194.338Y290.005
G1 X196.631Y290.15
G1 X198.94Y290.238
G1 X201.263Y290.267
G1 X203.586Y290.238
G1 X205.894Y290.15
G1 X208.187Y290.005
G1 X210.465Y289.802
G1 X212.725Y289.544
G1 X214.969Y289.23
G1 X217.194Y288.861
G1 X219.401Y288.439
G1 X221.588Y287.962
G1 X223.755Y287.434
G1 X225.901Y286.853
G1 X228.026Y286.221
G1 X230.128Y285.538
G1 X232.208Y284.806
G1 X234.263Y284.024
G1 X236.295Y283.194
G1 X238.301Y282.317
G1 X240.281Y281.392
G1 X242.235Y280.421
G1 X244.162Y279.405
G1 X246.061Y278.343
G1 X247.931Y277.237
G1 X249.772Y276.088
G1 X251.583Y274.897
G1 X253.363Y273.663
G1 X255.111Y272.387
G1 X256.827Y271.071
G1 X258.511Y269.716
G1 X260.161Y268.32
G1 X261.777Y266.887
G1 X263.357Y265.415
G1 X264.902Y263.907
G1 X266.411Y262.362
G1 X267.882Y260.781
G1 X269.316Y259.165
G1 X270.711Y257.515
G1 X272.067Y255.832
G1 X273.383Y254.116
G1 X274.658Y252.367
G1 X275.892Y250.587
G1 X277.084Y248.776
G1 X278.233Y246.935
G1 X279.339Y245.065
G1 X280.4Y243.166
G1 X281.417Y241.24
G1 X282.388Y239.286
G1 X283.312Y237.305
G1 X284.19Y235.299
G1 X285.02Y233.268
G1 X285.801Y231.212
G1 X286.534Y229.133
G1 X287.216Y227.03
G1 X287.848Y224.906
G1 X288.429Y222.76
G1 X288.958Y220.592
G1 X289.434Y218.405
G1 X289.857Y216.199
G1 X290.226Y213.973
G1 X290.539Y211.73
G1 X290.798Y209.469
G1 X291Y207.192
G1 X291.145Y204.899
G1 X291.233Y202.59
G1 X291.263Y200.267
G1 X291.233Y197.944
G1 X291.145Y195.636
G1 X291Y193.342
G1 X290.798Y191.065
G1 X290.539Y188.804
G0 X198.681Y100.3
G1 X196.116Y100.397
G1 X193.568Y100.559
G1 X191.038Y100.783
G1 X188.526Y101.071
G1 X186.033Y101.419
G1 X183.561Y101.829
G1 X181.109Y102.299
G1 X178.679Y102.828
G1 X176.271Y103.415
G1 X173.886Y104.061
G1 X171.526Y104.763
G1 X169.19Y105.521
G1 X166.879Y106.335
G1 X164.595Y107.204
G1 X162.338Y108.126
G1 X160.109Y109.101
G1 X157.908Y110.128
G1 X155.737Y111.207
G1 X153.597Y112.337
G1 X151.487Y113.516
G1 X149.409Y114.745
G1 X147.363Y116.021
G1 X145.352Y117.346
G1 X143.374Y118.717
G1 X141.431Y120.134
G1 X139.524Y121.596
G1 X137.653Y123.102
G1 X135.82Y124.653
G1 X134.025Y126.245
G1 X132.268Y127.88
G1 X130.552Y129.557
G1 X128.876Y131.273
G1 X127.241Y133.03
G1 X125.648Y134.825
G1 X124.098Y136.658
G1 X122.591Y138.529
G1 X121.129Y140.436
G1 X119.712Y142.379
G1 X118.341Y144.356
G1 X117.017Y146.368
G1 X115.74Y148.414
G1 X114.511Y150.492
G1 X113.332Y152.601
G1 X112.203Y154.742
G1 X111.124Y156.913
G1 X110.096Y159.114
G1 X109.121Y161.343
G1 X108.199Y163.6
G1 X107.331Y165.884
G1 X106.517Y168.194
G1 X105.758Y170.53
G1 X105.056Y172.891
G1 X104.411Y175.276
G1 X103.823Y177.684
G1 X103.294Y180.114
G1 X102.824Y182.566
G1 X102.415Y185.038
G1 X102.066Y187.531
G1 X101.779Y190.043
G1 X101.554Y192.573
G1 X101.393Y195.121
G1 X101.295Y197.686
G1 X101.263Y200.267
G1 X101.295Y202.848
G1 X101.393Y205.413
G1 X101.554Y207.961
G1 X101.779Y210.492
G1 X102.066Y213.004
G1 X102.415Y215.496
G1 X102.824Y217.969
G1 X103.294Y220.421
G1 X103.823Y222.851
G1 X104.411Y225.259
G1 X105.056Y227.644
G1 X105.758Y230.004
G1 X106.517Y232.34
G1 X107.331Y234.651
G1 X108.199Y236.935
G1 X109.121Y239.192
G1 X110.096Y241.421
G1 X111.124Y243.622
G1 X112.203Y245.793
G1 X113.332Y247.933
G1 X114.511Y250.043
G1 X115.74Y252.121
G1 X117.017Y254.166
G1 X118.341Y256.178
G1 X119.712Y258.156
G1 X121.129Y260.099
G1 X122.591Y262.006
G1 X124.098Y263.877
G1 X125.648Y265.71
G1 X127.241Y267.505
G1 X128.876Y269.261
G1 X130.552Y270.978
G1 X132.268Y272.654
G1 X134.025Y274.289
G1 X135.82Y275.882
G1 X137.653Y277.432
G1 X139.524Y278.939
G1 X141.431Y280.401
G1 X143.374Y281.818
G1 X145.352Y283.189
G1 X147.363Y284.513
G1 X149.409Y285.79
G1 X151.487Y287.019
G1 X153.597Y288.198
G1 X155.737Y289.328
G1 X157.908Y290.406
G1 X160.109Y291.434
G1 X162.338Y292.409
G1 X164.595Y293.331
G1 X166.879Y294.2
G1 X169.19Y295.013
G1 X171.526Y295.772
G1 X173.886Y296.474
G1 X176.271Y297.119
G1 X178.679Y297.707
G1 X181.109Y298.236
G1 X183.561Y298.706
G1 X186.033Y299.115
G1 X188.526Y299.464
G1 X191.038Y299.751
G1 X193.568Y299.976
G1 X196.116Y300.137
G1 X198.681Y300.235
G1 X201.262Y300.268
G1 X203.843Y300.235
G1 X206.408Y300.137
G1 X208.956Y299.976
G1 X211.487Y299.751
G1 X213.999Y299.464
G1 X216.492Y299.115
G1 X218.964Y298.706
G1 X221.416Y298.236
G1 X223.846Y297.707
G1 X226.254Y297.119
G1 X228.639Y296.474
G1 X230.999Y295.772
G1 X233.335Y295.013
G1 X235.646Y294.2
G1 X237.93Y293.331
G1 X240.187Y292.409
G1 X242.416Y291.434
G1 X244.617Y290.406
G1 X246.788Y289.328
G1 X248.929Y288.198
G1 X251.038Y287.019
G1 X253.116Y285.79
G1 X255.162Y284.513
G1 X257.174Y283.189
G1 X259.151Y281.818
G1 X261.094Y280.401
G1 X263.001Y278.939
G1 X264.872Y277.432
G1 X266.705Y275.882
G1 X268.5Y274.289
G1 X270.257Y272.654
G1 X271.973Y270.978
G1 X273.649Y269.261
G1 X275.284Y267.505
G1 X276.877Y265.71
G1 X278.427Y263.877
G1 X279.934Y262.006
G1 X281.396Y260.099
G1 X282.813Y258.156
G1 X284.184Y256.178
G1 X285.508Y254.166
G1 X286.785Y252.121
G1 X288.014Y250.043
G1 X289.193Y247.933
G1 X290.323Y245.793
G1 X291.402Y243.622
G1 X292.429Y241.421
G1 X293.404Y239.192
G1 X294.326Y236.935
G1 X295.195Y234.651
G1 X296.008Y232.34
G1 X296.767Y230.004
G1 X297.469Y227.644
G1 X298.114Y225.259
G1 X298.702Y222.851
G1 X299.231Y220.421
G1 X299.701Y217.969
G1 X300.11Y215.496
G1 X300.459Y213.004
G1 X300.746Y210.492
G1 X300.971Y207.961
G1 X301.132Y205.413
G1 X301.23Y202.848
G1 X301.263Y200.267
G1 X301.23Y197.686
G1 X301.132Y195.121
G1 X300.971Y192.573
G1 X300.746Y190.043
G1 X300.459Y187.531
G1 X300.11Y185.038
G1 X299.701Y182.566
G1 X299.231Y180.114
G1 X298.702Y177.684
G1 X298.114Y175.276
G1 X297.469Y172.891
G1 X296.767Y170.53
G1 X296.008Y168.194
G1 X295.195Y165.884
G1 X294.326Y163.6
G1 X293.404Y161.343
G1 X292.429Y159.114
G1 X291.402Y156.913
G1 X290.323Y154.742
G1 X289.193Y152.601
G1 X288.014Y150.492
G1 X286.785Y148.414
G1 X285.508Y146.368
G1 X284.184Y144.356
G1 X282.813Y142.379
G1 X281.396Y140.436
G1 X279.934Y138.529
G1 X278.427Y136.658
G1 X276.877Y134.825
G1 X275.284Y133.03
G1 X273.649Y131.273
G1 X271.973Y129.557
G1 X270.257Y127.88
G1 X268.5Y126.245
G1 X266.705Y124.653
G1 X264.872Y123.102
G1 X263.001Y121.596
G1 X261.094Y120.134
G1 X259.151Y118.717
G1 X257.174Y117.346
G1 X255.162Y116.021
G1 X253.116Y114.745
G1 X251.038Y113.516
G1 X248.929Y112.337
G1 X246.788Y111.207
G1 X244.617Y110.128
G1 X242.416Y109.101
G1 X240.187Y108.126
G1 X237.93Y107.204
G1 X235.646Y106.335
G1 X233.335Y105.521
G1 X230.999Y104.763
G1 X228.639Y104.061
G1 X226.254Y103.415
G1 X223.846Y102.828
G1 X221.416Y102.299
G1 X218.964Y101.829
G1 X216.492Y101.419
G1 X213.999Y101.071
G1 X211.487Y100.783
G1 X208.956Y100.559
G1 X206.408Y100.397
G1 X203.843Y100.3
G1 X201.262Y100.267
G1 X198.681Y100.3
G0 X196.263Y70.358
G1 X201.661
G0 X198.763Y69.358
G1 X196.262
G0 X196.262Y68.358
G1 X198.763
G0 X198.763Y67.358
G1 X196.262
G0 X196.262Y66.358
G1 X198.763
G0 X196.263Y65.358
G1 X201.661
G0 X198.763Y64.358
G1 X196.262
G0 X196.262Y63.358
G1 X198.763
G0 X198.763Y62.358
G1 X196.262
G0 X196.262Y61.358
G1 X198.763
G0 X206.486Y60.267
G1 X196.039
G1 Y340.267
G1 X206.486
G1 Y60.267
G0 X360.68Y195.267
G1 Y200.665
G0 X361.68Y197.767
G1 Y195.267
G0 X362.68Y195.267
G1 Y197.767
G0 X363.68Y197.767
G1 Y195.267
G0 X364.68Y195.267
G1 Y197.767
G0 X366.68Y197.767
G1 Y195.267
G0 X367.68Y195.267
G1 Y197.767
G0 X368.68Y197.767
G1 Y195.267
G0 X369.68Y195.267
G1 Y197.767
G0 X365.68Y195.267
G1 Y200.665
G0 X40.814Y199.843
G1 Y205.24
G0 X39.814Y205.241
G1 Y202.741
G0 X38.814Y202.741
G1 Y205.241
G0 X37.814Y205.241
G1 Y202.741
G0 X36.814Y202.741
G1 Y205.241
G0 X35.814Y205.24
G1 Y199.843
G0 X34.814Y202.741
G1 Y205.241
G0 X33.814Y205.241
G1 Y202.741
G0 X32.814Y202.741
G1 Y205.241
G0 X31.814Y205.241
G1 Y202.741
G0 X30.847Y205.267
G1 X370.847
G1 Y195.267
G1 X30.847
G1 Y205.267
; Scan @ 100 mm/sec, 50% power
M8
G0 X258.386Y54.99
; Layer C16
G91
G1 X2.5F6000S0
G1 X0.39S500
G1 X4.286S0
G1 X0.499S500
G1 X4.256S0
G1 X0.387S500
G1 X6.829S0
G1 X0.852S500
G1 X8.322S0
G1 X0.901S500
G1 X3.48S0
G1 X0.412S500
G1 X5.384S0
G1 X0.406S500
G1 X4.365S0
G1 X0.38S500
G1 X11.14S0
G1 X0.746S500
G1 X4.152S0
G1 X0.344S500
G1 X5.631S0
G1 X0.687S500
G1 X3.503S0
G1 X0.381S500
G1 X2.5S0
G1 X0.299Y0.1
G1 X-2.5
G1 X-0.975S500
G1 X-2.628S0
G1 X-1.831S500
G1 X-4.778S0
G1 X-0.89S500
G1 X-3.237S0
G1 X-1.987S500
G1 X-10.22S0
G1 X-1.064S500
G1 X-3.696S0
G1 X-1.061S500
G1 X-4.721S0
G1 X-1.075S500
G1 X-2.473S0
G1 X-2.208S500
G1 X-6.979S0
G1 X-2.264S500
G1 X-5.803S0
G1 X-1.021S500
G1 X-3.595S0
G1 X-1.207S500
G1 X-3.61S0
G1 X-1.023S500
G1 X-2.5S0
G1 X-0.162Y0.1
G1 X2.5
G1 X1.348S500
G1 X3.271S0
G1 X1.564S500
G1 X3.254S0
G1 X1.345S500
G1 X5.25S0
G1 X3.047S500
G1 X6.277S0
G1 X2.857S500
G1 X1.971S0
G1 X1.4S500
G1 X4.396S0
G1 X1.385S500
G1 X3.358S0
G1 X1.412S500
G1 X9.732S0
G1 X2.669S500
G1 X2.719S0
G1 X1.204S500
G1 X4.298S0
G1 X2.462S500
G1 X2.159S0
G1 X1.286S500
G1 X2.5S0
G1 X0.113Y0.1
G1 X-2.5
G1 X-1.509S500
G1 X-1.809S0
G1 X-2.937S500
G1 X-3.94S0
G1 X-1.446S500
G1 X-2.316S0
G1 X-3.181S500
G1 X-9.393S0
G1 X-1.634S500
G1 X-3.137S0
G1 X-1.6S500
G1 X-4.183S0
G1 X-1.613S500
G1 X-1.633S0
G1 X-3.286S500
G1 X-5.783S0
G1 X-3.637S500
G1 X-4.847S0
G1 X-1.567S500
G1 X-3.015S0
G1 X-1.824S500
G1 X-3.028S0
G1 X-1.571S500
G1 X-2.5S0
G1 X-0.082Y0.1
G1 X2.5
G1 X1.734S500
G1 X2.841S0
G1 X2.03S500
G1 X2.833S0
G1 X1.73S500
G1 X4.54S0
G1 X4.091S500
G1 X5.401S0
G1 X3.602S500
G1 X1.397S0
G1 X1.768S500
G1 X4.028S0
G1 X1.756S500
G1 X2.96S0
G1 X1.826S500
G1 X9.114S0
G1 X3.579S500
G1 X2.003S0
G1 X1.641S500
G1 X3.651S0
G1 X3.327S500
G1 X1.532S0
G1 X1.661S500
G1 X2.5S0
G1 X0.068Y0.1
G1 X-2.5
G1 X-1.8S500
G1 X-1.287S0
G1 X-3.677S500
G1 X-3.404S0
G1 X-1.806S500
G1 X-1.701S0
G1 X-3.952S500
G1 X-8.878S0
G1 X-1.967S500
G1 X-2.82S0
G1 X-1.889S500
G1 X-3.897S0
G1 X-1.899S500
G1 X-1.216S0
G1 X-3.848S500
G1 X-5.058S0
G1 X-4.521S500
G1 X-4.255S0
G1 X-1.871S500
G1 X-2.679S0
G1 X-2.198S500
G1 X-2.686S0
G1 X-1.875S500
G1 X-2.5S0
G1 X-0.047Y0.1
G1 X2.5
G1 X1.97S500
G1 X2.571S0
G1 X2.34S500
G1 X2.556S0
G1 X1.967S500
G1 X4.039S0
G1 X4.86S500
G1 X4.786S0
G1 X4.045S500
G1 X1.078S0
G1 X1.989S500
G1 X3.807S0
G1 X1.979S500
G1 X2.71S0
G1 X2.093S500
G1 X8.683S0
G1 X4.262S500
G1 X1.441S0
G1 X1.944S500
G1 X3.204S0
G1 X3.967S500
G1 X1.096S0
G1 X1.886S500
G1 X2.5S0
G1 X0.042Y0.1
G1 X-2.5
G1 X-1.97S500
G1 X-0.921S0
G1 X-4.237S500
G1 X-3.029S0
G1 X-2.063S500
G1 X-1.181S0
G1 X-4.566S500
G1 X-8.515S0
G1 X-2.177S500
G1 X-2.628S0
G1 X-2.057S500
G1 X-3.73S0
G1 X-2.066S500
G1 X-0.979S0
G1 X-4.196S500
G1 X-4.526S0
G1 X-5.199S500
G1 X-3.831S0
G1 X-2.048S500
G1 X-2.455S0
G1 X-2.457S500
G1 X-2.474S0
G1 X-2.051S500
G1 X-2.5S0
G1 X-0.032Y0.1
G1 X2.5
G1 X2.117S500
G1 X2.392S0
G1 X2.554S500
G1 X2.372S0
G1 X2.116S500
G1 X3.658S0
G1 X5.475S500
G1 X4.312S0
G1 X4.323S500
G1 X0.901S0
G1 X2.127S500
G1 X3.668S0
G1 X2.119S500
G1 X2.553S0
G1 X2.261S500
G1 X8.369S0
G1 X4.824S500
G1 X0.954S0
G1 X2.155S500
G1 X2.89S0
G1 X4.475S500
G1 X0.776S0
G1 X2.02S500
G1 X2.5S0
G1 X0.021Y0.1
G1 X-2.5
G1 X-2.063S500
G1 X-0.635S0
G1 X-4.704S500
G1 X-2.768S0
G1 X-2.238S500
G1 X-0.728S0
G1 X-5.073S500
G1 X-8.247S0
G1 X-2.315S500
G1 X-2.506S0
G1 X-2.158S500
G1 X-3.629S0
G1 X-2.167S500
G1 X-0.85S0
G1 X-4.414S500
G1 X-4.118S0
G1 X-5.744S500
G1 X-3.504S0
G1 X-2.157S500
G1 X-2.309S0
G1 X-2.644S500
G1 X-2.324S0
G1 X-2.158S500
G1 X-2.5S0
G1 X-0.021Y0.1
G1 X2.5
G1 X2.2S500
G1 X2.262S0
G1 X2.718S500
G1 X2.255S0
G1 X2.199S500
G1 X3.356S0
G1 X5.996S500
G1 X3.934S0
G1 X4.488S500
G1 X0.816S0
G1 X2.206S500
G1 X3.59S0
G1 X2.198S500
G1 X2.464S0
G1 X2.358S500
G1 X8.136S0
G1 X5.308S500
G1 X0.513S0
G1 X2.297S500
G1 X2.669S0
G1 X4.932S500
G1 X0.497S0
G1 X2.099S500
G1 X2.5S0
G1 X0.006Y0.1
G1 X-2.5
G1 X-2.112S500
G1 X-0.389S0
G1 X-5.122S500
G1 X-2.597S0
G1 X-2.345S500
G1 X-0.312S0
G1 X-5.515S500
G1 X-8.043S0
G1 X-2.401S500
G1 X-2.431S0
G1 X-2.22S500
G1 X-3.568S0
G1 X-2.228S500
G1 X-0.792S0
G1 X-4.544S500
G1 X-3.784S0
G1 X-6.212S500
G1 X-3.235S0
G1 X-2.225S500
G1 X-2.209S0
G1 X-2.785S500
G1 X-2.215S0
G1 X-2.225S500
G1 X-2.5S0
G1 X-0.006Y0.1
G1 X2.5
G1 X2.237S500
G1 X2.176S0
G1 X2.847S500
G1 X2.174S0
G1 X2.237S500
G1 X3.121S0
G1 X6.428S500
G1 X3.64S0
G1 X4.573S500
G1 X0.794S0
G1 X2.239S500
G1 X3.557S0
G1 X2.231S500
G1 X2.415S0
G1 X2.422S500
G1 X7.961S0
G1 X5.722S500
G1 X0.112S0
G1 X2.388S500
G1 X2.53S0
G1 X5.306S500
G1 X0.287S0
G1 X2.124S500
G1 X2.5S0
G1 X0.004Y0.1
G1 X-2.5
G1 X-2.133S500
G1 X-0.187S0
G1 X-5.488S500
G1 X-2.468S0
G1 X-8.259S500
G1 X-7.893S0
G1 X-2.434S500
G1 X-2.403S0
G1 X-2.243S500
G1 X-3.545S0
G1 X-2.251S500
G1 X-0.805S0
G1 X-4.593S500
G1 X-3.505S0
G1 X-6.625S500
G1 X-3.017S0
G1 X-2.248S500
G1 X-2.139S0
G1 X-2.909S500
G1 X-2.137S0
G1 X-2.249S500
G1 X-2.5S0
G1 X-0.004Y0.1
G1 X2.5
G1 X2.257S500
G1 X2.107S0
G1 X2.964S500
G1 X2.106S0
G1 X2.257S500
G1 X2.924S0
G1 X6.8S500
G1 X3.393S0
G1 X4.589S500
G1 X0.831S0
G1 X2.257S500
G1 X3.539S0
G1 X2.249S500
G1 X2.394S0
G1 X2.447S500
G1 X7.834S0
G1 X8.285S500
G1 X2.421S0
G1 X5.657S500
G1 X0.091S0
G1 X2.133S500
G1 X2.5S0
G1 Y0.1
G1 X-2.5
G1 X-7.952S500
G1 X-2.377S0
G1 X-4.43S500
G1 X-0.797S0
G1 X-3.083S500
G1 X-7.777S0
G1 X-2.456S500
G1 X-2.39S0
G1 X-2.249S500
G1 X-3.539S0
G1 X-2.257S500
G1 X-0.883S0
G1 X-4.559S500
G1 X-3.284S0
G1 X-6.974S500
G1 X-2.837S0
G1 X-2.257S500
G1 X-2.079S0
G1 X-3.018S500
G1 X-2.08S0
G1 X-2.257S500
G1 X-2.5S0
G1 Y0.1
G1 X2.5
G1 X2.257S500
G1 X2.054S0
G1 X3.071S500
G1 X2.052S0
G1 X2.257S500
G1 X2.752S0
G1 X7.141S500
G1 X3.18S0
G1 X4.508S500
G1 X0.956S0
G1 X2.257S500
G1 X3.539S0
G1 X2.249S500
G1 X2.39S0
G1 X2.456S500
G1 X7.732S0
G1 X2.818S500
G1 X1.525S0
G1 X3.983S500
G1 X2.335S0
G1 X8.023S500
G1 X2.5S0
G1 Y0.1
G1 X-2.5
G1 X-8.086S500
G1 X-2.301S0
G1 X-3.7S500
G1 X-1.964S0
G1 X-2.668S500
G1 X-7.697S0
G1 X-2.456S500
G1 X-2.39S0
G1 X-2.249S500
G1 X-3.539S0
G1 X-2.257S500
G1 X-1.056S0
G1 X-4.426S500
G1 X-3.092S0
G1 X-3.229S500
G1 X-0.832S0
G1 X-3.22S500
G1 X-2.682S0
G1 X-2.257S500
G1 X-2.025S0
G1 X-3.125S500
G1 X-2.027S0
G1 X-2.257S500
G1 X-2.5S0
G1 Y0.1
G1 X2.5
G1 X2.257S500
G1 X2S0
G1 X3.178S500
G1 X1.999S0
G1 X2.257S500
G1 X2.612S0
G1 X2.931S500
G1 X1.551S0
G1 X2.939S500
G1 X3.008S0
G1 X2.568S500
G1 X0.924S0
G1 X0.798S500
G1 X1.206S0
G1 X2.257S500
G1 X3.539S0
G1 X2.249S500
G1 X2.39S0
G1 X2.456S500
G1 X7.661S0
G1 X2.571S500
G1 X2.297S0
G1 X3.471S500
G1 X2.273S0
G1 X3.195S500
G1 X1.071S0
G1 X3.877S500
G1 X2.5S0
G1 Y0.1
G1 X-2.5
G1 X-3.593S500
G1 X-1.631S0
G1 X-2.976S500
G1 X-2.243S0
G1 X-3.276S500
G1 X-2.564S0
G1 X-2.502S500
G1 X-7.631S0
G1 X-2.456S500
G1 X-2.39S0
G1 X-2.249S500
G1 X-3.539S0
G1 X-2.257S500
G1 X-3.073S0
G1 X-2.436S500
G1 X-2.926S0
G1 X-2.789S500
G1 X-1.992S0
G1 X-2.779S500
G1 X-2.542S0
G1 X-2.257S500
G1 X-1.974S0
G1 X-3.229S500
G1 X-1.974S0
G1 X-2.257S500
G1 X-2.5S0
G1 Y0.1
G1 X2.5
G1 X2.257S500
G1 X1.947S0
G1 X3.282S500
G1 X1.948S0
G1 X2.257S500
G1 X2.482S0
G1 X2.67S500
G1 X2.326S0
G1 X2.682S500
G1 X2.854S0
G1 X2.371S500
G1 X3.152S0
G1 X2.257S500
G1 X3.539S0
G1 X2.249S500
G1 X2.39S0
G1 X2.456S500
G1 X7.61S0
G1 X2.433S500
G1 X2.787S0
G1 X3.116S500
G1 X2.213S0
G1 X2.846S500
G1 X2.006S0
G1 X3.405S500
G1 X2.5S0
G1 Y0.1
G1 X-2.5
G1 X-3.252S500
G1 X-2.314S0
G1 X-2.737S500
G1 X-2.194S0
G1 X-2.965S500
G1 X-2.973S0
G1 X-2.392S500
G1 X-7.589S0
G1 X-2.456S500
G1 X-2.39S0
G1 X-2.249S500
G1 X-3.539S0
G1 X-2.257S500
G1 X-3.205S0
G1 X-2.328S500
G1 X-2.789S0
G1 X-2.599S500
G1 X-2.591S0
G1 X-2.599S500
G1 X-2.426S0
G1 X-2.257S500
G1 X-1.922S0
G1 X-3.333S500
G1 X-1.922S0
G1 X-2.257S500
G1 X-2.5S0
G1 Y0.1
G1 X2.5
G1 X2.257S500
G1 X1.897S0
G1 X3.383S500
G1 X1.897S0
G1 X2.257S500
G1 X2.371S0
G1 X2.533S500
G1 X2.821S0
G1 X2.546S500
G1 X2.726S0
G1 X2.299S500
G1 X3.241S0
G1 X2.257S500
G1 X3.539S0
G1 X2.249S500
G1 X2.39S0
G1 X2.456S500
G1 X7.57S0
G1 X2.353S500
G1 X3.126S0
G1 X2.848S500
G1 X2.171S0
G1 X2.654S500
G1 X2.575S0
G1 X3.119S500
G1 X2.5S0
G1 Y0.1
G1 X-2.5
G1 X-3.018S500
G1 X-2.782S0
G1 X-2.593S500
G1 X-2.146S0
G1 X-2.736S500
G1 X-3.256S0
G1 X-2.322S500
G1 X-7.563S0
G1 X-2.456S500
G1 X-2.39S0
G1 X-2.249S500
G1 X-3.539S0
G1 X-2.257S500
G1 X-3.265S0
G1 X-2.283S500
G1 X-2.663S0
G1 X-2.502S500
G1 X-3.011S0
G1 X-2.497S500
G1 X-2.316S0
G1 X-2.257S500
G1 X-1.872S0
G1 X-3.433S500
G1 X-1.872S0
G1 X-2.257S500
G1 X-2.5S0
G1 Y0.1
G1 X2.5
G1 X2.257S500
G1 X1.846S0
G1 X3.484S500
G1 X1.847S0
G1 X2.257S500
G1 X2.272S0
G1 X2.453S500
G1 X3.187S0
G1 X2.456S500
G1 X2.614S0
G1 X2.274S500
G1 X3.281S0
G1 X2.257S500
G1 X3.539S0
G1 X2.249S500
G1 X2.39S0
G1 X2.456S500
G1 X7.557S0
G1 X2.296S500
G1 X3.356S0
G1 X2.648S500
G1 X2.122S0
G1 X2.544S500
G1 X2.971S0
G1 X2.922S500
G1 X2.5S0
G1 Y0.1
G1 X-2.5
G1 X-2.844S500
G1 X-3.133S0
G1 X-2.495S500
G1 X-2.104S0
G1 X-2.562S500
G1 X-3.445S0
G1 X-2.283S500
G1 X-7.55S0
G1 X-2.456S500
G1 X-2.39S0
G1 X-2.249S500
G1 X-3.539S0
G1 X-2.257S500
G1 X-3.292S0
G1 X-2.27S500
G1 X-2.564S0
G1 X-2.423S500
G1 X-3.338S0
G1 X-2.421S500
G1 X-2.229S0
G1 X-2.257S500
G1 X-1.822S0
G1 X-3.534S500
G1 X-1.821S0
G1 X-2.257S500
G1 X-2.5S0
G1 Y0.1
G1 X2.5
G1 X2.257S500
G1 X1.796S0
G1 X3.584S500
G1 X1.797S0
G1 X2.257S500
G1 X2.186S0
G1 X2.399S500
G1 X3.473S0
G1 X2.395S500
G1 X2.52S0
G1 X2.265S500
G1 X3.299S0
G1 X2.257S500
G1 X3.539S0
G1 X2.249S500
G1 X2.39S0
G1 X2.456S500
G1 X7.554S0
G1 X2.269S500
G1 X3.503S0
G1 X2.502S500
G1 X2.081S0
G1 X2.46S500
G1 X3.275S0
G1 X2.772S500
G1 X2.5S0
G1 Y0.1
G1 X-2.5
G1 X-2.703S500
G1 X-3.413S0
G1 X-2.426S500
G1 X-2.058S0
G1 X-2.445S500
G1 X-3.557S0
G1 X-2.252S500
G1 X-7.562S0
G1 X-2.456S500
G1 X-2.39S0
G1 X-2.249S500
G1 X-3.539S0
G1 X-2.257S500
G1 X-3.305S0
G1 X-2.261S500
G1 X-2.475S0
G1 X-2.377S500
G1 X-3.6S0
G1 X-2.375S500
G1 X-2.144S0
G1 X-2.257S500
G1 X-1.771S0
G1 X-3.635S500
G1 X-1.771S0
G1 X-2.257S500
G1 X-2.5S0
G1 Y0.1
G1 X2.5
G1 X2.257S500
G1 X1.746S0
G1 X3.685S500
G1 X1.746S0
G1 X2.257S500
G1 X2.11S0
G1 X2.359S500
G1 X3.706S0
G1 X2.353S500
G1 X2.441S0
G1 X2.259S500
G1 X3.309S0
G1 X2.257S500
G1 X3.539S0
G1 X2.249S500
G1 X2.39S0
G1 X2.456S500
G1 X7.571S0
G1 X2.252S500
G1 X3.593S0
G1 X2.389S500
G1 X2.034S0
G1 X2.406S500
G1 X3.521S0
G1 X2.65S500
G1 X2.5S0
G1 Y0.1
G1 X-2.5
G1 X-2.597S500
G1 X-3.626S0
G1 X-2.38S500
G1 X-2.013S0
G1 X-2.357S500
G1 X-3.611S0
G1 X-2.253S500
G1 X-7.579S0
G1 X-2.456S500
G1 X-2.39S0
G1 X-2.249S500
G1 X-3.539S0
G1 X-2.257S500
G1 X-3.312S0
G1 X-2.258S500
G1 X-2.407S0
G1 X-2.334S500
G1 X-3.805S0
G1 X-2.342S500
G1 X-2.079S0
G1 X-2.257S500
G1 X-1.721S0
G1 X-3.735S500
G1 X-1.721S0
G1 X-2.257S500
G1 X-2.5S0
G1 Y0.1
G1 X2.5
G1 X2.257S500
G1 X1.695S0
G1 X3.786S500
G1 X1.696S0
G1 X2.257S500
G1 X2.047S0
G1 X2.326S500
G1 X3.897S0
G1 X2.322S500
G1 X2.372S0
G1 X2.26S500
G1 X3.313S0
G1 X2.257S500
G1 X3.539S0
G1 X2.249S500
G1 X2.39S0
G1 X2.456S500
G1 X7.592S0
G1 X2.264S500
G1 X3.612S0
G1 X2.328S500
G1 X1.991S0
G1 X2.355S500
G1 X3.728S0
G1 X2.546S500
G1 X2.5S0
G1 Y0.1
G1 X-2.5
G1 X-2.508S500
G1 X-3.807S0
G1 X-2.34S500
G1 X-1.969S0
G1 X-2.299S500
G1 X-3.607S0
G1 X-2.268S500
G1 X-7.618S0
G1 X-2.456S500
G1 X-2.39S0
G1 X-2.249S500
G1 X-3.539S0
G1 X-2.257S500
G1 X-3.314S0
G1 X-2.259S500
G1 X-2.341S0
G1 X-2.31S500
G1 X-3.977S0
G1 X-2.32S500
G1 X-2.016S0
G1 X-2.257S500
G1 X-1.671S0
G1 X-3.836S500
G1 X-1.67S0
G1 X-2.257S500
G1 X-2.5S0
G1 Y0.1
G1 X2.5
G1 X2.257S500
G1 X1.645S0
G1 X3.886S500
G1 X1.646S0
G1 X2.257S500
G1 X1.99S0
G1 X2.312S500
G1 X4.044S0
G1 X2.303S500
G1 X2.315S0
G1 X2.258S500
G1 X3.315S0
G1 X2.257S500
G1 X3.539S0
G1 X2.249S500
G1 X2.39S0
G1 X2.456S500
G1 X7.645S0
G1 X2.288S500
G1 X3.584S0
G1 X2.275S500
G1 X1.943S0
G1 X2.329S500
G1 X3.882S0
G1 X2.47S500
G1 X2.5S0
G1 Y0.1
G1 X-2.5
G1 X-2.433S500
G1 X-3.955S0
G1 X-2.315S500
G1 X-1.919S0
G1 X-2.265S500
G1 X-3.538S0
G1 X-2.319S500
G1 X-7.672S0
G1 X-2.456S500
G1 X-2.39S0
G1 X-2.249S500
G1 X-3.539S0
G1 X-2.257S500
G1 X-3.315S0
G1 X-2.258S500
G1 X-2.293S0
G1 X-2.292S500
G1 X-4.111S0
G1 X-2.299S500
G1 X-1.969S0
G1 X-2.257S500
G1 X-1.621S0
G1 X-3.936S500
G1 X-1.62S0
G1 X-2.257S500
G1 X-2.5S0
G1 Y0.1
G1 X2.5
G1 X2.257S500
G1 X1.595S0
G1 X3.987S500
G1 X1.595S0
G1 X2.257S500
G1 X1.947S0
G1 X2.29S500
G1 X4.171S0
G1 X2.285S500
G1 X2.271S0
G1 X2.258S500
G1 X3.315S0
G1 X2.257S500
G1 X3.539S0
G1 X2.249S500
G1 X2.39S0
G1 X2.456S500
G1 X7.701S0
G1 X2.379S500
G1 X3.462S0
G1 X2.253S500
G1 X1.901S0
G1 X2.299S500
G1 X4.016S0
G1 X2.405S500
G1 X2.5S0
G1 Y0.1
G1 X-2.5
G1 X-2.381S500
G1 X-4.064S0
G1 X-2.293S500
G1 X-1.882S0
G1 X-2.242S500
G1 X-3.367S0
G1 X-2.437S500
G1 X-7.75S0
G1 X-2.456S500
G1 X-2.39S0
G1 X-2.249S500
G1 X-3.539S0
G1 X-2.257S500
G1 X-3.315S0
G1 X-2.258S500
G1 X-2.25S0
G1 X-2.282S500
G1 X-4.218S0
G1 X-2.288S500
G1 X-1.926S0
G1 X-2.257S500
G1 X-1.57S0
G1 X-4.037S500
G1 X-1.57S0
G1 X-2.257S500
G1 X-2.5S0
G1 Y0.1
G1 X2.5
G1 X2.257S500
G1 X1.544S0
G1 X4.088S500
G1 X1.545S0
G1 X2.257S500
G1 X1.904S0
G1 X2.288S500
G1 X4.264S0
G1 X2.28S500
G1 X2.228S0
G1 X2.258S500
G1 X3.315S0
G1 X2.257S500
G1 X3.539S0
G1 X2.249S500
G1 X2.39S0
G1 X2.456S500
G1 X7.798S0
G1 X2.523S500
G1 X3.246S0
G1 X2.23S500
G1 X1.863S0
G1 X2.288S500
G1 X4.112S0
G1 X2.356S500
G1 X2.5S0
G1 Y0.1
G1 X-2.5
G1 X-2.332S500
G1 X-4.16S0
G1 X-2.282S500
G1 X-1.844S0
G1 X-2.223S500
G1 X-3.09S0
G1 X-2.638S500
G1 X-7.847S0
G1 X-2.456S500
G1 X-2.39S0
G1 X-2.249S500
G1 X-3.539S0
G1 X-2.257S500
G1 X-3.315S0
G1 X-2.258S500
G1 X-2.216S0
G1 X-2.273S500
G1 X-4.306S0
G1 X-2.277S500
G1 X-1.892S0
G1 X-2.257S500
G1 X-1.52S0
G1 X-4.138S500
G1 X-1.519S0
G1 X-2.257S500
G1 X-2.5S0
G1 Y0.1
G1 X2.5
G1 X2.257S500
G1 X1.494S0
G1 X4.188S500
G1 X1.495S0
G1 X2.257S500
G1 X1.88S0
G1 X2.273S500
G1 X4.338S0
G1 X2.27S500
G1 X2.203S0
G1 X2.258S500
G1 X3.315S0
G1 X2.257S500
G1 X3.539S0
G1 X2.249S500
G1 X2.39S0
G1 X2.456S500
G1 X7.905S0
G1 X2.813S500
G1 X2.86S0
G1 X2.221S500
G1 X1.833S0
G1 X2.274S500
G1 X4.192S0
G1 X2.318S500
G1 X2.5S0
G1 Y0.1
G1 X-2.5
G1 X-2.305S500
G1 X-4.218S0
G1 X-2.271S500
G1 X-1.822S0
G1 X-2.218S500
G1 X-2.498S0
G1 X-3.104S500
G1 X-7.98S0
G1 X-2.456S500
G1 X-2.39S0
G1 X-2.249S500
G1 X-3.539S0
G1 X-2.257S500
G1 X-3.315S0
G1 X-2.258S500
G1 X-2.191S0
G1 X-2.266S500
G1 X-4.367S0
G1 X-2.272S500
G1 X-1.868S0
G1 X-2.257S500
G1 X-1.47S0
G1 X-4.238S500
G1 X-1.469S0
G1 X-2.257S500
G1 X-2.5S0
G1 Y0.1
G1 X2.5
G1 X2.257S500
G1 X1.444S0
G1 X4.289S500
G1 X1.444S0
G1 X2.257S500
G1 X1.856S0
G1 X2.271S500
G1 X4.391S0
G1 X2.268S500
G1 X2.178S0
G1 X2.258S500
G1 X3.315S0
G1 X2.257S500
G1 X3.539S0
G1 X2.249S500
G1 X2.39S0
G1 X2.456S500
G1 X8.054S0
G1 X3.467S500
G1 X2.064S0
G1 X2.216S500
G1 X1.811S0
G1 X2.268S500
G1 X4.244S0
G1 X2.292S500
G1 X2.5S0
G1 Y0.1
G1 X-2.5
G1 X-2.279S500
G1 X-4.27S0
G1 X-2.266S500
G1 X-1.799S0
G1 X-2.213S500
G1 X-1.612S0
G1 X-3.848S500
G1 X-8.129S0
G1 X-2.456S500
G1 X-2.39S0
G1 X-2.249S500
G1 X-3.539S0
G1 X-2.257S500
G1 X-3.315S0
G1 X-2.258S500
G1 X-2.168S0
G1 X-2.269S500
G1 X-4.412S0
G1 X-2.27S500
G1 X-1.845S0
G1 X-2.257S500
G1 X-1.419S0
G1 X-2.157S500
G1 X-0.026S0
G1 X-2.156S500
G1 X-1.419S0
G1 X-2.257S500
G1 X-2.5S0
G1 Y0.1
G1 X2.5
G1 X2.257S500
G1 X1.393S0
G1 X2.156S500
G1 X0.079S0
G1 X2.155S500
G1 X1.394S0
G1 X2.257S500
G1 X1.842S0
G1 X2.265S500
G1 X4.429S0
G1 X2.264S500
G1 X2.164S0
G1 X2.258S500
G1 X3.315S0
G1 X2.257S500
G1 X3.539S0
G1 X2.249S500
G1 X2.39S0
G1 X2.456S500
G1 X8.233S0
G1 X4.196S500
G1 X1.163S0
G1 X2.211S500
G1 X1.79S0
G1 X2.266S500
G1 X4.285S0
G1 X2.272S500
G1 X2.5S0
G1 Y0.1
G1 X-2.5
G1 X-2.268S500
G1 X-4.293S0
G1 X-2.265S500
G1 X-1.786S0
G1 X-2.212S500
G1 X-0.747S0
G1 X-4.504S500
G1 X-8.341S0
G1 X-2.456S500
G1 X-2.39S0
G1 X-2.249S500
G1 X-3.539S0
G1 X-2.257S500
G1 X-3.315S0
G1 X-2.258S500
G1 X-2.16S0
G1 X-2.263S500
G1 X-4.438S0
G1 X-2.265S500
G1 X-1.838S0
G1 X-2.257S500
G1 X-1.369S0
G1 X-2.154S500
G1 X-0.132S0
G1 X-2.154S500
G1 X-1.368S0
G1 X-2.257S500
G1 X-2.5S0
G1 Y0.1
G1 X2.5
G1 X2.257S500
G1 X1.343S0
G1 X2.153S500
G1 X0.185S0
G1 X2.152S500
G1 X1.344S0
G1 X2.257S500
G1 X1.834S0
G1 X2.265S500
G1 X4.445S0
G1 X2.264S500
G1 X2.156S0
G1 X2.258S500
G1 X3.315S0
G1 X2.258S500
G1 X3.538S0
G1 X2.249S500
G1 X2.39S0
G1 X2.456S500
G1 X8.448S0
G1 X4.765S500
G1 X0.379S0
G1 X2.212S500
G1 X1.782S0
G1 X2.265S500
G1 X4.301S0
G1 X2.264S500
G1 X2.5S0
G1 Y0.1
G1 X-2.5
G1 X-2.26S500
G1 X-4.309S0
G1 X-2.264S500
G1 X-1.778S0
G1 X-2.213S500
G1 X-0.065S0
G1 X-4.93S500
G1 X-8.597S0
G1 X-2.456S500
G1 X-2.39S0
G1 X-2.249S500
G1 X-3.537S0
G1 X-2.259S500
G1 X-3.315S0
G1 X-2.258S500
G1 X-2.152S0
G1 X-2.265S500
G1 X-4.452S0
G1 X-2.265S500
G1 X-1.83S0
G1 X-2.257S500
G1 X-1.319S0
G1 X-2.151S500
G1 X-0.238S0
G1 X-2.151S500
G1 X-1.318S0
G1 X-2.257S500
G1 X-2.5S0
G1 Y0.1
G1 X2.5
G1 X2.257S500
G1 X1.293S0
G1 X2.15S500
G1 X0.291S0
G1 X2.15S500
G1 X1.293S0
G1 X2.257S500
G1 X1.828S0
G1 X2.266S500
G1 X4.454S0
G1 X2.266S500
G1 X2.15S0
G1 X2.258S500
G1 X3.315S0
G1 X2.26S500
G1 X3.536S0
G1 X2.249S500
G1 X2.39S0
G1 X2.456S500
G1 X8.749S0
G1 X7.056S500
G1 X1.775S0
G1 X2.264S500
G1 X4.315S0
G1 X2.257S500
G1 X2.5S0
G1 Y0.1
G1 X-2.5
G1 X-2.262S500
G1 X-4.306S0
G1 X-2.269S500
G1 X-1.774S0
G1 X-6.87S500
G1 X-8.935S0
G1 X-2.456S500
G1 X-2.39S0
G1 X-2.249S500
G1 X-3.534S0
G1 X-2.262S500
G1 X-3.315S0
G1 X-2.258S500
G1 X-2.154S0
G1 X-2.264S500
G1 X-4.448S0
G1 X-2.266S500
G1 X-1.832S0
G1 X-2.257S500
G1 X-1.268S0
G1 X-2.149S500
G1 X-0.344S0
G1 X-2.148S500
G1 X-1.268S0
G1 X-2.257S500
G1 X-2.5S0
G1 Y0.1
G1 X2.5
G1 X2.257S500
G1 X1.243S0
G1 X2.146S500
G1 X0.398S0
G1 X2.147S500
G1 X1.243S0
G1 X2.257S500
G1 X1.836S0
G1 X2.266S500
G1 X4.441S0
G1 X2.263S500
G1 X2.158S0
G1 X2.258S500
G1 X3.315S0
G1 X2.265S500
G1 X3.531S0
G1 X2.249S500
G1 X2.39S0
G1 X2.456S500
G1 X9.159S0
G1 X6.647S500
G1 X1.776S0
G1 X2.27S500
G1 X4.298S0
G1 X2.266S500
G1 X2.5S0
G1 Y0.1
G1 X-2.5
G1 X-2.27S500
G1 X-4.29S0
G1 X-2.271S500
G1 X-1.779S0
G1 X-6.355S500
G1 X-9.451S0
G1 X-2.456S500
G1 X-2.39S0
G1 X-2.249S500
G1 X-3.528S0
G1 X-2.268S500
G1 X-3.315S0
G1 X-2.258S500
G1 X-2.162S0
G1 X-2.262S500
G1 X-4.434S0
G1 X-2.266S500
G1 X-1.84S0
G1 X-2.257S500
G1 X-1.218S0
G1 X-2.145S500
G1 X-0.451S0
G1 X-2.146S500
G1 X-1.217S0
G1 X-2.257S500
G1 X-2.5S0
G1 Y0.1
G1 X2.5
G1 X2.257S500
G1 X1.192S0
G1 X2.144S500
G1 X0.504S0
G1 X2.144S500
G1 X1.193S0
G1 X2.257S500
G1 X1.844S0
G1 X2.266S500
G1 X4.421S0
G1 X2.267S500
G1 X2.166S0
G1 X2.258S500
G1 X3.315S0
G1 X2.272S500
G1 X3.524S0
G1 X2.249S500
G1 X2.39S0
G1 X5.953S500
G1 X6.32S0
G1 X5.989S500
G1 X1.782S0
G1 X2.272S500
G1 X4.282S0
G1 X2.274S500
G1 X2.5S0
G1 Y0.1
G1 X-2.5
G1 X-2.286S500
G1 X-4.258S0
G1 X-2.281S500
G1 X-1.785S0
G1 X-5.517S500
G1 X-6.271S0
G1 X-6.474S500
G1 X-2.39S0
G1 X-2.249S500
G1 X-3.518S0
G1 X-2.278S500
G1 X-3.315S0
G1 X-2.258S500
G1 X-2.172S0
G1 X-2.27S500
G1 X-4.4S0
G1 X-2.272S500
G1 X-1.85S0
G1 X-2.257S500
G1 X-1.168S0
G1 X-2.142S500
G1 X-0.557S0
G1 X-2.143S500
G1 X-1.167S0
G1 X-2.257S500
G1 X-2.5S0
G1 Y0.1
G1 X2.5
G1 X2.257S500
G1 X1.142S0
G1 X2.141S500
G1 X0.61S0
G1 X2.142S500
G1 X1.142S0
G1 X2.257S500
G1 X1.862S0
G1 X2.272S500
G1 X4.379S0
G1 X2.266S500
G1 X2.185S0
G1 X2.258S500
G1 X3.315S0
G1 X2.283S500
G1 X3.512S0
G1 X2.25S500
G1 X2.39S0
G1 X6.836S500
G1 X6.392S0
G1 X5.035S500
G1 X1.789S0
G1 X2.288S500
G1 X4.233S0
G1 X2.299S500
G1 X2.5S0
G1 Y0.1
G1 X-2.5
G1 X-2.313S500
G1 X-4.206S0
G1 X-2.291S500
G1 X-1.799S0
G1 X-4.551S500
G1 X-6.585S0
G1 X-7.127S500
G1 X-2.39S0
G1 X-2.254S500
G1 X-3.499S0
G1 X-2.292S500
G1 X-3.315S0
G1 X-2.258S500
G1 X-2.197S0
G1 X-2.268S500
G1 X-4.352S0
G1 X-2.272S500
G1 X-1.875S0
G1 X-2.257S500
G1 X-1.117S0
G1 X-2.14S500
G1 X-0.663S0
G1 X-2.14S500
G1 X-1.117S0
G1 X-2.257S500
G1 X-2.5S0
G1 Y0.1
G1 X2.5
G1 X2.257S500
G1 X1.092S0
G1 X2.138S500
G1 X0.716S0
G1 X2.139S500
G1 X1.092S0
G1 X2.257S500
G1 X1.887S0
G1 X2.273S500
G1 X4.323S0
G1 X2.272S500
G1 X2.209S0
G1 X2.258S500
G1 X3.315S0
G1 X2.3S500
G1 X3.487S0
G1 X2.258S500
G1 X2.39S0
G1 X7.354S500
G1 X6.821S0
G1 X4.088S500
G1 X1.809S0
G1 X2.294S500
G1 X4.179S0
G1 X2.327S500
G1 X2.5S0
G1 Y0.1
G1 X-2.5
G1 X-2.348S500
G1 X-4.136S0
G1 X-2.306S500
G1 X-1.818S0
G1 X-3.649S500
G1 X-7.062S0
G1 X-7.553S500
G1 X-2.39S0
G1 X-2.262S500
G1 X-3.472S0
G1 X-2.311S500
G1 X-3.315S0
G1 X-2.258S500
G1 X-2.221S0
G1 X-2.276S500
G1 X-4.285S0
G1 X-2.283S500
G1 X-1.899S0
G1 X-2.257S500
G1 X-1.067S0
G1 X-2.137S500
G1 X-0.769S0
G1 X-2.138S500
G1 X-1.066S0
G1 X-2.257S500
G1 X-2.5S0
G1 Y0.1
G1 X2.5
G1 X2.257S500
G1 X1.041S0
G1 X2.136S500
G1 X0.822S0
G1 X2.136S500
G1 X1.042S0
G1 X2.257S500
G1 X1.916S0
G1 X2.288S500
G1 X4.241S0
G1 X2.281S500
G1 X2.238S0
G1 X2.258S500
G1 X3.315S0
G1 X2.323S500
G1 X3.456S0
G1 X2.266S500
G1 X2.39S0
G1 X7.727S500
G1 X7.293S0
G1 X3.244S500
G1 X1.828S0
G1 X2.319S500
G1 X4.088S0
G1 X2.373S500
G1 X2.5S0
G1 Y0.1
G1 X-2.5
G1 X-2.398S500
G1 X-4.04S0
G1 X-2.329S500
G1 X-1.841S0
G1 X-2.854S500
G1 X-7.531S0
G1 X-7.879S500
G1 X-2.391S0
G1 X-2.271S500
G1 X-3.435S0
G1 X-2.338S500
G1 X-3.315S0
G1 X-2.258S500
G1 X-2.26S0
G1 X-2.283S500
G1 X-4.194S0
G1 X-2.29S500
G1 X-1.937S0
G1 X-2.257S500
G1 X-1.017S0
G1 X-2.134S500
G1 X-0.875S0
G1 X-2.135S500
G1 X-1.016S0
G1 X-2.257S500
G1 X-2.5S0
G1 Y0.1
G1 X2.5
G1 X2.257S500
G1 X0.991S0
G1 X2.133S500
G1 X0.928S0
G1 X2.134S500
G1 X0.991S0
G1 X2.257S500
G1 X1.958S0
G1 X2.293S500
G1 X4.146S0
G1 X2.286S500
G1 X2.281S0
G1 X2.258S500
G1 X3.315S0
G1 X2.354S500
G1 X3.406S0
G1 X2.281S500
G1 X2.394S0
G1 X8.014S500
G1 X7.755S0
G1 X2.491S500
G1 X1.863S0
G1 X2.337S500
G1 X3.989S0
G1 X2.423S500
G1 X2.5S0
G1 Y0.1
G1 X-2.5
G1 X-2.46S500
G1 X-3.918S0
G1 X-2.354S500
G1 X-1.883S0
G1 X-2.211S500
G1 X-4.353S0
G1 X-0.62S500
G1 X-2.934S0
G1 X-8.139S500
G1 X-2.397S0
G1 X-2.292S500
G1 X-3.371S0
G1 X-2.375S500
G1 X-3.315S0
G1 X-2.258S500
G1 X-2.302S0
G1 X-2.298S500
G1 X-4.079S0
G1 X-2.305S500
G1 X-1.98S0
G1 X-2.257S500
G1 X-0.966S0
G1 X-2.132S500
G1 X-0.981S0
G1 X-2.132S500
G1 X-0.966S0
G1 X-2.257S500
G1 X-2.5S0
G1 Y0.1
G1 X2.5
G1 X2.257S500
G1 X0.941S0
G1 X2.13S500
G1 X1.034S0
G1 X2.131S500
G1 X0.941S0
G1 X2.257S500
G1 X2.001S0
G1 X2.319S500
G1 X4.011S0
G1 X2.309S500
G1 X2.324S0
G1 X2.258S500
G1 X3.315S0
G1 X2.398S500
G1 X3.335S0
G1 X2.301S500
G1 X2.401S0
G1 X8.245S500
G1 X2.585S0
G1 X1.046S500
G1 X4.161S0
G1 X2.216S500
G1 X1.905S0
G1 X2.371S500
G1 X3.845S0
G1 X2.498S500
G1 X2.5S0
G1 Y0.1
G1 X-2.5
G1 X-2.536S500
G1 X-3.773S0
G1 X-2.387S500
G1 X-1.927S0
G1 X-2.221S500
G1 X-4.068S0
G1 X-1.266S500
G1 X-2.343S0
G1 X-8.351S500
G1 X-2.404S0
G1 X-2.312S500
G1 X-3.29S0
G1 X-2.429S500
G1 X-3.315S0
G1 X-2.258S500
G1 X-2.355S0
G1 X-2.315S500
G1 X-3.94S0
G1 X-2.322S500
G1 X-2.032S0
G1 X-2.257S500
G1 X-0.916S0
G1 X-2.129S500
G1 X-1.087S0
G1 X-2.13S500
G1 X-0.915S0
G1 X-2.257S500
G1 X-2.5S0
G1 Y0.1
G1 X2.5
G1 X2.257S500
G1 X0.89S0
G1 X2.128S500
G1 X1.14S0
G1 X2.128S500
G1 X0.891S0
G1 X2.257S500
G1 X2.063S0
G1 X2.334S500
G1 X3.853S0
G1 X2.328S500
G1 X2.386S0
G1 X2.258S500
G1 X3.315S0
G1 X2.471S500
G1 X3.225S0
G1 X2.332S500
G1 X2.407S0
G1 X8.437S500
G1 X2.162S0
G1 X1.433S500
G1 X3.987S0
G1 X2.227S500
G1 X1.955S0
G1 X2.408S500
G1 X3.68S0
G1 X2.583S500
G1 X2.5S0
G1 Y0.1
G1 X-2.5
G1 X-2.635S500
G1 X-3.58S0
G1 X-2.43S500
G1 X-1.986S0
G1 X-2.232S500
G1 X-3.907S0
G1 X-1.574S500
G1 X-2.008S0
G1 X-8.52S500
G1 X-2.411S0
G1 X-2.354S500
G1 X-3.151S0
G1 X-2.519S500
G1 X-3.315S0
G1 X-2.258S500
G1 X-2.418S0
G1 X-2.339S500
G1 X-3.762S0
G1 X-2.35S500
G1 X-2.095S0
G1 X-2.257S500
G1 X-0.866S0
G1 X-2.126S500
G1 X-1.193S0
G1 X-2.127S500
G1 X-0.865S0
G1 X-2.257S500
G1 X-2.5S0
G1 Y0.1
G1 X2.5
G1 X2.257S500
G1 X0.84S0
G1 X2.125S500
G1 X1.246S0
G1 X2.125S500
G1 X0.841S0
G1 X2.257S500
G1 X2.126S0
G1 X2.367S500
G1 X3.658S0
G1 X2.364S500
G1 X2.449S0
G1 X2.258S500
G1 X3.315S0
G1 X2.567S500
G1 X3.077S0
G1 X2.368S500
G1 X2.423S0
G1 X8.602S500
G1 X1.872S0
G1 X1.695S500
G1 X3.82S0
G1 X2.24S500
G1 X2.025S0
G1 X2.451S500
G1 X3.48S0
G1 X2.687S500
G1 X2.5S0
G1 Y0.1
G1 X-2.5
G1 X-2.749S500
G1 X-3.357S0
G1 X-2.486S500
G1 X-2.063S0
G1 X-2.248S500
G1 X-3.733S0
G1 X-1.794S500
G1 X-1.776S0
G1 X-8.666S500
G1 X-2.434S0
G1 X-2.383S500
G1 X-2.988S0
G1 X-2.63S500
G1 X-3.315S0
G1 X-2.258S500
G1 X-2.488S0
G1 X-2.381S500
G1 X-3.545S0
G1 X-2.387S500
G1 X-2.163S0
G1 X-2.257S500
G1 X-0.815S0
G1 X-2.124S500
G1 X-1.299S0
G1 X-2.124S500
G1 X-0.815S0
G1 X-2.257S500
G1 X-2.5S0
G1 Y0.1
G1 X2.5
G1 X2.257S500
G1 X0.79S0
G1 X2.122S500
G1 X1.352S0
G1 X2.123S500
G1 X0.79S0
G1 X2.257S500
G1 X2.206S0
G1 X2.41S500
G1 X3.411S0
G1 X2.406S500
G1 X2.531S0
G1 X2.258S500
G1 X3.315S0
G1 X2.696S500
G1 X2.88S0
G1 X2.413S500
G1 X2.446S0
G1 X8.729S500
G1 X1.693S0
G1 X1.879S500
G1 X3.647S0
G1 X2.257S500
G1 X2.107S0
G1 X2.518S500
G1 X3.224S0
G1 X2.818S500
G1 X2.5S0
G1 Y0.1
G1 X-2.5
G1 X-2.888S500
G1 X-3.088S0
G1 X-2.548S500
G1 X-2.156S0
G1 X-2.271S500
G1 X-3.551S0
G1 X-1.958S500
G1 X-1.619S0
G1 X-8.793S500
G1 X-2.457S0
G1 X-2.446S500
G1 X-2.762S0
G1 X-2.77S500
G1 X-3.315S0
G1 X-2.258S500
G1 X-2.573S0
G1 X-2.435S500
G1 X-3.274S0
G1 X-2.434S500
G1 X-2.248S0
G1 X-2.257S500
G1 X-0.765S0
G1 X-2.121S500
G1 X-1.406S0
G1 X-2.121S500
G1 X-0.764S0
G1 X-2.257S500
G1 X-2.5S0
G1 Y0.1
G1 X2.5
G1 X2.257S500
G1 X0.739S0
G1 X2.12S500
G1 X1.458S0
G1 X2.12S500
G1 X0.74S0
G1 X2.257S500
G1 X2.291S0
G1 X2.475S500
G1 X3.106S0
G1 X2.477S500
G1 X2.615S0
G1 X2.258S500
G1 X3.315S0
G1 X2.86S500
G1 X2.628S0
G1 X2.478S500
G1 X2.469S0
G1 X2.456S500
G1 X2.358S0
G1 X4.028S500
G1 X1.574S0
G1 X2.027S500
G1 X3.442S0
G1 X2.295S500
G1 X2.205S0
G1 X2.598S500
G1 X2.911S0
G1 X2.978S500
G1 X2.5S0
G1 Y0.1
G1 X-2.5
G1 X-3.07S500
G1 X-2.732S0
G1 X-2.648S500
G1 X-2.262S0
G1 X-2.312S500
G1 X-3.327S0
G1 X-2.096S500
G1 X-1.536S0
G1 X-3.503S500
G1 X-2.93S0
G1 X-2.456S500
G1 X-2.486S0
G1 X-2.519S500
G1 X-2.476S0
G1 X-2.954S500
G1 X-3.315S0
G1 X-2.258S500
G1 X-2.666S0
G1 X-2.514S500
G1 X-2.928S0
G1 X-2.518S500
G1 X-2.338S0
G1 X-2.257S500
G1 X-0.715S0
G1 X-2.118S500
G1 X-1.512S0
G1 X-2.118S500
G1 X-0.714S0
G1 X-2.257S500
G1 X-2.5S0
G1 Y0.1
G1 X2.5
G1 X2.257S500
G1 X0.689S0
G1 X2.117S500
G1 X1.565S0
G1 X2.116S500
G1 X0.69S0
G1 X2.257S500
G1 X2.393S0
G1 X2.568S500
G1 X2.714S0
G1 X2.568S500
G1 X2.721S0
G1 X2.258S500
G1 X3.315S0
G1 X3.075S500
G1 X2.281S0
G1 X2.572S500
G1 X2.507S0
G1 X2.456S500
G1 X3.248S0
G1 X3.233S500
G1 X1.497S0
G1 X2.178S500
G1 X3.189S0
G1 X2.336S500
G1 X2.328S0
G1 X2.715S500
G1 X2.51S0
G1 X3.182S500
G1 X2.5S0
G1 Y0.1
G1 X-2.5
G1 X-3.306S500
G1 X-2.268S0
G1 X-2.785S500
G1 X-2.4S0
G1 X-2.372S500
G1 X-3.029S0
G1 X-2.256S500
G1 X-1.479S0
G1 X-3.054S500
G1 X-3.467S0
G1 X-2.456S500
G1 X-2.531S0
G1 X-2.643S500
G1 X-2.053S0
G1 X-3.208S500
G1 X-3.315S0
G1 X-2.258S500
G1 X-2.776S0
G1 X-2.636S500
G1 X-2.468S0
G1 X-2.636S500
G1 X-2.448S0
G1 X-2.257S500
G1 X-0.664S0
G1 X-2.116S500
G1 X-1.618S0
G1 X-2.115S500
G1 X-0.664S0
G1 X-2.257S500
G1 X-2.5S0
G1 Y0.1
G1 X2.5
G1 X2.257S500
G1 X0.639S0
G1 X2.114S500
G1 X1.671S0
G1 X2.114S500
G1 X0.639S0
G1 X2.257S500
G1 X2.503S0
G1 X2.732S500
G1 X2.173S0
G1 X2.725S500
G1 X2.831S0
G1 X2.258S500
G1 X3.315S0
G1 X3.374S500
G1 X1.756S0
G1 X2.744S500
G1 X2.561S0
G1 X2.456S500
G1 X3.638S0
G1 X2.918S500
G1 X1.471S0
G1 X2.347S500
G1 X2.848S0
G1 X2.412S500
G1 X2.471S0
G1 X2.891S500
G1 X1.958S0
G1 X3.462S500
G1 X2.5S0
G1 Y0.1
G1 X-2.5
G1 X-3.648S500
G1 X-1.589S0
G1 X-3.026S500
G1 X-2.542S0
G1 X-2.487S500
G1 X-2.607S0
G1 X-2.463S500
G1 X-1.464S0
G1 X-2.827S500
G1 X-3.763S0
G1 X-2.456S500
G1 X-2.591S0
G1 X-2.913S500
G1 X-1.329S0
G1 X-3.602S500
G1 X-3.315S0
G1 X-2.258S500
G1 X-2.898S0
G1 X-2.842S500
G1 X-1.812S0
G1 X-2.845S500
G1 X-2.567S0
G1 X-2.257S500
G1 X-0.614S0
G1 X-2.113S500
G1 X-1.724S0
G1 X-2.112S500
G1 X-0.614S0
G1 X-2.257S500
G1 X-2.5S0
G1 Y0.1
G1 X2.5
G1 X2.257S500
G1 X0.588S0
G1 X2.112S500
G1 X1.777S0
G1 X2.111S500
G1 X0.589S0
G1 X2.257S500
G1 X2.636S0
G1 X3.038S500
G1 X1.278S0
G1 X3.044S500
G1 X2.22S0
G1 X4.109S500
G1 X2.212S0
G1 X4.031S500
G1 X0.485S0
G1 X3.288S500
G1 X2.631S0
G1 X2.456S500
G1 X3.869S0
G1 X2.755S500
G1 X1.473S0
G1 X2.601S500
G1 X2.28S0
G1 X2.596S500
G1 X2.639S0
G1 X3.238S500
G1 X1.045S0
G1 X3.92S500
G1 X2.5S0
G1 Y0.1
G1 X-2.5
G1 X-8.141S500
G1 X-2.738S0
G1 X-2.789S500
G1 X-1.77S0
G1 X-2.835S500
G1 X-1.495S0
G1 X-2.69S500
G1 X-3.958S0
G1 X-2.456S500
G1 X-2.673S0
G1 X-7.762S500
G1 X-1.902S0
G1 X-4.621S500
G1 X-2.088S0
G1 X-7.22S500
G1 X-2.706S0
G1 X-2.257S500
G1 X-0.564S0
G1 X-2.11S500
G1 X-1.83S0
G1 X-2.11S500
G1 X-0.563S0
G1 X-2.257S500
G1 X-2.5S0
G1 Y0.1
G1 X2.5
G1 X2.257S500
G1 X0.538S0
G1 X2.109S500
G1 X1.883S0
G1 X2.108S500
G1 X0.539S0
G1 X2.257S500
G1 X2.778S0
G1 X7.072S500
G1 X2.041S0
G1 X4.906S500
G1 X1.74S0
G1 X7.713S500
G1 X2.722S0
G1 X2.456S500
G1 X4.029S0
G1 X2.641S500
G1 X1.519S0
G1 X3.559S500
G1 X0.392S0
G1 X3.359S500
G1 X2.838S0
G1 X8.079S500
G1 X2.5S0
G1 Y0.1
G1 X-2.5
G1 X-8.009S500
G1 X-2.945S0
G1 X-7.209S500
G1 X-1.56S0
G1 X-2.604S500
G1 X-4.089S0
G1 X-2.456S500
G1 X-2.775S0
G1 X-7.66S500
G1 X-1.646S0
G1 X-5.087S500
G1 X-2.041S0
G1 X-6.898S500
G1 X-2.865S0
G1 X-2.257S500
G1 X-0.513S0
G1 X-2.108S500
G1 X-1.936S0
G1 X-2.107S500
G1 X-0.513S0
G1 X-2.257S500
G1 X-2.5S0
G1 Y0.1
G1 X2.5
G1 X2.257S500
G1 X0.488S0
G1 X2.106S500
G1 X1.989S0
G1 X2.106S500
G1 X0.488S0
G1 X2.257S500
G1 X2.952S0
G1 X6.724S500
G1 X2.07S0
G1 X5.21S500
G1 X1.581S0
G1 X2.257S500
G1 X0.004S0
G1 X5.34S500
G1 X2.834S0
G1 X2.456S500
G1 X4.141S0
G1 X2.575S500
G1 X1.602S0
G1 X7.088S500
G1 X3.079S0
G1 X5.778S500
G1 X0.02S0
G1 X2.133S500
G1 X2.5S0
G1 Y0.1
G1 X-2.5
G1 X-2.133S500
G1 X-0.119S0
G1 X-5.601S500
G1 X-3.215S0
G1 X-6.962S500
G1 X-1.657S0
G1 X-2.551S500
G1 X-4.178S0
G1 X-2.456S500
G1 X-2.898S0
G1 X-5.185S500
G1 X-0.095S0
G1 X-2.257S500
G1 X-1.543S0
G1 X-5.286S500
G1 X-2.122S0
G1 X-6.547S500
G1 X-3.039S0
G1 X-2.257S500
G1 X-0.463S0
G1 X-2.105S500
G1 X-2.042S0
G1 X-2.104S500
G1 X-0.463S0
G1 X-2.257S500
G1 X-2.5S0
G1 Y0.1
G1 X2.5
G1 X2.257S500
G1 X0.437S0
G1 X2.104S500
G1 X2.095S0
G1 X2.103S500
G1 X0.438S0
G1 X2.257S500
G1 X3.147S0
G1 X6.33S500
G1 X2.204S0
G1 X5.335S500
G1 X1.521S0
G1 X2.257S500
G1 X0.186S0
G1 X5.031S500
G1 X2.961S0
G1 X2.456S500
G1 X4.216S0
G1 X2.526S500
G1 X1.734S0
G1 X6.814S500
G1 X3.358S0
G1 X5.418S500
G1 X0.217S0
G1 X2.133S500
G1 X2.5S0
G1 Y0.1
G1 X-2.5
G1 X-2.133S500
G1 X-0.316S0
G1 X-5.222S500
G1 X-3.523S0
G1 X-6.657S500
G1 X-1.811S0
G1 X-2.515S500
G1 X-4.239S0
G1 X-2.456S500
G1 X-3.033S0
G1 X-4.862S500
G1 X-0.283S0
G1 X-2.257S500
G1 X-1.51S0
G1 X-5.356S500
G1 X-2.302S0
G1 X-6.113S500
G1 X-3.256S0
G1 X-2.257S500
G1 X-0.413S0
G1 X-2.102S500
G1 X-2.148S0
G1 X-2.102S500
G1 X-0.412S0
G1 X-2.257S500
G1 X-2.5S0
G1 Y0.1
G1 X2.5
G1 X2.257S500
G1 X0.387S0
G1 X2.101S500
G1 X2.201S0
G1 X2.1S500
G1 X0.388S0
G1 X2.257S500
G1 X3.368S0
G1 X5.886S500
G1 X2.417S0
G1 X5.357S500
G1 X1.509S0
G1 X2.257S500
G1 X0.384S0
G1 X4.676S500
G1 X3.118S0
G1 X2.456S500
G1 X4.259S0
G1 X2.508S500
G1 X1.903S0
G1 X6.463S500
G1 X3.709S0
G1 X5.01S500
G1 X0.431S0
G1 X2.133S500
G1 X2.5S0
G1 Y0.1
G1 X-2.5
G1 X-2.133S500
G1 X-0.547S0
G1 X-4.782S500
G1 X-3.91S0
G1 X-6.252S500
G1 X-2.019S0
G1 X-2.494S500
G1 X-4.279S0
G1 X-2.456S500
G1 X-3.204S0
G1 X-4.481S500
G1 X-0.493S0
G1 X-2.257S500
G1 X-1.518S0
G1 X-5.338S500
G1 X-2.563S0
G1 X-5.614S500
G1 X-3.504S0
G1 X-2.257S500
G1 X-0.362S0
G1 X-2.1S500
G1 X-2.254S0
G1 X-2.099S500
G1 X-0.362S0
G1 X-2.257S500
G1 X-2.5S0
G1 Y0.1
G1 X2.5
G1 X2.257S500
G1 X0.337S0
G1 X2.098S500
G1 X2.307S0
G1 X2.098S500
G1 X0.337S0
G1 X2.257S500
G1 X3.64S0
G1 X5.343S500
G1 X2.726S0
G1 X5.284S500
G1 X1.544S0
G1 X2.257S500
G1 X0.606S0
G1 X4.268S500
G1 X3.304S0
G1 X2.456S500
G1 X4.286S0
G1 X2.491S500
G1 X2.138S0
G1 X6.028S500
G1 X4.131S0
G1 X4.542S500
G1 X0.667S0
G1 X2.133S500
G1 X2.5S0
G1 Y0.1
G1 X-2.5
G1 X-2.133S500
G1 X-0.807S0
G1 X-4.275S500
G1 X-4.389S0
G1 X-5.734S500
G1 X-2.297S0
G1 X-2.489S500
G1 X-4.292S0
G1 X-2.456S500
G1 X-3.418S0
G1 X-4.027S500
G1 X-0.733S0
G1 X-2.257S500
G1 X-1.582S0
G1 X-5.207S500
G1 X-2.926S0
G1 X-5.023S500
G1 X-3.799S0
G1 X-2.257S500
G1 X-0.312S0
G1 X-2.097S500
G1 X-2.36S0
G1 X-2.096S500
G1 X-0.312S0
G1 X-2.257S500
G1 X-2.5S0
G1 Y0.1
G1 X2.5
G1 X2.257S500
G1 X0.286S0
G1 X2.096S500
G1 X2.413S0
G1 X2.095S500
G1 X0.287S0
G1 X2.257S500
G1 X3.971S0
G1 X4.681S500
G1 X3.158S0
G1 X5.088S500
G1 X1.639S0
G1 X2.257S500
G1 X0.868S0
G1 X3.775S500
G1 X3.535S0
G1 X2.456S500
G1 X4.298S0
G1 X2.487S500
G1 X2.457S0
G1 X5.438S500
G1 X4.673S0
G1 X3.983S500
G1 X0.947S0
G1 X2.133S500
G1 X2.5S0
G1 Y0.1
G1 X-2.5
G1 X-2.133S500
G1 X-1.115S0
G1 X-3.654S500
G1 X-5.014S0
G1 X-5.054S500
G1 X-2.659S0
G1 X-2.494S500
G1 X-4.293S0
G1 X-2.456S500
G1 X-3.69S0
G1 X-3.465S500
G1 X-1.023S0
G1 X-2.257S500
G1 X-1.725S0
G1 X-4.91S500
G1 X-3.447S0
G1 X-4.288S500
G1 X-4.167S0
G1 X-2.257S500
G1 X-0.262S0
G1 X-2.094S500
G1 X-2.466S0
G1 X-2.094S500
G1 X-0.261S0
G1 X-2.257S500
G1 X-2.5S0
G1 Y0.1
G1 X2.5
G1 X2.257S500
G1 X0.236S0
G1 X2.092S500
G1 X2.52S0
G1 X2.092S500
G1 X0.237S0
G1 X2.257S500
G1 X4.389S0
G1 X3.846S500
G1 X3.798S0
G1 X4.655S500
G1 X1.849S0
G1 X2.257S500
G1 X1.205S0
G1 X3.125S500
G1 X3.848S0
G1 X2.456S500
G1 X4.285S0
G1 X2.497S500
G1 X2.879S0
G1 X4.643S500
G1 X5.408S0
G1 X3.281S500
G1 X1.29S0
G1 X2.133S500
G1 X2.5S0
G1 Y0.1
G1 X-2.5
G1 X-2.133S500
G1 X-1.526S0
G1 X-2.809S500
G1 X-5.919S0
G1 X-4.081S500
G1 X-3.17S0
G1 X-2.5S500
G1 X-4.278S0
G1 X-2.456S500
G1 X-4.065S0
G1 X-2.691S500
G1 X-1.422S0
G1 X-2.257S500
G1 X-2.053S0
G1 X-4.232S500
G1 X-4.291S0
G1 X-3.298S500
G1 X-4.663S0
G1 X-2.257S500
G1 X-0.211S0
G1 X-2.091S500
G1 X-2.573S0
G1 X-2.091S500
G1 X-0.211S0
G1 X-2.257S500
G1 X-2.5S0
G1 Y0.1
G1 X2.5
G1 X2.257S500
G1 X0.186S0
G1 X2.089S500
G1 X2.626S0
G1 X2.09S500
G1 X0.186S0
G1 X2.257S500
G1 X4.995S0
G1 X2.633S500
G1 X5.336S0
G1 X2.258S500
G1 X3.315S0
G1 X2.257S500
G1 X1.698S0
G1 X2.151S500
G1 X4.329S0
G1 X2.456S500
G1 X4.27S0
G1 X2.504S500
G1 X3.518S0
G1 X3.394S500
G1 X6.562S0
G1 X2.208S500
G1 X1.827S0
G1 X2.133S500
G1 X2.5S0
G1 Y0.1
G1 X-2.5
G1 X-2.133S500
G1 X-2.324S0
G1 X-1.22S500
G1 X-7.598S0
G1 X-2.33S500
G1 X-4.041S0
G1 X-2.525S500
G1 X-4.245S0
G1 X-2.456S500
G1 X-4.731S0
G1 X-1.328S500
G1 X-2.119S0
G1 X-2.257S500
G1 X-3.315S0
G1 X-2.258S500
G1 X-5.849S0
G1 X-1.609S500
G1 X-5.506S0
G1 X-2.257S500
G1 X-0.161S0
G1 X-2.088S500
G1 X-2.679S0
G1 X-2.088S500
G1 X-0.161S0
G1 X-2.257S500
G1 X-2.5S0
G1 Y0.1
G1 X2.5
G1 X2.257S500
G1 X0.135S0
G1 X2.087S500
G1 X2.732S0
G1 X2.087S500
G1 X0.136S0
G1 X2.257S500
G1 X12.964S0
G1 X2.258S500
G1 X3.315S0
G1 X2.257S500
G1 X8.178S0
G1 X2.456S500
G1 X4.22S0
G1 X2.536S500
G1 X17.527S0
G1 X2.133S500
G1 X2.987S0
G1 X0.435S500
G1 X1.301S0
G1 X0.41S500
G1 X1.079S0
G1 X0.338S500
G1 X1.148S0
G1 X0.42S500
G1 X2.5S0
G1 X-0.006Y0.1
G1 X-2.5
G1 X-0.42S500
G1 X-1.106S0
G1 X-0.408S500
G1 X-1.039S0
G1 X-0.409S500
G1 X-1.308S0
G1 X-0.435S500
G1 X-2.987S0
G1 X-2.133S500
G1 X-17.54S0
G1 X-2.549S500
G1 X-4.194S0
G1 X-2.456S500
G1 X-8.178S0
G1 X-2.257S500
G1 X-3.315S0
G1 X-2.258S500
G1 X-12.964S0
G1 X-2.257S500
G1 X-0.111S0
G1 X-2.085S500
G1 X-2.785S0
G1 X-2.086S500
G1 X-0.11S0
G1 X-2.257S500
G1 X-2.5S0
G1 Y0.1
G1 X2.5
G1 X2.257S500
G1 X0.085S0
G1 X2.084S500
G1 X2.838S0
G1 X2.084S500
G1 X0.086S0
G1 X2.257S500
G1 X12.964S0
G1 X2.258S500
G1 X3.315S0
G1 X2.257S500
G1 X8.178S0
G1 X2.456S500
G1 X4.157S0
G1 X2.573S500
G1 X17.553S0
G1 X2.133S500
G1 X2.987S0
G1 X0.435S500
G1 X1.315S0
G1 X0.408S500
G1 X0.999S0
G1 X0.479S500
G1 X1.064S0
G1 X0.419S500
G1 X2.5S0
G1 X-0.006Y0.1
G1 X-2.5
G1 X-0.419S500
G1 X-1.022S0
G1 X-0.549S500
G1 X-0.958S0
G1 X-0.408S500
G1 X-1.322S0
G1 X-0.435S500
G1 X-2.987S0
G1 X-2.133S500
G1 X-17.566S0
G1 X-2.607S500
G1 X-4.11S0
G1 X-2.456S500
G1 X-8.178S0
G1 X-2.257S500
G1 X-3.315S0
G1 X-2.258S500
G1 X-12.964S0
G1 X-2.257S500
G1 X-0.061S0
G1 X-2.082S500
G1 X-2.891S0
G1 X-2.083S500
G1 X-0.06S0
G1 X-2.257S500
G1 X-2.5S0
G1 Y0.1
G1 X2.5
G1 X2.257S500
G1 X0.035S0
G1 X2.081S500
G1 X2.944S0
G1 X2.082S500
G1 X0.035S0
G1 X2.257S500
G1 X12.964S0
G1 X2.258S500
G1 X3.315S0
G1 X2.257S500
G1 X8.178S0
G1 X2.456S500
G1 X4.062S0
G1 X2.632S500
G1 X17.589S0
G1 X2.133S500
G1 X2.987S0
G1 X0.435S500
G1 X1.329S0
G1 X0.407S500
G1 X0.919S0
G1 X0.618S500
G1 X0.98S0
G1 X0.418S500
G1 X2.5S0
G1 X-0.006Y0.1
G1 X-2.5
G1 X-0.418S500
G1 X-0.937S0
G1 X-0.689S500
G1 X-0.879S0
G1 X-0.406S500
G1 X-1.336S0
G1 X-0.435S500
G1 X-2.987S0
G1 X-2.133S500
G1 X-17.612S0
G1 X-2.669S500
G1 X-4.002S0
G1 X-2.456S500
G1 X-8.178S0
G1 X-2.257S500
G1 X-3.315S0
G1 X-2.258S500
G1 X-12.964S0
G1 X-2.257S500
G1 X-0.01S0
G1 X-2.08S500
G1 X-2.997S0
G1 X-2.08S500
G1 X-0.01S0
G1 X-2.257S500
G1 X-2.5S0
G1 Y0.1
G1 X2.5
G1 X4.32S500
G1 X3.05S0
G1 X4.321S500
G1 X12.964S0
G1 X2.258S500
G1 X3.315S0
G1 X2.257S500
G1 X8.178S0
G1 X2.456S500
G1 X3.926S0
G1 X2.721S500
G1 X17.636S0
G1 X2.133S500
G1 X2.987S0
G1 X0.435S500
G1 X1.343S0
G1 X0.405S500
G1 X0.839S0
G1 X0.386S500
G1 X0.036S0
G1 X0.337S500
G1 X0.896S0
G1 X0.417S500
G1 X2.5S0
G1 X-0.006Y0.1
G1 X-2.5
G1 X-0.417S500
G1 X-0.853S0
G1 X-0.345S500
G1 X-0.092S0
G1 X-0.393S500
G1 X-0.798S0
G1 X-0.405S500
G1 X-1.35S0
G1 X-0.435S500
G1 X-2.987S0
G1 X-2.133S500
G1 X-17.661S0
G1 X-2.772S500
G1 X-3.85S0
G1 X-2.456S500
G1 X-8.178S0
G1 X-2.257S500
G1 X-3.315S0
G1 X-2.258S500
G1 X-12.964S0
G1 X-4.294S500
G1 X-3.103S0
G1 X-4.294S500
G1 X-2.5S0
G1 Y0.1
G1 X2.5
G1 X4.267S500
G1 X3.156S0
G1 X4.268S500
G1 X12.964S0
G1 X2.258S500
G1 X3.315S0
G1 X2.257S500
G1 X8.178S0
G1 X2.456S500
G1 X3.744S0
G1 X2.843S500
G1 X17.696S0
G1 X2.133S500
G1 X2.987S0
G1 X0.435S500
G1 X1.357S0
G1 X0.404S500
G1 X0.758S0
G1 X0.399S500
G1 X0.148S0
G1 X0.353S500
G1 X0.811S0
G1 X0.416S500
G1 X2.5S0
G1 X-0.006Y0.1
G1 X-2.5
G1 X-0.415S500
G1 X-0.77S0
G1 X-0.36S500
G1 X-0.204S0
G1 X-0.406S500
G1 X-0.718S0
G1 X-0.403S500
G1 X-1.364S0
G1 X-0.435S500
G1 X-2.987S0
G1 X-2.133S500
G1 X-17.73S0
G1 X-2.95S500
G1 X-3.603S0
G1 X-2.456S500
G1 X-8.178S0
G1 X-2.257S500
G1 X-3.315S0
G1 X-2.258S500
G1 X-12.964S0
G1 X-4.241S500
G1 X-3.209S0
G1 X-4.241S500
G1 X-2.5S0
G1 Y0.1
G1 X2.5
G1 X4.214S500
G1 X3.262S0
G1 X4.215S500
G1 X12.964S0
G1 X2.258S500
G1 X3.315S0
G1 X2.257S500
G1 X8.178S0
G1 X2.456S500
G1 X3.409S0
G1 X3.11S500
G1 X17.764S0
G1 X2.133S500
G1 X2.987S0
G1 X0.435S500
G1 X1.371S0
G1 X0.402S500
G1 X0.678S0
G1 X0.412S500
G1 X0.261S0
G1 X0.368S500
G1 X0.727S0
G1 X0.415S500
G1 X2.5S0
G1 X-0.006Y0.1
G1 X-2.5
G1 X-0.415S500
G1 X-0.685S0
G1 X-0.375S500
G1 X-0.317S0
G1 X-0.419S500
G1 X-0.637S0
G1 X-0.402S500
G1 X-1.378S0
G1 X-0.435S500
G1 X-2.987S0
G1 X-2.133S500
G1 X-17.807S0
G1 X-3.347S500
G1 X-3.129S0
G1 X-2.456S500
G1 X-8.178S0
G1 X-2.257S500
G1 X-3.315S0
G1 X-2.258S500
G1 X-12.964S0
G1 X-4.188S500
G1 X-3.315S0
G1 X-4.188S500
G1 X-2.5S0
G1 Y0.1
G1 X2.5
G1 X4.161S500
G1 X3.368S0
G1 X4.162S500
G1 X12.965S0
G1 X2.257S500
G1 X3.315S0
G1 X2.257S500
G1 X8.178S0
G1 X2.456S500
G1 X2.663S0
G1 X3.766S500
G1 X17.854S0
G1 X2.133S500
G1 X2.987S0
G1 X0.435S500
G1 X1.385S0
G1 X0.401S500
G1 X0.597S0
G1 X0.42S500
G1 X0.383S0
G1 X0.379S500
G1 X0.642S0
G1 X0.415S500
G1 X2.5S0
G1 X-0.007Y0.1
G1 X-2.5
G1 X-0.413S500
G1 X-0.601S0
G1 X-0.381S500
G1 X-0.449S0
G1 X-0.422S500
G1 X-0.557S0
G1 X-0.4S500
G1 X-1.392S0
G1 X-0.435S500
G1 X-2.987S0
G1 X-2.133S500
G1 X-17.901S0
G1 X-8.838S500
G1 X-8.178S0
G1 X-2.257S500
G1 X-3.315S0
G1 X-2.256S500
G1 X-12.966S0
G1 X-4.135S500
G1 X-3.421S0
G1 X-4.135S500
G1 X-2.5S0
G1 Y0.1
G1 X2.5
G1 X4.108S500
G1 X3.474S0
G1 X4.109S500
G1 X12.967S0
G1 X2.253S500
G1 X3.317S0
G1 X2.257S500
G1 X8.178S0
G1 X8.787S500
G1 X17.952S0
G1 X2.133S500
G1 X2.987S0
G1 X0.435S500
G1 X1.399S0
G1 X0.399S500
G1 X0.517S0
G1 X0.424S500
G1 X0.515S0
G1 X0.383S500
G1 X0.559S0
G1 X0.413S500
G1 X2.5S0
G1 X-0.006Y0.1
G1 X-2.5
G1 X-0.412S500
G1 X-0.517S0
G1 X-0.387S500
G1 X-0.58S0
G1 X-0.426S500
G1 X-0.478S0
G1 X-0.397S500
G1 X-1.406S0
G1 X-0.435S500
G1 X-2.987S0
G1 X-2.133S500
G1 X-18.014S0
G1 X-8.725S500
G1 X-8.178S0
G1 X-2.257S500
G1 X-3.318S0
G1 X-2.25S500
G1 X-12.969S0
G1 X-4.082S500
G1 X-3.528S0
G1 X-4.081S500
G1 X-2.5S0
G1 Y0.1
G1 X2.5
G1 X4.054S500
G1 X3.582S0
G1 X4.055S500
G1 X12.972S0
G1 X2.244S500
G1 X3.321S0
G1 X2.257S500
G1 X8.178S0
G1 X8.663S500
G1 X18.076S0
G1 X2.133S500
G1 X2.987S0
G1 X0.435S500
G1 X1.413S0
G1 X0.395S500
G1 X0.44S0
G1 X0.427S500
G1 X0.646S0
G1 X0.389S500
G1 X0.476S0
G1 X0.411S500
G1 X2.5S0
G1 X-0.007Y0.1
G1 X-2.5
G1 X-0.409S500
G1 X-0.436S0
G1 X-0.39S500
G1 X-0.713S0
G1 X-0.426S500
G1 X-0.402S0
G1 X-0.394S500
G1 X-1.42S0
G1 X-0.435S500
G1 X-2.987S0
G1 X-2.133S500
G1 X-18.142S0
G1 X-8.591S500
G1 X-8.184S0
G1 X-2.257S500
G1 X-3.326S0
G1 X-2.235S500
G1 X-12.976S0
G1 X-4.027S500
G1 X-3.637S0
G1 X-4.027S500
G1 X-2.5S0
G1 Y0.1
G1 X2.502
G1 X3.997S500
G1 X3.692S0
G1 X3.997S500
G1 X12.983S0
G1 X2.227S500
G1 X3.33S0
G1 X2.257S500
G1 X8.19S0
G1 X8.506S500
G1 X18.221S0
G1 X2.133S500
G1 X2.987S0
G1 X0.435S500
G1 X1.426S0
G1 X0.393S500
G1 X0.365S0
G1 X0.423S500
G1 X0.785S0
G1 X0.388S500
G1 X0.396S0
G1 X0.408S500
G1 X2.5S0
G1 X-0.006Y0.1
G1 X-2.5
G1 X-0.407S500
G1 X-0.356S0
G1 X-0.386S500
G1 X-0.858S0
G1 X-0.42S500
G1 X-0.327S0
G1 X-0.391S500
G1 X-1.433S0
G1 X-0.435S500
G1 X-2.987S0
G1 X-2.133S500
G1 X-18.3S0
G1 X-8.421S500
G1 X-8.196S0
G1 X-2.257S500
G1 X-3.34S0
G1 X-2.209S500
G1 X-12.998S0
G1 X-3.96S500
G1 X-3.751S0
G1 X-3.961S500
G1 X-2.5S0
G1 X0.007Y0.1
G1 X2.5
G1 X3.924S500
G1 X3.811S0
G1 X3.923S500
G1 X13.015S0
G1 X2.19S500
G1 X3.353S0
G1 X2.25S500
G1 X8.208S0
G1 X8.323S500
G1 X18.394S0
G1 X2.128S500
G1 X2.987S0
G1 X0.435S500
G1 X1.44S0
G1 X0.389S500
G1 X0.29S0
G1 X0.417S500
G1 X0.93S0
G1 X0.384S500
G1 X0.317S0
G1 X0.405S500
G1 X2.5S0
G1 X-0.007Y0.1
G1 X-2.5
G1 X-0.403S500
G1 X-0.277S0
G1 X-0.383S500
G1 X-1.001S0
G1 X-0.414S500
G1 X-0.253S0
G1 X-0.387S500
G1 X-1.447S0
G1 X-0.435S500
G1 X-2.991S0
G1 X-2.119S500
G1 X-18.499S0
G1 X-8.201S500
G1 X-8.236S0
G1 X-2.239S500
G1 X-3.374S0
G1 X-2.155S500
G1 X-13.041S0
G1 X-3.886S500
G1 X-3.872S0
G1 X-3.885S500
G1 X-2.5S0
G1 X0.02Y0.1
G1 X2.5
G1 X3.831S500
G1 X3.94S0
G1 X3.831S500
G1 X13.081S0
G1 X2.118S500
G1 X3.398S0
G1 X2.227S500
G1 X8.264S0
G1 X8.078S500
G1 X18.606S0
G1 X2.107S500
G1 X2.997S0
G1 X0.435S500
G1 X1.454S0
G1 X0.385S500
G1 X0.216S0
G1 X0.41S500
G1 X1.074S0
G1 X0.381S500
G1 X0.238S0
G1 X0.401S500
G1 X2.5S0
G1 X-0.006Y0.1
G1 X-2.5
G1 X-0.397S500
G1 X-0.202S0
G1 X-0.378S500
G1 X-1.146S0
G1 X-0.404S500
G1 X-0.184S0
G1 X-0.381S500
G1 X-1.461S0
G1 X-0.435S500
G1 X-3.002S0
G1 X-2.089S500
G1 X-18.743S0
G1 X-7.932S500
G1 X-8.297S0
G1 X-2.206S500
G1 X-3.436S0
G1 X-2.061S500
G1 X-13.136S0
G1 X-3.77S500
G1 X-4.009S0
G1 X-3.771S500
G1 X-2.5S0
G1 X0.026Y0.1
G1 X2.5
G1 X3.707S500
G1 X4.084S0
G1 X3.708S500
G1 X13.204S0
G1 X1.978S500
G1 X3.496S0
G1 X2.166S500
G1 X8.361S0
G1 X7.76S500
G1 X18.889S0
G1 X2.054S500
G1 X3.019S0
G1 X0.435S500
G1 X1.468S0
G1 X0.378S500
G1 X0.153S0
G1 X0.396S500
G1 X1.218S0
G1 X0.372S500
G1 X0.169S0
G1 X0.393S500
G1 X2.5S0
G1 X-0.007Y0.1
G1 X-2.5
G1 X-0.388S500
G1 X-0.136S0
G1 X-0.366S500
G1 X-1.29S0
G1 X-0.389S500
G1 X-0.122S0
G1 X-0.374S500
G1 X-1.475S0
G1 X-0.435S500
G1 X-3.039S0
G1 X-2.015S500
G1 X-19.06S0
G1 X-7.563S500
G1 X-8.427S0
G1 X-2.125S500
G1 X-3.569S0
G1 X-1.881S500
G1 X-13.295S0
G1 X-3.619S500
G1 X-4.167S0
G1 X-3.619S500
G1 X-2.5S0
G1 X0.055Y0.1
G1 X2.5
G1 X3.513S500
G1 X4.268S0
G1 X3.514S500
G1 X13.424S0
G1 X1.738S500
G1 X3.668S0
G1 X2.063S500
G1 X8.517S0
G1 X7.342S500
G1 X19.255S0
G1 X1.961S500
G1 X3.061S0
G1 X0.435S500
G1 X1.482S0
G1 X0.371S500
G1 X0.091S0
G1 X0.38S500
G1 X1.363S0
G1 X0.36S500
G1 X0.103S0
G1 X0.384S500
G1 X2.5S0
G1 X-0.006Y0.1
G1 X-2.5
G1 X-0.38S500
G1 X-0.07S0
G1 X-0.355S500
G1 X-1.434S0
G1 X-0.372S500
G1 X-0.061S0
G1 X-0.367S500
G1 X-1.489S0
G1 X-0.435S500
G1 X-3.1S0
G1 X-1.886S500
G1 X-19.497S0
G1 X-7.055S500
G1 X-8.638S0
G1 X-1.984S500
G1 X-3.8S0
G1 X-1.568S500
G1 X-13.575S0
G1 X-3.38S500
G1 X-4.388S0
G1 X-3.38S500
G1 X-2.5S0
G1 X0.106Y0.1
G1 X2.5
G1 X3.19S500
G1 X4.557S0
G1 X3.189S500
G1 X13.803S0
G1 X1.322S500
G1 X3.968S0
G1 X1.893S500
G1 X8.787S0
G1 X6.717S500
G1 X19.778S0
G1 X1.802S500
G1 X3.139S0
G1 X0.435S500
G1 X1.496S0
G1 X0.364S500
G1 X0.029S0
G1 X0.365S500
G1 X1.506S0
G1 X0.35S500
G1 X0.036S0
G1 X0.376S500
G1 X2.5S0
G1 X-0.007Y0.1
G1 X-2.5
G1 X-0.718S500
G1 X-1.579S0
G1 X-0.715S500
G1 X-1.503S0
G1 X-0.435S500
G1 X-3.203S0
G1 X-1.677S500
G1 X-20.144S0
G1 X-6.271S500
G1 X-8.996S0
G1 X-1.759S500
G1 X-4.194S0
G1 X-1.019S500
G1 X-14.105S0
G1 X-2.91S500
G1 X-4.797S0
G1 X-2.911S500
G1 X-2.5S0
G1 X0.238Y0.1
G1 X2.5
G1 X2.469S500
G1 X5.205S0
G1 X2.468S500
G1 X14.615S0
G1 X0.485S500
G1 X4.534S0
G1 X1.601S500
G1 X9.306S0
G1 X5.567S500
G1 X20.693S0
G1 X1.532S500
G1 X2.26S0
G1 X2.466S500
G1 X0.492S0
G1 X0.673S500
G1 X1.651S0
G1 X0.675S500
G1 X2.5S0
G1 X-0.006Y0.1
G1 X-2.5
G1 X-0.632S500
G1 X-1.723S0
G1 X-0.631S500
G1 X-0.499S0
G1 X-2.466S500
G1 X-2.368S0
G1 X-1.326S500
G1 X-21.918S0
G1 X-3.868S500
G1 X-9.987S0
G1 X-1.385S500
G1 X-20.291S0
G1 X-1.319S500
G1 X-6.403S0
G1 X-1.319S500
G1 X-2.5S0
G1 X29.493Y0.1
G1 X2.5
G1 X1.06S500
G1 X36.09S0
G1 X1.018S500
G1 X2.523S0
G1 X2.466S500
G1 X0.506S0
G1 X0.589S500
G1 X1.794S0
G1 X0.59S500
G1 X2.5S0
G1 X-8.78Y0.1
G1 X-2.5
G1 X-0.394S500
G1 X-36.73S0
G1 X-0.409S500
G1 X-2.5S0
G90
; Cut @ 3 mm/sec, 100% power
M8
G0 X65Y350
; Layer C19 Pass 1 of 3
G1 X63.709Y349.984S1000F180
G1 X62.427Y349.935
G1 X61.153Y349.853
G1 X59.888Y349.74
G1 X58.632Y349.595
G1 X57.385Y349.42
G1 X56.149Y349.213
G1 X54.923Y348.977
G1 X53.708Y348.71
G1 X52.504Y348.414
G1 X51.312Y348.089
G1 X50.131Y347.736
G1 X48.963Y347.354
G1 X47.808Y346.944
G1 X46.666Y346.506
G1 X45.538Y346.042
G1 X44.423Y345.551
G1 X43.323Y345.033
G1 X42.237Y344.49
G1 X41.167Y343.921
G1 X40.112Y343.327
G1 X39.073Y342.708
G1 X38.05Y342.065
G1 X37.044Y341.398
G1 X36.055Y340.707
G1 X35.084Y339.993
G1 X34.131Y339.257
G1 X33.195Y338.498
G1 X32.279Y337.717
G1 X31.381Y336.915
G1 X30.503Y336.091
G1 X29.645Y335.247
G1 X28.806Y334.382
G1 X27.989Y333.498
G1 X27.193Y332.594
G1 X26.417Y331.67
G1 X25.664Y330.728
G1 X24.933Y329.767
G1 X24.225Y328.789
G1 X23.539Y327.793
G1 X22.877Y326.779
G1 X22.239Y325.749
G1 X21.624Y324.702
G1 X21.035Y323.64
G1 X20.47Y322.561
G1 X19.93Y321.468
G1 X19.417Y320.359
G1 X18.929Y319.237
G1 X18.468Y318.1
G1 X18.034Y316.949
G1 X17.627Y315.785
G1 X17.248Y314.609
G1 X16.897Y313.42
G1 X16.574Y312.219
G1 X16.28Y311.006
G1 X16.016Y309.782
G1 X15.781Y308.547
G1 X15.576Y307.301
G1 X15.402Y306.046
G1 X15.258Y304.78
G1 X15.146Y303.506
G1 X15.065Y302.222
G1 X15.016Y300.931
G1 X15Y299.63
G1 Y100
G1 X15.016Y98.71
G1 X15.065Y97.427
G1 X15.146Y96.153
G1 X15.259Y94.888
G1 X15.403Y93.632
G1 X15.578Y92.386
G1 X15.784Y91.149
G1 X16.02Y89.923
G1 X16.285Y88.708
G1 X16.58Y87.504
G1 X16.904Y86.312
G1 X17.256Y85.132
G1 X17.637Y83.964
G1 X18.045Y82.808
G1 X18.481Y81.666
G1 X18.944Y80.538
G1 X19.433Y79.423
G1 X19.949Y78.323
G1 X20.49Y77.238
G1 X21.057Y76.167
G1 X21.649Y75.112
G1 X22.265Y74.073
G1 X22.906Y73.051
G1 X23.571Y72.045
G1 X24.259Y71.056
G1 X24.97Y70.084
G1 X25.704Y69.131
G1 X26.46Y68.195
G1 X27.238Y67.279
G1 X28.037Y66.381
G1 X28.858Y65.503
G1 X29.699Y64.645
G1 X30.56Y63.807
G1 X31.442Y62.989
G1 X32.343Y62.193
G1 X33.263Y61.418
G1 X34.201Y60.664
G1 X35.158Y59.933
G1 X36.133Y59.225
G1 X37.126Y58.539
G1 X38.136Y57.877
G1 X39.162Y57.239
G1 X40.205Y56.624
G1 X41.264Y56.035
G1 X42.338Y55.47
G1 X43.428Y54.931
G1 X44.532Y54.417
G1 X45.651Y53.929
G1 X46.783Y53.468
G1 X47.93Y53.034
G1 X49.089Y52.627
G1 X50.261Y52.248
G1 X51.446Y51.897
G1 X52.643Y51.574
G1 X53.851Y51.28
G1 X55.071Y51.016
G1 X56.301Y50.781
G1 X57.542Y50.576
G1 X58.793Y50.402
G1 X60.054Y50.258
G1 X61.323Y50.146
G1 X62.602Y50.065
G1 X63.889Y50.016
G1 X65.185Y50
G1 X334.815
G1 X336.111Y50.016
G1 X337.398Y50.066
G1 X338.676Y50.147
G1 X339.946Y50.261
G1 X341.207Y50.406
G1 X342.458Y50.582
G1 X343.699Y50.789
G1 X344.929Y51.027
G1 X346.149Y51.294
G1 X347.357Y51.591
G1 X348.554Y51.917
G1 X349.739Y52.272
G1 X350.911Y52.655
G1 X352.07Y53.067
G1 X353.217Y53.505
G1 X354.349Y53.971
G1 X355.468Y54.464
G1 X356.572Y54.984
G1 X357.662Y55.529
G1 X358.736Y56.1
G1 X359.795Y56.696
G1 X360.838Y57.316
G1 X361.864Y57.962
G1 X362.874Y58.631
G1 X363.866Y59.324
G1 X364.841Y60.04
G1 X365.799Y60.779
G1 X366.737Y61.54
G1 X367.657Y62.324
G1 X368.558Y63.129
G1 X369.44Y63.955
G1 X370.301Y64.802
G1 X371.142Y65.67
G1 X371.963Y66.557
G1 X372.762Y67.464
G1 X373.54Y68.391
G1 X374.296Y69.336
G1 X375.03Y70.3
G1 X375.741Y71.282
G1 X376.429Y72.281
G1 X377.094Y73.298
G1 X377.734Y74.332
G1 X378.351Y75.382
G1 X378.943Y76.448
G1 X379.51Y77.53
G1 X380.051Y78.627
G1 X380.567Y79.739
G1 X381.056Y80.866
G1 X381.519Y82.007
G1 X381.955Y83.161
G1 X382.363Y84.329
G1 X382.744Y85.509
G1 X383.096Y86.702
G1 X383.42Y87.907
G1 X383.715Y89.124
G1 X383.98Y90.352
G1 X384.216Y91.592
G1 X384.422Y92.841
G1 X384.597Y94.101
G1 X384.741Y95.37
G1 X384.854Y96.649
G1 X384.935Y97.937
G1 X384.984Y99.233
G1 X385Y100.537
G1 Y299.815
G1 X384.984Y301.111
G1 X384.934Y302.398
G1 X384.853Y303.677
G1 X384.74Y304.946
G1 X384.595Y306.207
G1 X384.42Y307.458
G1 X384.213Y308.699
G1 X383.977Y309.929
G1 X383.71Y311.149
G1 X383.414Y312.357
G1 X383.089Y313.554
G1 X382.735Y314.739
G1 X382.353Y315.911
G1 X381.944Y317.071
G1 X381.506Y318.217
G1 X381.042Y319.349
G1 X380.55Y320.468
G1 X380.033Y321.573
G1 X379.49Y322.662
G1 X378.921Y323.736
G1 X378.327Y324.795
G1 X377.708Y325.838
G1 X377.065Y326.864
G1 X376.398Y327.874
G1 X375.707Y328.867
G1 X374.993Y329.842
G1 X374.257Y330.799
G1 X373.498Y331.737
G1 X372.717Y332.658
G1 X371.915Y333.558
G1 X371.091Y334.44
G1 X370.247Y335.301
G1 X369.382Y336.142
G1 X368.498Y336.963
G1 X367.594Y337.762
G1 X366.67Y338.54
G1 X365.728Y339.296
G1 X364.767Y340.03
G1 X363.789Y340.741
G1 X362.792Y341.429
G1 X361.779Y342.094
G1 X360.749Y342.735
G1 X359.702Y343.351
G1 X358.64Y343.943
G1 X357.561Y344.51
G1 X356.468Y345.051
G1 X355.359Y345.567
G1 X354.237Y346.056
G1 X353.1Y346.519
G1 X351.949Y346.955
G1 X350.785Y347.363
G1 X349.609Y347.744
G1 X348.42Y348.096
G1 X347.219Y348.42
G1 X346.006Y348.715
G1 X344.782Y348.98
G1 X343.547Y349.216
G1 X342.301Y349.422
G1 X341.046Y349.597
G1 X339.78Y349.741
G1 X338.506Y349.854
G1 X337.222Y349.935
G1 X335.93Y349.984
G1 X334.63Y350
G1 X61.25
; Layer C19 Pass 2 of 3
G1 X334.63
G1 X335.93Y349.984
G1 X337.222Y349.935
G1 X338.506Y349.854
G1 X339.78Y349.741
G1 X341.046Y349.597
G1 X342.301Y349.422
G1 X343.547Y349.216
G1 X344.782Y348.98
G1 X346.006Y348.715
G1 X347.219Y348.42
G1 X348.42Y348.096
G1 X349.609Y347.744
G1 X350.785Y347.363
G1 X351.949Y346.955
G1 X353.1Y346.519
G1 X354.237Y346.056
G1 X355.359Y345.567
G1 X356.468Y345.051
G1 X357.561Y344.51
G1 X358.64Y343.943
G1 X359.702Y343.351
G1 X360.749Y342.735
G1 X361.779Y342.094
G1 X362.792Y341.429
G1 X363.789Y340.741
G1 X364.767Y340.03
G1 X365.728Y339.296
G1 X366.67Y338.54
G1 X367.594Y337.762
G1 X368.498Y336.963
G1 X369.382Y336.142
G1 X370.247Y335.301
G1 X371.091Y334.44
G1 X371.915Y333.558
G1 X372.717Y332.658
G1 X373.498Y331.737
G1 X374.257Y330.799
G1 X374.993Y329.842
G1 X375.707Y328.867
G1 X376.398Y327.874
G1 X377.065Y326.864
G1 X377.708Y325.838
G1 X378.327Y324.795
G1 X378.921Y323.736
G1 X379.49Y322.662
G1 X380.033Y321.573
G1 X380.55Y320.468
G1 X381.042Y319.349
G1 X381.506Y318.217
G1 X381.944Y317.071
G1 X382.353Y315.911
G1 X382.735Y314.739
G1 X383.089Y313.554
G1 X383.414Y312.357
G1 X383.71Y311.149
G1 X383.977Y309.929
G1 X384.213Y308.699
G1 X384.42Y307.458
G1 X384.595Y306.207
G1 X384.74Y304.946
G1 X384.853Y303.677
G1 X384.934Y302.398
G1 X384.984Y301.111
G1 X385Y299.815
G1 Y100.537
G1 X384.984Y99.233
G1 X384.935Y97.937
G1 X384.854Y96.649
G1 X384.741Y95.37
G1 X384.597Y94.101
G1 X384.422Y92.841
G1 X384.216Y91.592
G1 X383.98Y90.352
G1 X383.715Y89.124
G1 X383.42Y87.907
G1 X383.096Y86.702
G1 X382.744Y85.509
G1 X382.363Y84.329
G1 X381.955Y83.161
G1 X381.519Y82.007
G1 X381.056Y80.866
G1 X380.567Y79.739
G1 X380.051Y78.627
G1 X379.51Y77.53
G1 X378.943Y76.448
G1 X378.351Y75.382
G1 X377.734Y74.332
G1 X377.094Y73.298
G1 X376.429Y72.281
G1 X375.741Y71.282
G1 X375.03Y70.3
G1 X374.296Y69.336
G1 X373.54Y68.391
G1 X372.762Y67.464
G1 X371.963Y66.557
G1 X371.142Y65.67
G1 X370.301Y64.802
G1 X369.44Y63.955
G1 X368.558Y63.129
G1 X367.657Y62.324
G1 X366.737Y61.54
G1 X365.799Y60.779
G1 X364.841Y60.04
G1 X363.866Y59.324
G1 X362.874Y58.631
G1 X361.864Y57.962
G1 X360.838Y57.316
G1 X359.795Y56.696
G1 X358.736Y56.1
G1 X357.662Y55.529
G1 X356.572Y54.984
G1 X355.468Y54.464
G1 X354.349Y53.971
G1 X353.217Y53.505
G1 X352.07Y53.067
G1 X350.911Y52.655
G1 X349.739Y52.272
G1 X348.554Y51.917
G1 X347.357Y51.591
G1 X346.149Y51.294
G1 X344.929Y51.027
G1 X343.699Y50.789
G1 X342.458Y50.582
G1 X341.207Y50.406
G1 X339.946Y50.261
G1 X338.676Y50.147
G1 X337.398Y50.066
G1 X336.111Y50.016
G1 X334.815Y50
G1 X65.185
G1 X63.889Y50.016
G1 X62.602Y50.065
G1 X61.323Y50.146
G1 X60.054Y50.258
G1 X58.793Y50.402
G1 X57.542Y50.576
G1 X56.301Y50.781
G1 X55.071Y51.016
G1 X53.851Y51.28
G1 X52.643Y51.574
G1 X51.446Y51.897
G1 X50.261Y52.248
G1 X49.089Y52.627
G1 X47.93Y53.034
G1 X46.783Y53.468
G1 X45.651Y53.929
G1 X44.532Y54.417
G1 X43.428Y54.931
G1 X42.338Y55.47
G1 X41.264Y56.035
G1 X40.205Y56.624
G1 X39.162Y57.239
G1 X38.136Y57.877
G1 X37.126Y58.539
G1 X36.133Y59.225
G1 X35.158Y59.933
G1 X34.201Y60.664
G1 X33.263Y61.418
G1 X32.343Y62.193
G1 X31.442Y62.989
G1 X30.56Y63.807
G1 X29.699Y64.645
G1 X28.858Y65.503
G1 X28.037Y66.381
G1 X27.238Y67.279
G1 X26.46Y68.195
G1 X25.704Y69.131
G1 X24.97Y70.084
G1 X24.259Y71.056
G1 X23.571Y72.045
G1 X22.906Y73.051
G1 X22.265Y74.073
G1 X21.649Y75.112
G1 X21.057Y76.167
G1 X20.49Y77.238
G1 X19.949Y78.323
G1 X19.433Y79.423
G1 X18.944Y80.538
G1 X18.481Y81.666
G1 X18.045Y82.808
G1 X17.637Y83.964
G1 X17.256Y85.132
G1 X16.904Y86.312
G1 X16.58Y87.504
G1 X16.285Y88.708
G1 X16.02Y89.923
G1 X15.784Y91.149
G1 X15.578Y92.386
G1 X15.403Y93.632
G1 X15.259Y94.888
G1 X15.146Y96.153
G1 X15.065Y97.427
G1 X15.016Y98.71
G1 X15Y100
G1 Y299.63
G1 X15.016Y300.931
G1 X15.065Y302.222
G1 X15.146Y303.506
G1 X15.258Y304.78
G1 X15.402Y306.046
G1 X15.576Y307.301
G1 X15.781Y308.547
G1 X16.016Y309.782
G1 X16.28Y311.006
G1 X16.574Y312.219
G1 X16.897Y313.42
G1 X17.248Y314.609
G1 X17.627Y315.785
G1 X18.034Y316.949
G1 X18.468Y318.1
G1 X18.929Y319.237
G1 X19.417Y320.359
G1 X19.93Y321.468
G1 X20.47Y322.561
G1 X21.035Y323.64
G1 X21.624Y324.702
G1 X22.239Y325.749
G1 X22.877Y326.779
G1 X23.539Y327.793
G1 X24.225Y328.789
G1 X24.933Y329.767
G1 X25.664Y330.728
G1 X26.417Y331.67
G1 X27.193Y332.594
G1 X27.989Y333.498
G1 X28.806Y334.382
G1 X29.645Y335.247
G1 X30.503Y336.091
G1 X31.381Y336.915
G1 X32.279Y337.717
G1 X33.195Y338.498
G1 X34.131Y339.257
G1 X35.084Y339.993
G1 X36.055Y340.707
G1 X37.044Y341.398
G1 X38.05Y342.065
G1 X39.073Y342.708
G1 X40.112Y343.327
G1 X41.167Y343.921
G1 X42.237Y344.49
G1 X43.323Y345.033
G1 X44.423Y345.551
G1 X45.538Y346.042
G1 X46.666Y346.506
G1 X47.808Y346.944
G1 X48.963Y347.354
G1 X50.131Y347.736
G1 X51.312Y348.089
G1 X52.504Y348.414
G1 X53.708Y348.71
G1 X54.923Y348.977
G1 X56.149Y349.213
G1 X57.385Y349.42
G1 X58.632Y349.595
G1 X59.888Y349.74
G1 X61.153Y349.853
G1 X62.427Y349.935
G1 X63.709Y349.984
G1 X65Y350
; Layer C19 Pass 3 of 3
G1 X63.709Y349.984
G1 X62.427Y349.935
G1 X61.153Y349.853
G1 X59.888Y349.74
G1 X58.632Y349.595
G1 X57.385Y349.42
G1 X56.149Y349.213
G1 X54.923Y348.977
G1 X53.708Y348.71
G1 X52.504Y348.414
G1 X51.312Y348.089
G1 X50.131Y347.736
G1 X48.963Y347.354
G1 X47.808Y346.944
G1 X46.666Y346.506
G1 X45.538Y346.042
G1 X44.423Y345.551
G1 X43.323Y345.033
G1 X42.237Y344.49
G1 X41.167Y343.921
G1 X40.112Y343.327
G1 X39.073Y342.708
G1 X38.05Y342.065
G1 X37.044Y341.398
G1 X36.055Y340.707
G1 X35.084Y339.993
G1 X34.131Y339.257
G1 X33.195Y338.498
G1 X32.279Y337.717
G1 X31.381Y336.915
G1 X30.503Y336.091
G1 X29.645Y335.247
G1 X28.806Y334.382
G1 X27.989Y333.498
G1 X27.193Y332.594
G1 X26.417Y331.67
G1 X25.664Y330.728
G1 X24.933Y329.767
G1 X24.225Y328.789
G1 X23.539Y327.793
G1 X22.877Y326.779
G1 X22.239Y325.749
G1 X21.624Y324.702
G1 X21.035Y323.64
G1 X20.47Y322.561
G1 X19.93Y321.468
G1 X19.417Y320.359
G1 X18.929Y319.237
G1 X18.468Y318.1
G1 X18.034Y316.949
G1 X17.627Y315.785
G1 X17.248Y314.609
G1 X16.897Y313.42
G1 X16.574Y312.219
G1 X16.28Y311.006
G1 X16.016Y309.782
G1 X15.781Y308.547
G1 X15.576Y307.301
G1 X15.402Y306.046
G1 X15.258Y304.78
G1 X15.146Y303.506
G1 X15.065Y302.222
G1 X15.016Y300.931
G1 X15Y299.63
G1 Y100
G1 X15.016Y98.71
G1 X15.065Y97.427
G1 X15.146Y96.153
G1 X15.259Y94.888
G1 X15.403Y93.632
G1 X15.578Y92.386
G1 X15.784Y91.149
G1 X16.02Y89.923
G1 X16.285Y88.708
G1 X16.58Y87.504
G1 X16.904Y86.312
G1 X17.256Y85.132
G1 X17.637Y83.964
G1 X18.045Y82.808
G1 X18.481Y81.666
G1 X18.944Y80.538
G1 X19.433Y79.423
G1 X19.949Y78.323
G1 X20.49Y77.238
G1 X21.057Y76.167
G1 X21.649Y75.112
G1 X22.265Y74.073
G1 X22.906Y73.051
G1 X23.571Y72.045
G1 X24.259Y71.056
G1 X24.97Y70.084
G1 X25.704Y69.131
G1 X26.46Y68.195
G1 X27.238Y67.279
G1 X28.037Y66.381
G1 X28.858Y65.503
G1 X29.699Y64.645
G1 X30.56Y63.807
G1 X31.442Y62.989
G1 X32.343Y62.193
G1 X33.263Y61.418
G1 X34.201Y60.664
G1 X35.158Y59.933
G1 X36.133Y59.225
G1 X37.126Y58.539
G1 X38.136Y57.877
G1 X39.162Y57.239
G1 X40.205Y56.624
G1 X41.264Y56.035
G1 X42.338Y55.47
G1 X43.428Y54.931
G1 X44.532Y54.417
G1 X45.651Y53.929
G1 X46.783Y53.468
G1 X47.93Y53.034
G1 X49.089Y52.627
G1 X50.261Y52.248
G1 X51.446Y51.897
G1 X52.643Y51.574
G1 X53.851Y51.28
G1 X55.071Y51.016
G1 X56.301Y50.781
G1 X57.542Y50.576
G1 X58.793Y50.402
G1 X60.054Y50.258
G1 X61.323Y50.146
G1 X62.602Y50.065
G1 X63.889Y50.016
G1 X65.185Y50
G1 X334.815
G1 X336.111Y50.016
G1 X337.398Y50.066
G1 X338.676Y50.147
G1 X339.946Y50.261
G1 X341.207Y50.406
G1 X342.458Y50.582
G1 X343.699Y50.789
G1 X344.929Y51.027
G1 X346.149Y51.294
G1 X347.357Y51.591
G1 X348.554Y51.917
G1 X349.739Y52.272
G1 X350.911Y52.655
G1 X352.07Y53.067
G1 X353.217Y53.505
G1 X354.349Y53.971
G1 X355.468Y54.464
G1 X356.572Y54.984
G1 X357.662Y55.529
G1 X358.736Y56.1
G1 X359.795Y56.696
G1 X360.838Y57.316
G1 X361.864Y57.962
G1 X362.874Y58.631
G1 X363.866Y59.324
G1 X364.841Y60.04
G1 X365.799Y60.779
G1 X366.737Y61.54
G1 X367.657Y62.324
G1 X368.558Y63.129
G1 X369.44Y63.955
G1 X370.301Y64.802
G1 X371.142Y65.67
G1 X371.963Y66.557
G1 X372.762Y67.464
G1 X373.54Y68.391
G1 X374.296Y69.336
G1 X375.03Y70.3
G1 X375.741Y71.282
G1 X376.429Y72.281
G1 X377.094Y73.298
G1 X377.734Y74.332
G1 X378.351Y75.382
G1 X378.943Y76.448
G1 X379.51Y77.53
G1 X380.051Y78.627
G1 X380.567Y79.739
G1 X381.056Y80.866
G1 X381.519Y82.007
G1 X381.955Y83.161
G1 X382.363Y84.329
G1 X382.744Y85.509
G1 X383.096Y86.702
G1 X383.42Y87.907
G1 X383.715Y89.124
G1 X383.98Y90.352
G1 X384.216Y91.592
G1 X384.422Y92.841
G1 X384.597Y94.101
G1 X384.741Y95.37
G1 X384.854Y96.649
G1 X384.935Y97.937
G1 X384.984Y99.233
G1 X385Y100.537
G1 Y299.815
G1 X384.984Y301.111
G1 X384.934Y302.398
G1 X384.853Y303.677
G1 X384.74Y304.946
G1 X384.595Y306.207
G1 X384.42Y307.458
G1 X384.213Y308.699
G1 X383.977Y309.929
G1 X383.71Y311.149
G1 X383.414Y312.357
G1 X383.089Y313.554
G1 X382.735Y314.739
G1 X382.353Y315.911
G1 X381.944Y317.071
G1 X381.506Y318.217
G1 X381.042Y319.349
G1 X380.55Y320.468
G1 X380.033Y321.573
G1 X379.49Y322.662
G1 X378.921Y323.736
G1 X378.327Y324.795
G1 X377.708Y325.838
G1 X377.065Y326.864
G1 X376.398Y327.874
G1 X375.707Y328.867
G1 X374.993Y329.842
G1 X374.257Y330.799
G1 X373.498Y331.737
G1 X372.717Y332.658
G1 X371.915Y333.558
G1 X371.091Y334.44
G1 X370.247Y335.301
G1 X369.382Y336.142
G1 X368.498Y336.963
G1 X367.594Y337.762
G1 X366.67Y338.54
G1 X365.728Y339.296
G1 X364.767Y340.03
G1 X363.789Y340.741
G1 X362.792Y341.429
G1 X361.779Y342.094
G1 X360.749Y342.735
G1 X359.702Y343.351
G1 X358.64Y343.943
G1 X357.561Y344.51
G1 X356.468Y345.051
G1 X355.359Y345.567
G1 X354.237Y346.056
G1 X353.1Y346.519
G1 X351.949Y346.955
G1 X350.785Y347.363
G1 X349.609Y347.744
G1 X348.42Y348.096
G1 X347.219Y348.42
G1 X346.006Y348.715
G1 X344.782Y348.98
G1 X343.547Y349.216
G1 X342.301Y349.422
G1 X341.046Y349.597
G1 X339.78Y349.741
G1 X338.506Y349.854
G1 X337.222Y349.935
G1 X335.93Y349.984
G1 X334.63Y350
G1 X61.25
M9
G1 S0
M5
G90
; return to user-defined finish pos
G0 X0Y0
M2
