; LightBurn 1.7.04
; GRBL device profile, absolute coords
; Bounds: X25.5 Y136.45 to X338.5 Y387.55
G00 G17 G40 G21 G54
G90
M4
; Cut @ 1 mm/sec, 100% power
M8
G0 X123.864Y355.436
; Layer C01
G1 Y349.103S1000F60
G1 X123.886Y348.672
G1 X123.951Y348.253
G1 X124.055Y347.848
G1 X124.198Y347.459
G1 X124.377Y347.089
G1 X124.59Y346.74
G1 X124.834Y346.414
G1 X125.108Y346.113
G1 X125.409Y345.839
G1 X125.735Y345.595
G1 X126.084Y345.383
G1 X126.454Y345.204
G1 X126.842Y345.061
G1 X127.247Y344.956
G1 X127.666Y344.892
G1 X128.097Y344.87
G1 X155.529
G1 X155.96Y344.892
G1 X156.379Y344.956
G1 X156.784Y345.061
G1 X157.172Y345.204
G1 X157.542Y345.383
G1 X157.891Y345.595
G1 X158.218Y345.839
G1 X158.519Y346.113
G1 X158.792Y346.414
G1 X159.037Y346.74
G1 X159.249Y347.089
G1 X159.428Y347.459
G1 X159.571Y347.848
G1 X159.676Y348.253
G1 X159.74Y348.672
G1 X159.762Y349.103
G1 Y355.436
G1 X159.74Y355.868
G1 X159.676Y356.287
G1 X159.571Y356.692
G1 X159.428Y357.08
G1 X159.249Y357.45
G1 X159.037Y357.799
G1 X158.792Y358.125
G1 X158.519Y358.426
G1 X158.218Y358.7
G1 X157.891Y358.944
G1 X157.542Y359.157
G1 X157.172Y359.336
G1 X156.784Y359.479
G1 X156.379Y359.583
G1 X155.96Y359.648
G1 X155.529Y359.67
G1 X128.097
G1 X127.666Y359.648
G1 X127.247Y359.583
G1 X126.842Y359.479
G1 X126.454Y359.336
G1 X126.084Y359.157
G1 X125.735Y358.944
G1 X125.409Y358.7
G1 X125.108Y358.426
G1 X124.834Y358.125
G1 X124.59Y357.799
G1 X124.377Y357.45
G1 X124.198Y357.08
G1 X124.055Y356.692
G1 X123.951Y356.287
G1 X123.886Y355.868
G1 X123.864Y355.436
G1 Y354.936
G0 X118.125Y342.126
G1 X117.903Y342.309
G1 X117.719Y342.531
G1 X117.581Y342.786
G1 X117.494Y343.067
G1 X117.463Y343.37
G1 X117.494Y343.672
G1 X117.581Y343.953
G1 X117.719Y344.208
G1 X117.903Y344.43
G1 X118.125Y344.613
G1 X118.379Y344.752
G1 X118.661Y344.839
G1 X118.963Y344.87
G1 X119.265Y344.839
G1 X119.547Y344.752
G1 X119.802Y344.613
G1 X120.024Y344.43
G1 X120.207Y344.208
G1 X120.345Y343.953
G1 X120.433Y343.672
G1 X120.463Y343.37
G1 X120.433Y343.067
G1 X120.345Y342.786
G1 X120.207Y342.531
G1 X120.024Y342.309
G1 X119.802Y342.126
G1 X119.547Y341.988
G1 X119.265Y341.9
G1 X118.963Y341.87
G1 X118.661Y341.9
G1 X118.379Y341.988
G1 X118.125Y342.126
G1 X117.903Y342.309
G1 X117.975Y342.276
G0 X102.4Y361.17
G1 X79.573
G1 X78.75Y361.128
G1 X77.949Y361.005
G1 X77.176Y360.805
G1 X76.435Y360.532
G1 X75.728Y360.19
G1 X75.062Y359.784
G1 X74.439Y359.318
G1 X73.865Y358.795
G1 X73.342Y358.221
G1 X72.876Y357.598
G1 X72.469Y356.931
G1 X72.128Y356.225
G1 X71.855Y355.484
G1 X71.655Y354.71
G1 X71.532Y353.91
G1 X71.49Y353.087
G1 Y319.58
G1 X71.532Y318.757
G1 X71.655Y317.956
G1 X71.855Y317.183
G1 X72.128Y316.442
G1 X72.469Y315.735
G1 X72.876Y315.069
G1 X73.342Y314.446
G1 X73.865Y313.871
G1 X74.439Y313.349
G1 X75.062Y312.882
G1 X75.728Y312.476
G1 X76.435Y312.135
G1 X77.176Y311.862
G1 X77.949Y311.662
G1 X78.75Y311.539
G1 X79.573Y311.497
G1 X102.4
G1 X103.224Y311.539
G1 X104.024Y311.662
G1 X104.797Y311.862
G1 X105.539Y312.135
G1 X106.245Y312.476
G1 X106.911Y312.882
G1 X107.534Y313.349
G1 X108.109Y313.871
G1 X108.631Y314.446
G1 X109.098Y315.069
G1 X109.504Y315.735
G1 X109.845Y316.442
G1 X110.118Y317.183
G1 X110.318Y317.956
G1 X110.441Y318.757
G1 X110.483Y319.58
G1 Y353.087
G1 X110.441Y353.91
G1 X110.318Y354.71
G1 X110.118Y355.484
G1 X109.845Y356.225
G1 X109.504Y356.931
G1 X109.098Y357.598
G1 X108.631Y358.221
G1 X108.109Y358.795
G1 X107.534Y359.318
G1 X106.911Y359.784
G1 X106.245Y360.19
G1 X105.539Y360.532
G1 X104.797Y360.805
G1 X104.024Y361.005
G1 X103.224Y361.128
G1 X102.4Y361.17
G1 X101.9
G0 X30.541Y380.864
G1 X30.657Y381.239
G1 X30.842Y381.579
G1 X31.086Y381.875
G1 X31.382Y382.119
G1 X31.722Y382.304
G1 X32.097Y382.42
G1 X32.5Y382.461
G1 X32.903Y382.42
G1 X33.279Y382.304
G1 X33.618Y382.119
G1 X33.914Y381.875
G1 X34.159Y381.579
G1 X34.343Y381.239
G1 X34.459Y380.864
G1 X34.5Y380.461
G1 X34.459Y380.058
G1 X34.343Y379.682
G1 X34.159Y379.343
G1 X33.914Y379.047
G1 X33.618Y378.803
G1 X33.279Y378.618
G1 X32.903Y378.502
G1 X32.5Y378.461
G1 X32.097Y378.502
G1 X31.722Y378.618
G1 X31.382Y378.803
G1 X31.086Y379.047
G1 X30.842Y379.343
G1 X30.657Y379.682
G1 X30.541Y380.058
G1 X30.5Y380.461
G1 X30.541Y380.864
G1 X30.657Y381.239
G1 X30.582Y380.963
G0 X41.369Y363.632
G1 Y329.181
G1 X41.348Y328.78
G1 X41.288Y328.39
G1 X41.191Y328.013
G1 X41.058Y327.651
G1 X40.891Y327.307
G1 X40.693Y326.982
G1 X40.466Y326.678
G1 X40.211Y326.398
G1 X39.93Y326.143
G1 X39.627Y325.915
G1 X39.302Y325.717
G1 X38.957Y325.551
G1 X38.596Y325.418
G1 X38.219Y325.32
G1 X37.828Y325.26
G1 X37.427Y325.24
G1 X37.025Y325.26
G1 X36.635Y325.32
G1 X36.258Y325.418
G1 X35.897Y325.551
G1 X35.552Y325.717
G1 X35.227Y325.915
G1 X34.924Y326.143
G1 X34.643Y326.398
G1 X34.388Y326.678
G1 X34.161Y326.982
G1 X33.963Y327.307
G1 X33.796Y327.651
G1 X33.663Y328.013
G1 X33.566Y328.39
G1 X33.506Y328.78
G1 X33.485Y329.181
G1 Y363.632
G1 X33.506Y364.033
G1 X33.566Y364.423
G1 X33.663Y364.8
G1 X33.796Y365.162
G1 X33.963Y365.506
G1 X34.161Y365.831
G1 X34.388Y366.135
G1 X34.643Y366.415
G1 X34.924Y366.67
G1 X35.227Y366.898
G1 X35.552Y367.096
G1 X35.897Y367.262
G1 X36.258Y367.395
G1 X36.635Y367.493
G1 X37.025Y367.553
G1 X37.427Y367.573
G1 X37.828Y367.553
G1 X38.219Y367.493
G1 X38.596Y367.395
G1 X38.957Y367.262
G1 X39.302Y367.096
G1 X39.627Y366.898
G1 X39.93Y366.67
G1 X40.211Y366.415
G1 X40.466Y366.135
G1 X40.693Y365.831
G1 X40.891Y365.506
G1 X41.058Y365.162
G1 X41.191Y364.8
G1 X41.288Y364.423
G1 X41.348Y364.033
G1 X41.369Y363.632
G1 Y363.132
G0 X62.535Y329.181
G1 X62.515Y328.78
G1 X62.455Y328.39
G1 X62.357Y328.013
G1 X62.224Y327.651
G1 X62.058Y327.307
G1 X61.86Y326.982
G1 X61.632Y326.678
G1 X61.377Y326.398
G1 X61.097Y326.143
G1 X60.793Y325.915
G1 X60.468Y325.717
G1 X60.124Y325.551
G1 X59.762Y325.418
G1 X59.385Y325.32
G1 X58.995Y325.26
G1 X58.594Y325.24
G1 X58.192Y325.26
G1 X57.802Y325.32
G1 X57.425Y325.418
G1 X57.063Y325.551
G1 X56.719Y325.717
G1 X56.394Y325.915
G1 X56.09Y326.143
G1 X55.81Y326.398
G1 X55.555Y326.678
G1 X55.328Y326.982
G1 X55.13Y327.307
G1 X54.963Y327.651
G1 X54.83Y328.013
G1 X54.733Y328.39
G1 X54.673Y328.78
G1 X54.652Y329.181
G1 Y363.632
G1 X54.673Y364.033
G1 X54.733Y364.423
G1 X54.83Y364.8
G1 X54.963Y365.162
G1 X55.13Y365.506
G1 X55.328Y365.831
G1 X55.555Y366.135
G1 X55.81Y366.415
G1 X56.09Y366.67
G1 X56.394Y366.898
G1 X56.719Y367.096
G1 X57.063Y367.262
G1 X57.425Y367.395
G1 X57.802Y367.493
G1 X58.192Y367.553
G1 X58.594Y367.573
G1 X58.995Y367.553
G1 X59.385Y367.493
G1 X59.762Y367.395
G1 X60.124Y367.262
G1 X60.468Y367.096
G1 X60.793Y366.898
G1 X61.097Y366.67
G1 X61.377Y366.415
G1 X61.632Y366.135
G1 X61.86Y365.831
G1 X62.058Y365.506
G1 X62.224Y365.162
G1 X62.357Y364.8
G1 X62.455Y364.423
G1 X62.515Y364.033
G1 X62.535Y363.632
G1 Y329.181
G1 X62.515Y328.78
G1 X62.525Y329.084
G0 X37.427Y270.608
G1 X37.025Y270.629
G1 X36.635Y270.689
G1 X36.258Y270.786
G1 X35.897Y270.919
G1 X35.552Y271.086
G1 X35.227Y271.284
G1 X34.924Y271.511
G1 X34.643Y271.766
G1 X34.388Y272.047
G1 X34.161Y272.35
G1 X33.963Y272.675
G1 X33.796Y273.02
G1 X33.663Y273.381
G1 X33.566Y273.758
G1 X33.506Y274.148
G1 X33.485Y274.55
G1 Y309
G1 X33.506Y309.402
G1 X33.566Y309.792
G1 X33.663Y310.169
G1 X33.796Y310.531
G1 X33.963Y310.875
G1 X34.161Y311.2
G1 X34.388Y311.504
G1 X34.643Y311.784
G1 X34.924Y312.039
G1 X35.227Y312.266
G1 X35.552Y312.464
G1 X35.897Y312.631
G1 X36.258Y312.764
G1 X36.635Y312.861
G1 X37.025Y312.921
G1 X37.427Y312.942
G1 X37.828Y312.921
G1 X38.219Y312.861
G1 X38.596Y312.764
G1 X38.957Y312.631
G1 X39.302Y312.464
G1 X39.627Y312.266
G1 X39.93Y312.039
G1 X40.211Y311.784
G1 X40.466Y311.504
G1 X40.693Y311.2
G1 X40.891Y310.875
G1 X41.058Y310.531
G1 X41.191Y310.169
G1 X41.288Y309.792
G1 X41.348Y309.402
G1 X41.369Y309
G1 Y274.55
G1 X41.348Y274.148
G1 X41.288Y273.758
G1 X41.191Y273.381
G1 X41.058Y273.02
G1 X40.891Y272.675
G1 X40.693Y272.35
G1 X40.466Y272.047
G1 X40.211Y271.766
G1 X39.93Y271.511
G1 X39.627Y271.284
G1 X39.302Y271.086
G1 X38.957Y270.919
G1 X38.596Y270.786
G1 X38.219Y270.689
G1 X37.828Y270.629
G1 X37.427Y270.608
G1 X37.025Y270.629
G1 X37.33Y270.618
G0 X41.369Y254.369
G1 Y219.919
G1 X41.348Y219.517
G1 X41.288Y219.127
G1 X41.191Y218.75
G1 X41.058Y218.388
G1 X40.891Y218.044
G1 X40.693Y217.719
G1 X40.466Y217.415
G1 X40.211Y217.135
G1 X39.93Y216.88
G1 X39.627Y216.653
G1 X39.302Y216.455
G1 X38.957Y216.288
G1 X38.596Y216.155
G1 X38.219Y216.058
G1 X37.828Y215.998
G1 X37.427Y215.977
G1 X37.025Y215.998
G1 X36.635Y216.058
G1 X36.258Y216.155
G1 X35.897Y216.288
G1 X35.552Y216.455
G1 X35.227Y216.653
G1 X34.924Y216.88
G1 X34.643Y217.135
G1 X34.388Y217.415
G1 X34.161Y217.719
G1 X33.963Y218.044
G1 X33.796Y218.388
G1 X33.663Y218.75
G1 X33.566Y219.127
G1 X33.506Y219.517
G1 X33.485Y219.919
G1 Y254.369
G1 X33.506Y254.77
G1 X33.566Y255.161
G1 X33.663Y255.538
G1 X33.796Y255.899
G1 X33.963Y256.244
G1 X34.161Y256.569
G1 X34.388Y256.872
G1 X34.643Y257.153
G1 X34.924Y257.407
G1 X35.227Y257.635
G1 X35.552Y257.833
G1 X35.897Y257.999
G1 X36.258Y258.132
G1 X36.635Y258.23
G1 X37.025Y258.29
G1 X37.427Y258.31
G1 X37.828Y258.29
G1 X38.219Y258.23
G1 X38.596Y258.132
G1 X38.957Y257.999
G1 X39.302Y257.833
G1 X39.627Y257.635
G1 X39.93Y257.407
G1 X40.211Y257.153
G1 X40.466Y256.872
G1 X40.693Y256.569
G1 X40.891Y256.244
G1 X41.058Y255.899
G1 X41.191Y255.538
G1 X41.288Y255.161
G1 X41.348Y254.77
G1 X41.369Y254.369
G1 Y253.869
G0 X210.023Y359.67
G1 X237.455
G1 X237.886Y359.648
G1 X238.305Y359.583
G1 X238.71Y359.479
G1 X239.098Y359.336
G1 X239.468Y359.157
G1 X239.817Y358.944
G1 X240.143Y358.7
G1 X240.444Y358.426
G1 X240.718Y358.125
G1 X240.962Y357.799
G1 X241.175Y357.45
G1 X241.354Y357.08
G1 X241.497Y356.692
G1 X241.601Y356.287
G1 X241.666Y355.868
G1 X241.688Y355.436
G1 Y349.103
G1 X241.666Y348.672
G1 X241.601Y348.253
G1 X241.497Y347.848
G1 X241.354Y347.459
G1 X241.175Y347.089
G1 X240.962Y346.74
G1 X240.718Y346.414
G1 X240.444Y346.113
G1 X240.143Y345.839
G1 X239.817Y345.595
G1 X239.468Y345.383
G1 X239.098Y345.204
G1 X238.71Y345.061
G1 X238.305Y344.956
G1 X237.886Y344.892
G1 X237.455Y344.87
G1 X210.023
G1 X209.592Y344.892
G1 X209.173Y344.956
G1 X208.768Y345.061
G1 X208.38Y345.204
G1 X208.01Y345.383
G1 X207.661Y345.595
G1 X207.335Y345.839
G1 X207.033Y346.113
G1 X206.76Y346.414
G1 X206.515Y346.74
G1 X206.303Y347.089
G1 X206.124Y347.459
G1 X205.981Y347.848
G1 X205.876Y348.253
G1 X205.812Y348.672
G1 X205.79Y349.103
G1 Y355.436
G1 X205.812Y355.868
G1 X205.876Y356.287
G1 X205.981Y356.692
G1 X206.124Y357.08
G1 X206.303Y357.45
G1 X206.515Y357.799
G1 X206.76Y358.125
G1 X207.033Y358.426
G1 X207.335Y358.7
G1 X207.661Y358.944
G1 X208.01Y359.157
G1 X208.38Y359.336
G1 X208.768Y359.479
G1 X209.173Y359.583
G1 X209.592Y359.648
G1 X210.023Y359.67
G1 X210.523
G0 X280.903Y382.42
G1 X281.279Y382.304
G1 X281.618Y382.119
G1 X281.914Y381.875
G1 X282.159Y381.579
G1 X282.343Y381.239
G1 X282.459Y380.864
G1 X282.5Y380.461
G1 X282.459Y380.058
G1 X282.343Y379.682
G1 X282.159Y379.343
G1 X281.914Y379.047
G1 X281.618Y378.803
G1 X281.279Y378.618
G1 X280.903Y378.502
G1 X280.5Y378.461
G1 X280.097Y378.502
G1 X279.722Y378.618
G1 X279.382Y378.803
G1 X279.086Y379.047
G1 X278.842Y379.343
G1 X278.657Y379.682
G1 X278.541Y380.058
G1 X278.5Y380.461
G1 X278.541Y380.864
G1 X278.657Y381.239
G1 X278.842Y381.579
G1 X279.086Y381.875
G1 X279.382Y382.119
G1 X279.722Y382.304
G1 X280.097Y382.42
G1 X280.5Y382.461
G1 X280.903Y382.42
G1 X281.279Y382.304
G1 X281.002Y382.379
G0 X333.459Y380.058
G1 X333.343Y379.682
G1 X333.159Y379.343
G1 X332.914Y379.047
G1 X332.618Y378.803
G1 X332.279Y378.618
G1 X331.903Y378.502
G1 X331.5Y378.461
G1 X331.097Y378.502
G1 X330.722Y378.618
G1 X330.382Y378.803
G1 X330.086Y379.047
G1 X329.842Y379.343
G1 X329.657Y379.682
G1 X329.541Y380.058
G1 X329.5Y380.461
G1 X329.541Y380.864
G1 X329.657Y381.239
G1 X329.842Y381.579
G1 X330.086Y381.875
G1 X330.382Y382.119
G1 X330.722Y382.304
G1 X331.097Y382.42
G1 X331.5Y382.461
G1 X331.903Y382.42
G1 X332.279Y382.304
G1 X332.618Y382.119
G1 X332.914Y381.875
G1 X333.159Y381.579
G1 X333.343Y381.239
G1 X333.459Y380.864
G1 X333.5Y380.461
G1 X333.459Y380.058
G1 X333.343Y379.682
G1 X333.418Y379.959
G0 X300.828Y351.404
G1 Y341.667
G1 X300.841Y341.409
G1 X300.879Y341.158
G1 X300.942Y340.916
G1 X301.027Y340.684
G1 X301.262Y340.254
G1 X301.571Y339.879
G1 X301.946Y339.569
G1 X302.376Y339.335
G1 X302.608Y339.25
G1 X302.85Y339.187
G1 X303.101Y339.149
G1 X303.359Y339.136
G1 X311.131
G1 X311.389Y339.149
G1 X311.64Y339.187
G1 X311.882Y339.25
G1 X312.114Y339.335
G1 X312.544Y339.569
G1 X312.919Y339.879
G1 X313.229Y340.254
G1 X313.463Y340.684
G1 X313.548Y340.916
G1 X313.611Y341.158
G1 X313.649Y341.409
G1 X313.662Y341.667
G1 Y351.404
G1 X313.649Y351.662
G1 X313.611Y351.913
G1 X313.548Y352.155
G1 X313.463Y352.387
G1 X313.229Y352.817
G1 X312.919Y353.192
G1 X312.544Y353.502
G1 X312.114Y353.736
G1 X311.882Y353.821
G1 X311.64Y353.884
G1 X311.389Y353.923
G1 X311.131Y353.936
G1 X303.359
G1 X303.101Y353.923
G1 X302.85Y353.884
G1 X302.608Y353.821
G1 X302.376Y353.736
G1 X301.946Y353.502
G1 X301.571Y353.192
G1 X301.262Y352.817
G1 X301.027Y352.387
G1 X300.942Y352.155
G1 X300.879Y351.913
G1 X300.841Y351.662
G1 X300.828Y351.404
G1 Y350.904
G0 X316.984Y357.929
G1 X317.206Y357.746
G1 X317.389Y357.524
G1 X317.527Y357.269
G1 X317.615Y356.988
G1 X317.645Y356.686
G1 X317.615Y356.383
G1 X317.527Y356.102
G1 X317.389Y355.847
G1 X317.206Y355.625
G1 X316.984Y355.442
G1 X316.729Y355.303
G1 X316.447Y355.216
G1 X316.145Y355.186
G1 X315.843Y355.216
G1 X315.561Y355.303
G1 X315.306Y355.442
G1 X315.084Y355.625
G1 X314.901Y355.847
G1 X314.763Y356.102
G1 X314.676Y356.383
G1 X314.645Y356.686
G1 X314.676Y356.988
G1 X314.763Y357.269
G1 X314.901Y357.524
G1 X315.084Y357.746
G1 X315.306Y357.929
G1 X315.561Y358.068
G1 X315.843Y358.155
G1 X316.145Y358.186
G1 X316.447Y358.155
G1 X316.729Y358.068
G1 X316.984Y357.929
G1 X317.206Y357.746
G1 X317.134Y357.779
G0 X297.507Y355.442
G1 X297.284Y355.625
G1 X297.101Y355.847
G1 X296.963Y356.102
G1 X296.876Y356.383
G1 X296.845Y356.686
G1 X296.876Y356.988
G1 X296.963Y357.269
G1 X297.101Y357.524
G1 X297.284Y357.746
G1 X297.507Y357.929
G1 X297.761Y358.068
G1 X298.043Y358.155
G1 X298.345Y358.186
G1 X298.647Y358.155
G1 X298.929Y358.068
G1 X299.184Y357.929
G1 X299.406Y357.746
G1 X299.589Y357.524
G1 X299.727Y357.269
G1 X299.815Y356.988
G1 X299.845Y356.686
G1 X299.815Y356.383
G1 X299.727Y356.102
G1 X299.589Y355.847
G1 X299.406Y355.625
G1 X299.184Y355.442
G1 X298.929Y355.303
G1 X298.647Y355.216
G1 X298.345Y355.186
G1 X298.043Y355.216
G1 X297.761Y355.303
G1 X297.507Y355.442
G1 X297.284Y355.625
G1 X297.356Y355.592
G0 X245.367Y342.126
G1 X245.145Y342.309
G1 X244.962Y342.531
G1 X244.823Y342.786
G1 X244.736Y343.067
G1 X244.705Y343.37
G1 X244.736Y343.672
G1 X244.823Y343.953
G1 X244.962Y344.208
G1 X245.145Y344.43
G1 X245.367Y344.613
G1 X245.622Y344.752
G1 X245.903Y344.839
G1 X246.205Y344.87
G1 X246.508Y344.839
G1 X246.789Y344.752
G1 X247.044Y344.613
G1 X247.266Y344.43
G1 X247.449Y344.208
G1 X247.588Y343.953
G1 X247.675Y343.672
G1 X247.705Y343.37
G1 X247.675Y343.067
G1 X247.588Y342.786
G1 X247.449Y342.531
G1 X247.266Y342.309
G1 X247.044Y342.126
G1 X246.789Y341.988
G1 X246.508Y341.9
G1 X246.205Y341.87
G1 X245.903Y341.9
G1 X245.622Y341.988
G1 X245.367Y342.126
G1 X245.145Y342.309
G1 X245.217Y342.276
G0 X247.449Y362.008
G1 X247.588Y361.753
G1 X247.675Y361.472
G1 X247.705Y361.17
G1 X247.675Y360.867
G1 X247.588Y360.586
G1 X247.449Y360.331
G1 X247.266Y360.109
G1 X247.044Y359.926
G1 X246.789Y359.788
G1 X246.508Y359.7
G1 X246.205Y359.67
G1 X245.903Y359.7
G1 X245.622Y359.788
G1 X245.367Y359.926
G1 X245.145Y360.109
G1 X244.962Y360.331
G1 X244.823Y360.586
G1 X244.736Y360.867
G1 X244.705Y361.17
G1 X244.736Y361.472
G1 X244.823Y361.753
G1 X244.962Y362.008
G1 X245.145Y362.23
G1 X245.367Y362.413
G1 X245.622Y362.552
G1 X245.903Y362.639
G1 X246.205Y362.67
G1 X246.508Y362.639
G1 X246.789Y362.552
G1 X247.044Y362.413
G1 X247.266Y362.23
G1 X247.449Y362.008
G1 X247.588Y361.753
G1 X247.531Y361.815
G0 X199.667Y359.926
G1 X199.445Y360.109
G1 X199.262Y360.331
G1 X199.123Y360.586
G1 X199.036Y360.867
G1 X199.005Y361.17
G1 X199.036Y361.472
G1 X199.123Y361.753
G1 X199.262Y362.008
G1 X199.445Y362.23
G1 X199.667Y362.413
G1 X199.922Y362.552
G1 X200.203Y362.639
G1 X200.505Y362.67
G1 X200.808Y362.639
G1 X201.089Y362.552
G1 X201.344Y362.413
G1 X201.566Y362.23
G1 X201.749Y362.008
G1 X201.888Y361.753
G1 X201.975Y361.472
G1 X202.005Y361.17
G1 X201.975Y360.867
G1 X201.888Y360.586
G1 X201.749Y360.331
G1 X201.566Y360.109
G1 X201.344Y359.926
G1 X201.089Y359.788
G1 X200.808Y359.7
G1 X200.505Y359.67
G1 X200.203Y359.7
G1 X199.922Y359.788
G1 X199.667Y359.926
G1 X199.445Y360.109
G1 X199.517Y360.076
G0 X201.749Y342.531
G1 X201.566Y342.309
G1 X201.344Y342.126
G1 X201.089Y341.988
G1 X200.808Y341.9
G1 X200.505Y341.87
G1 X200.203Y341.9
G1 X199.922Y341.988
G1 X199.667Y342.126
G1 X199.445Y342.309
G1 X199.262Y342.531
G1 X199.123Y342.786
G1 X199.036Y343.067
G1 X199.005Y343.37
G1 X199.036Y343.672
G1 X199.123Y343.953
G1 X199.262Y344.208
G1 X199.445Y344.43
G1 X199.667Y344.613
G1 X199.922Y344.752
G1 X200.203Y344.839
G1 X200.505Y344.87
G1 X200.808Y344.839
G1 X201.089Y344.752
G1 X201.344Y344.613
G1 X201.566Y344.43
G1 X201.749Y344.208
G1 X201.888Y343.953
G1 X201.975Y343.672
G1 X202.005Y343.37
G1 X201.975Y343.067
G1 X201.888Y342.786
G1 X201.749Y342.531
G1 X201.566Y342.309
G1 X201.599Y342.381
G0 X207.852Y329.375
G1 X207.735Y328.999
G1 X207.551Y328.659
G1 X207.307Y328.364
G1 X207.011Y328.119
G1 X206.671Y327.935
G1 X206.296Y327.818
G1 X205.893Y327.778
G1 X205.49Y327.818
G1 X205.114Y327.935
G1 X204.774Y328.119
G1 X204.478Y328.364
G1 X204.234Y328.659
G1 X204.05Y328.999
G1 X203.933Y329.375
G1 X203.892Y329.778
G1 X203.933Y330.181
G1 X204.05Y330.556
G1 X204.234Y330.896
G1 X204.478Y331.192
G1 X204.774Y331.436
G1 X205.114Y331.62
G1 X205.49Y331.737
G1 X205.893Y331.778
G1 X206.296Y331.737
G1 X206.671Y331.62
G1 X207.011Y331.436
G1 X207.307Y331.192
G1 X207.551Y330.896
G1 X207.735Y330.556
G1 X207.852Y330.181
G1 X207.893Y329.778
G1 X207.852Y329.375
G1 X207.735Y328.999
G1 X207.811Y329.276
G0 X267.315Y317.018
G1 Y282.805
G1 X267.274Y282.014
G1 X267.156Y281.246
G1 X266.964Y280.504
G1 X266.702Y279.792
G1 X266.375Y279.114
G1 X265.985Y278.474
G1 X265.537Y277.876
G1 X265.035Y277.324
G1 X264.483Y276.822
G1 X263.886Y276.375
G1 X263.246Y275.985
G1 X262.568Y275.657
G1 X261.856Y275.395
G1 X261.113Y275.203
G1 X260.345Y275.085
G1 X259.554Y275.045
G1 X239.177
G1 X238.387Y275.085
G1 X237.618Y275.203
G1 X236.876Y275.395
G1 X236.164Y275.657
G1 X235.486Y275.985
G1 X234.846Y276.375
G1 X234.248Y276.822
G1 X233.696Y277.324
G1 X233.195Y277.876
G1 X232.747Y278.474
G1 X232.357Y279.114
G1 X232.029Y279.792
G1 X231.767Y280.504
G1 X231.575Y281.246
G1 X231.457Y282.014
G1 X231.417Y282.805
G1 Y317.018
G1 X231.457Y317.808
G1 X231.575Y318.577
G1 X231.767Y319.319
G1 X232.029Y320.031
G1 X232.357Y320.709
G1 X232.747Y321.349
G1 X233.195Y321.947
G1 X233.696Y322.499
G1 X234.248Y323
G1 X234.846Y323.448
G1 X235.486Y323.838
G1 X236.164Y324.166
G1 X236.876Y324.428
G1 X237.618Y324.62
G1 X238.387Y324.738
G1 X239.177Y324.778
G1 X259.554
G1 X260.345Y324.738
G1 X261.113Y324.62
G1 X261.856Y324.428
G1 X262.568Y324.166
G1 X263.246Y323.838
G1 X263.886Y323.448
G1 X264.483Y323
G1 X265.035Y322.499
G1 X265.537Y321.947
G1 X265.985Y321.349
G1 X266.375Y320.709
G1 X266.702Y320.031
G1 X266.964Y319.319
G1 X267.156Y318.577
G1 X267.274Y317.808
G1 X267.315Y317.018
G1 Y316.518
G0 X275.11Y270.073
G1 X274.926Y269.851
G1 X274.704Y269.667
G1 X274.45Y269.529
G1 X274.168Y269.442
G1 X273.866Y269.411
G1 X273.563Y269.442
G1 X273.282Y269.529
G1 X273.027Y269.667
G1 X272.805Y269.851
G1 X272.622Y270.073
G1 X272.484Y270.327
G1 X272.396Y270.609
G1 X272.366Y270.911
G1 X272.396Y271.214
G1 X272.484Y271.495
G1 X272.622Y271.75
G1 X272.805Y271.972
G1 X273.027Y272.155
G1 X273.282Y272.293
G1 X273.563Y272.381
G1 X273.866Y272.411
G1 X274.168Y272.381
G1 X274.45Y272.293
G1 X274.704Y272.155
G1 X274.926Y271.972
G1 X275.11Y271.75
G1 X275.248Y271.495
G1 X275.335Y271.214
G1 X275.366Y270.911
G1 X275.335Y270.609
G1 X275.248Y270.327
G1 X275.11Y270.073
G1 X274.926Y269.851
G1 X274.96Y269.923
G0 X313.662Y299.005
G1 Y308.742
G1 X313.649Y309
G1 X313.611Y309.25
G1 X313.548Y309.493
G1 X313.463Y309.725
G1 X313.229Y310.155
G1 X312.919Y310.53
G1 X312.544Y310.84
G1 X312.114Y311.074
G1 X311.882Y311.159
G1 X311.64Y311.222
G1 X311.389Y311.26
G1 X311.131Y311.273
G1 X303.359
G1 X303.101Y311.26
G1 X302.85Y311.222
G1 X302.608Y311.159
G1 X302.376Y311.074
G1 X301.946Y310.84
G1 X301.571Y310.53
G1 X301.262Y310.155
G1 X301.027Y309.725
G1 X300.942Y309.493
G1 X300.879Y309.25
G1 X300.841Y309
G1 X300.828Y308.742
G1 Y299.005
G1 X300.841Y298.747
G1 X300.879Y298.496
G1 X300.942Y298.254
G1 X301.027Y298.022
G1 X301.262Y297.592
G1 X301.571Y297.217
G1 X301.946Y296.907
G1 X302.376Y296.673
G1 X302.608Y296.588
G1 X302.85Y296.525
G1 X303.101Y296.487
G1 X303.359Y296.473
G1 X311.131
G1 X311.389Y296.487
G1 X311.64Y296.525
G1 X311.882Y296.588
G1 X312.114Y296.673
G1 X312.544Y296.907
G1 X312.919Y297.217
G1 X313.229Y297.592
G1 X313.463Y298.022
G1 X313.548Y298.254
G1 X313.611Y298.496
G1 X313.649Y298.747
G1 X313.662Y299.005
G1 Y299.505
G0 X297.101Y314.862
G1 X297.284Y315.084
G1 X297.507Y315.267
G1 X297.761Y315.405
G1 X298.043Y315.493
G1 X298.345Y315.523
G1 X298.647Y315.493
G1 X298.929Y315.405
G1 X299.184Y315.267
G1 X299.406Y315.084
G1 X299.589Y314.862
G1 X299.727Y314.607
G1 X299.815Y314.326
G1 X299.845Y314.023
G1 X299.815Y313.721
G1 X299.727Y313.44
G1 X299.589Y313.185
G1 X299.406Y312.963
G1 X299.184Y312.78
G1 X298.929Y312.641
G1 X298.647Y312.554
G1 X298.345Y312.523
G1 X298.043Y312.554
G1 X297.761Y312.641
G1 X297.507Y312.78
G1 X297.284Y312.963
G1 X297.101Y313.185
G1 X296.963Y313.44
G1 X296.876Y313.721
G1 X296.845Y314.023
G1 X296.876Y314.326
G1 X296.963Y314.607
G1 X297.101Y314.862
G1 X297.284Y315.084
G1 X297.251Y315.012
G0 X299.184Y337.629
G1 X299.406Y337.446
G1 X299.589Y337.224
G1 X299.727Y336.969
G1 X299.815Y336.688
G1 X299.845Y336.386
G1 X299.815Y336.083
G1 X299.727Y335.802
G1 X299.589Y335.547
G1 X299.406Y335.325
G1 X299.184Y335.142
G1 X298.929Y335.004
G1 X298.647Y334.916
G1 X298.345Y334.886
G1 X298.043Y334.916
G1 X297.761Y335.004
G1 X297.507Y335.142
G1 X297.284Y335.325
G1 X297.101Y335.547
G1 X296.963Y335.802
G1 X296.876Y336.083
G1 X296.845Y336.386
G1 X296.876Y336.688
G1 X296.963Y336.969
G1 X297.101Y337.224
G1 X297.284Y337.446
G1 X297.507Y337.629
G1 X297.761Y337.768
G1 X298.043Y337.855
G1 X298.345Y337.886
G1 X298.647Y337.855
G1 X298.929Y337.768
G1 X299.184Y337.629
G1 X299.406Y337.446
G1 X299.334Y337.479
G0 X317.389Y335.547
G1 X317.206Y335.325
G1 X316.984Y335.142
G1 X316.729Y335.004
G1 X316.447Y334.916
G1 X316.145Y334.886
G1 X315.843Y334.916
G1 X315.561Y335.004
G1 X315.306Y335.142
G1 X315.084Y335.325
G1 X314.901Y335.547
G1 X314.763Y335.802
G1 X314.676Y336.083
G1 X314.645Y336.386
G1 X314.676Y336.688
G1 X314.763Y336.969
G1 X314.901Y337.224
G1 X315.084Y337.446
G1 X315.306Y337.629
G1 X315.561Y337.768
G1 X315.843Y337.855
G1 X316.145Y337.886
G1 X316.447Y337.855
G1 X316.729Y337.768
G1 X316.984Y337.629
G1 X317.206Y337.446
G1 X317.389Y337.224
G1 X317.527Y336.969
G1 X317.615Y336.688
G1 X317.645Y336.386
G1 X317.615Y336.083
G1 X317.527Y335.802
G1 X317.389Y335.547
G1 X317.206Y335.325
G1 X317.239Y335.397
G0 X315.306Y312.78
G1 X315.084Y312.963
G1 X314.901Y313.185
G1 X314.763Y313.44
G1 X314.676Y313.721
G1 X314.645Y314.023
G1 X314.676Y314.326
G1 X314.763Y314.607
G1 X314.901Y314.862
G1 X315.084Y315.084
G1 X315.306Y315.267
G1 X315.561Y315.405
G1 X315.843Y315.493
G1 X316.145Y315.523
G1 X316.447Y315.493
G1 X316.729Y315.405
G1 X316.984Y315.267
G1 X317.206Y315.084
G1 X317.389Y314.862
G1 X317.527Y314.607
G1 X317.615Y314.326
G1 X317.645Y314.023
G1 X317.615Y313.721
G1 X317.527Y313.44
G1 X317.389Y313.185
G1 X317.206Y312.963
G1 X316.984Y312.78
G1 X316.729Y312.641
G1 X316.447Y312.554
G1 X316.145Y312.523
G1 X315.843Y312.554
G1 X315.561Y312.641
G1 X315.306Y312.78
G1 X315.084Y312.963
G1 X315.156Y312.93
G0 X272.622Y329.75
G1 X272.805Y329.972
G1 X273.027Y330.155
G1 X273.282Y330.293
G1 X273.563Y330.381
G1 X273.866Y330.411
G1 X274.168Y330.381
G1 X274.45Y330.293
G1 X274.704Y330.155
G1 X274.926Y329.972
G1 X275.11Y329.75
G1 X275.248Y329.495
G1 X275.335Y329.214
G1 X275.366Y328.911
G1 X275.335Y328.609
G1 X275.248Y328.327
G1 X275.11Y328.073
G1 X274.926Y327.851
G1 X274.704Y327.667
G1 X274.45Y327.529
G1 X274.168Y327.442
G1 X273.866Y327.411
G1 X273.563Y327.442
G1 X273.282Y327.529
G1 X273.027Y327.667
G1 X272.805Y327.851
G1 X272.622Y328.073
G1 X272.484Y328.327
G1 X272.396Y328.609
G1 X272.366Y328.911
G1 X272.396Y329.214
G1 X272.484Y329.495
G1 X272.622Y329.75
G1 X272.805Y329.972
G1 X272.772Y329.9
G0 X224.027Y327.667
G1 X223.805Y327.851
G1 X223.622Y328.073
G1 X223.484Y328.327
G1 X223.396Y328.609
G1 X223.366Y328.911
G1 X223.396Y329.214
G1 X223.484Y329.495
G1 X223.622Y329.75
G1 X223.805Y329.972
G1 X224.027Y330.155
G1 X224.282Y330.293
G1 X224.563Y330.381
G1 X224.866Y330.411
G1 X225.168Y330.381
G1 X225.45Y330.293
G1 X225.704Y330.155
G1 X225.926Y329.972
G1 X226.11Y329.75
G1 X226.248Y329.495
G1 X226.335Y329.214
G1 X226.366Y328.911
G1 X226.335Y328.609
G1 X226.248Y328.327
G1 X226.11Y328.073
G1 X225.926Y327.851
G1 X225.704Y327.667
G1 X225.45Y327.529
G1 X225.168Y327.442
G1 X224.866Y327.411
G1 X224.563Y327.442
G1 X224.282Y327.529
G1 X224.027Y327.667
G1 X223.805Y327.851
G1 X223.877Y327.817
G0 X210.989Y330.181
G1 X211.105Y330.556
G1 X211.29Y330.896
G1 X211.534Y331.192
G1 X211.83Y331.436
G1 X212.17Y331.62
G1 X212.545Y331.737
G1 X212.948Y331.778
G1 X213.351Y331.737
G1 X213.727Y331.62
G1 X214.066Y331.436
G1 X214.362Y331.192
G1 X214.607Y330.896
G1 X214.791Y330.556
G1 X214.908Y330.181
G1 X214.948Y329.778
G1 X214.908Y329.375
G1 X214.791Y328.999
G1 X214.607Y328.659
G1 X214.362Y328.364
G1 X214.066Y328.119
G1 X213.727Y327.935
G1 X213.351Y327.818
G1 X212.948Y327.778
G1 X212.545Y327.818
G1 X212.17Y327.935
G1 X211.83Y328.119
G1 X211.534Y328.364
G1 X211.29Y328.659
G1 X211.105Y328.999
G1 X210.989Y329.375
G1 X210.948Y329.778
G1 X210.989Y330.181
G1 X211.105Y330.556
G1 X211.03Y330.279
G0 X198.434Y327.818
G1 X198.059Y327.935
G1 X197.719Y328.119
G1 X197.423Y328.364
G1 X197.179Y328.659
G1 X196.994Y328.999
G1 X196.878Y329.375
G1 X196.837Y329.778
G1 X196.878Y330.181
G1 X196.994Y330.556
G1 X197.179Y330.896
G1 X197.423Y331.192
G1 X197.719Y331.436
G1 X198.059Y331.62
G1 X198.434Y331.737
G1 X198.837Y331.778
G1 X199.24Y331.737
G1 X199.616Y331.62
G1 X199.955Y331.436
G1 X200.251Y331.192
G1 X200.496Y330.896
G1 X200.68Y330.556
G1 X200.796Y330.181
G1 X200.837Y329.778
G1 X200.796Y329.375
G1 X200.68Y328.999
G1 X200.496Y328.659
G1 X200.251Y328.364
G1 X199.955Y328.119
G1 X199.616Y327.935
G1 X199.24Y327.818
G1 X198.837Y327.778
G1 X198.434Y327.818
G1 X198.059Y327.935
G1 X198.336Y327.86
G0 X189.822Y330.181
G1 X189.939Y330.556
G1 X190.123Y330.896
G1 X190.367Y331.192
G1 X190.663Y331.436
G1 X191.003Y331.62
G1 X191.379Y331.737
G1 X191.782Y331.778
G1 X192.185Y331.737
G1 X192.56Y331.62
G1 X192.9Y331.436
G1 X193.196Y331.192
G1 X193.44Y330.896
G1 X193.624Y330.556
G1 X193.741Y330.181
G1 X193.782Y329.778
G1 X193.741Y329.375
G1 X193.624Y328.999
G1 X193.44Y328.659
G1 X193.196Y328.364
G1 X192.9Y328.119
G1 X192.56Y327.935
G1 X192.185Y327.818
G1 X191.782Y327.778
G1 X191.379Y327.818
G1 X191.003Y327.935
G1 X190.663Y328.119
G1 X190.367Y328.364
G1 X190.123Y328.659
G1 X189.939Y328.999
G1 X189.822Y329.375
G1 X189.781Y329.778
G1 X189.822Y330.181
G1 X189.939Y330.556
G1 X189.863Y330.279
G0 X163.419Y344.208
G1 X163.603Y344.43
G1 X163.825Y344.613
G1 X164.079Y344.752
G1 X164.361Y344.839
G1 X164.663Y344.87
G1 X164.965Y344.839
G1 X165.247Y344.752
G1 X165.502Y344.613
G1 X165.724Y344.43
G1 X165.907Y344.208
G1 X166.045Y343.953
G1 X166.133Y343.672
G1 X166.163Y343.37
G1 X166.133Y343.067
G1 X166.045Y342.786
G1 X165.907Y342.531
G1 X165.724Y342.309
G1 X165.502Y342.126
G1 X165.247Y341.988
G1 X164.965Y341.9
G1 X164.663Y341.87
G1 X164.361Y341.9
G1 X164.079Y341.988
G1 X163.825Y342.126
G1 X163.603Y342.309
G1 X163.419Y342.531
G1 X163.281Y342.786
G1 X163.194Y343.067
G1 X163.163Y343.37
G1 X163.194Y343.672
G1 X163.281Y343.953
G1 X163.419Y344.208
G1 X163.603Y344.43
G1 X163.569Y344.358
G0 X165.502Y362.413
G1 X165.724Y362.23
G1 X165.907Y362.008
G1 X166.045Y361.753
G1 X166.133Y361.472
G1 X166.163Y361.17
G1 X166.133Y360.867
G1 X166.045Y360.586
G1 X165.907Y360.331
G1 X165.724Y360.109
G1 X165.502Y359.926
G1 X165.247Y359.788
G1 X164.965Y359.7
G1 X164.663Y359.67
G1 X164.361Y359.7
G1 X164.079Y359.788
G1 X163.825Y359.926
G1 X163.603Y360.109
G1 X163.419Y360.331
G1 X163.281Y360.586
G1 X163.194Y360.867
G1 X163.163Y361.17
G1 X163.194Y361.472
G1 X163.281Y361.753
G1 X163.419Y362.008
G1 X163.603Y362.23
G1 X163.825Y362.413
G1 X164.079Y362.552
G1 X164.361Y362.639
G1 X164.663Y362.67
G1 X164.965Y362.639
G1 X165.247Y362.552
G1 X165.502Y362.413
G1 X165.724Y362.23
G1 X165.652Y362.263
G0 X118.125Y359.926
G1 X117.903Y360.109
G1 X117.719Y360.331
G1 X117.581Y360.586
G1 X117.494Y360.867
G1 X117.463Y361.17
G1 X117.494Y361.472
G1 X117.581Y361.753
G1 X117.719Y362.008
G1 X117.903Y362.23
G1 X118.125Y362.413
G1 X118.379Y362.552
G1 X118.661Y362.639
G1 X118.963Y362.67
G1 X119.265Y362.639
G1 X119.547Y362.552
G1 X119.802Y362.413
G1 X120.024Y362.23
G1 X120.207Y362.008
G1 X120.345Y361.753
G1 X120.433Y361.472
G1 X120.463Y361.17
G1 X120.433Y360.867
G1 X120.345Y360.586
G1 X120.207Y360.331
G1 X120.024Y360.109
G1 X119.802Y359.926
G1 X119.547Y359.788
G1 X119.265Y359.7
G1 X118.963Y359.67
G1 X118.661Y359.7
G1 X118.379Y359.788
G1 X118.125Y359.926
G1 X117.903Y360.109
G1 X117.975Y360.076
G0 X81.541Y380.864
G1 X81.657Y381.239
G1 X81.842Y381.579
G1 X82.086Y381.875
G1 X82.382Y382.119
G1 X82.722Y382.304
G1 X83.097Y382.42
G1 X83.5Y382.461
G1 X83.903Y382.42
G1 X84.279Y382.304
G1 X84.618Y382.119
G1 X84.914Y381.875
G1 X85.159Y381.579
G1 X85.343Y381.239
G1 X85.459Y380.864
G1 X85.5Y380.461
G1 X85.459Y380.058
G1 X85.343Y379.682
G1 X85.159Y379.343
G1 X84.914Y379.047
G1 X84.618Y378.803
G1 X84.279Y378.618
G1 X83.903Y378.502
G1 X83.5Y378.461
G1 X83.097Y378.502
G1 X82.722Y378.618
G1 X82.382Y378.803
G1 X82.086Y379.047
G1 X81.842Y379.343
G1 X81.657Y379.682
G1 X81.541Y380.058
G1 X81.5Y380.461
G1 X81.541Y380.864
G1 X81.657Y381.239
G1 X81.582Y380.963
G0 X54.652Y309
G1 Y274.55
G1 X54.673Y274.148
G1 X54.733Y273.758
G1 X54.83Y273.381
G1 X54.963Y273.02
G1 X55.13Y272.675
G1 X55.328Y272.35
G1 X55.555Y272.047
G1 X55.81Y271.766
G1 X56.09Y271.511
G1 X56.394Y271.284
G1 X56.719Y271.086
G1 X57.063Y270.919
G1 X57.425Y270.786
G1 X57.802Y270.689
G1 X58.192Y270.629
G1 X58.594Y270.608
G1 X58.995Y270.629
G1 X59.385Y270.689
G1 X59.762Y270.786
G1 X60.124Y270.919
G1 X60.468Y271.086
G1 X60.793Y271.284
G1 X61.097Y271.511
G1 X61.377Y271.766
G1 X61.632Y272.047
G1 X61.86Y272.35
G1 X62.058Y272.675
G1 X62.224Y273.02
G1 X62.357Y273.381
G1 X62.455Y273.758
G1 X62.515Y274.148
G1 X62.535Y274.55
G1 Y309
G1 X62.515Y309.402
G1 X62.455Y309.792
G1 X62.357Y310.169
G1 X62.224Y310.531
G1 X62.058Y310.875
G1 X61.86Y311.2
G1 X61.632Y311.504
G1 X61.377Y311.784
G1 X61.097Y312.039
G1 X60.793Y312.266
G1 X60.468Y312.464
G1 X60.124Y312.631
G1 X59.762Y312.764
G1 X59.385Y312.861
G1 X58.995Y312.921
G1 X58.594Y312.942
G1 X58.192Y312.921
G1 X57.802Y312.861
G1 X57.425Y312.764
G1 X57.063Y312.631
G1 X56.719Y312.464
G1 X56.394Y312.266
G1 X56.09Y312.039
G1 X55.81Y311.784
G1 X55.555Y311.504
G1 X55.328Y311.2
G1 X55.13Y310.875
G1 X54.963Y310.531
G1 X54.83Y310.169
G1 X54.733Y309.792
G1 X54.673Y309.402
G1 X54.652Y309
G1 Y308.5
G0 X178.99Y231.496
G1 X178.966Y230.58
G1 X178.897Y229.676
G1 X178.783Y228.785
G1 X178.625Y227.907
G1 X178.425Y227.044
G1 X178.183Y226.198
G1 X177.901Y225.369
G1 X177.58Y224.558
G1 X177.221Y223.767
G1 X176.825Y222.997
G1 X176.393Y222.249
G1 X175.927Y221.524
G1 X175.428Y220.823
G1 X174.896Y220.147
G1 X174.333Y219.498
G1 X173.741Y218.877
G1 X173.119Y218.284
G1 X172.47Y217.721
G1 X171.795Y217.19
G1 X171.094Y216.69
G1 X170.368Y216.224
G1 X169.62Y215.793
G1 X168.85Y215.397
G1 X168.059Y215.038
G1 X167.249Y214.717
G1 X166.42Y214.435
G1 X165.573Y214.193
G1 X164.711Y213.993
G1 X163.833Y213.835
G1 X162.941Y213.721
G1 X162.037Y213.651
G1 X161.121Y213.628
G1 X89.359
G1 X88.443Y213.651
G1 X87.539Y213.721
G1 X86.647Y213.835
G1 X85.769Y213.993
G1 X84.907Y214.193
G1 X84.06Y214.435
G1 X83.231Y214.717
G1 X82.421Y215.038
G1 X81.63Y215.397
G1 X80.86Y215.793
G1 X80.111Y216.224
G1 X79.386Y216.69
G1 X78.685Y217.19
G1 X78.01Y217.721
G1 X77.361Y218.284
G1 X76.739Y218.877
G1 X76.146Y219.498
G1 X75.584Y220.147
G1 X75.052Y220.823
G1 X74.553Y221.524
G1 X74.087Y222.249
G1 X73.655Y222.997
G1 X73.259Y223.767
G1 X72.9Y224.558
G1 X72.579Y225.369
G1 X72.297Y226.198
G1 X72.055Y227.044
G1 X71.855Y227.907
G1 X71.697Y228.785
G1 X71.583Y229.676
G1 X71.514Y230.58
G1 X71.49Y231.496
G1 Y283.81
G1 X71.514Y284.726
G1 X71.583Y285.631
G1 X71.697Y286.522
G1 X71.855Y287.4
G1 X72.055Y288.262
G1 X72.297Y289.109
G1 X72.579Y289.938
G1 X72.9Y290.748
G1 X73.259Y291.539
G1 X73.655Y292.31
G1 X74.087Y293.058
G1 X74.553Y293.783
G1 X75.052Y294.484
G1 X75.584Y295.16
G1 X76.146Y295.809
G1 X76.739Y296.43
G1 X77.361Y297.023
G1 X78.01Y297.586
G1 X78.685Y298.117
G1 X79.386Y298.617
G1 X80.111Y299.083
G1 X80.86Y299.514
G1 X81.63Y299.91
G1 X82.421Y300.269
G1 X83.231Y300.59
G1 X84.06Y300.872
G1 X84.907Y301.114
G1 X85.769Y301.314
G1 X86.647Y301.472
G1 X87.539Y301.586
G1 X88.443Y301.656
G1 X89.359Y301.679
G1 X161.121
G1 X162.037Y301.656
G1 X162.941Y301.586
G1 X163.833Y301.472
G1 X164.711Y301.314
G1 X165.573Y301.114
G1 X166.42Y300.872
G1 X167.249Y300.59
G1 X168.059Y300.269
G1 X168.85Y299.91
G1 X169.62Y299.514
G1 X170.368Y299.083
G1 X171.094Y298.617
G1 X171.795Y298.117
G1 X172.47Y297.586
G1 X173.119Y297.023
G1 X173.741Y296.43
G1 X174.333Y295.809
G1 X174.896Y295.16
G1 X175.428Y294.484
G1 X175.927Y293.783
G1 X176.393Y293.058
G1 X176.825Y292.31
G1 X177.221Y291.539
G1 X177.58Y290.748
G1 X177.901Y289.938
G1 X178.183Y289.109
G1 X178.425Y288.262
G1 X178.625Y287.4
G1 X178.783Y286.522
G1 X178.897Y285.631
G1 X178.966Y284.726
G1 X178.99Y283.81
G1 Y231.496
G1 X178.977Y230.997
G0 X123.864Y317.23
G1 Y323.564
G1 X123.886Y323.995
G1 X123.951Y324.414
G1 X124.055Y324.819
G1 X124.198Y325.207
G1 X124.377Y325.577
G1 X124.59Y325.926
G1 X124.834Y326.253
G1 X125.108Y326.554
G1 X125.409Y326.827
G1 X125.735Y327.072
G1 X126.084Y327.284
G1 X126.454Y327.463
G1 X126.842Y327.606
G1 X127.247Y327.711
G1 X127.666Y327.775
G1 X128.097Y327.797
G1 X155.529
G1 X155.96Y327.775
G1 X156.379Y327.711
G1 X156.784Y327.606
G1 X157.172Y327.463
G1 X157.542Y327.284
G1 X157.891Y327.072
G1 X158.218Y326.827
G1 X158.519Y326.554
G1 X158.792Y326.253
G1 X159.037Y325.926
G1 X159.249Y325.577
G1 X159.428Y325.207
G1 X159.571Y324.819
G1 X159.676Y324.414
G1 X159.74Y323.995
G1 X159.762Y323.564
G1 Y317.23
G1 X159.74Y316.799
G1 X159.676Y316.38
G1 X159.571Y315.975
G1 X159.428Y315.587
G1 X159.249Y315.217
G1 X159.037Y314.868
G1 X158.792Y314.542
G1 X158.519Y314.241
G1 X158.218Y313.967
G1 X157.891Y313.723
G1 X157.542Y313.51
G1 X157.172Y313.331
G1 X156.784Y313.188
G1 X156.379Y313.083
G1 X155.96Y313.019
G1 X155.529Y312.997
G1 X128.097
G1 X127.666Y313.019
G1 X127.247Y313.083
G1 X126.842Y313.188
G1 X126.454Y313.331
G1 X126.084Y313.51
G1 X125.735Y313.723
G1 X125.409Y313.967
G1 X125.108Y314.241
G1 X124.834Y314.542
G1 X124.59Y314.868
G1 X124.377Y315.217
G1 X124.198Y315.587
G1 X124.055Y315.975
G1 X123.951Y316.38
G1 X123.886Y316.799
G1 X123.864Y317.23
G1 Y317.73
G0 X117.719Y330.136
G1 X117.903Y330.358
G1 X118.125Y330.541
G1 X118.379Y330.679
G1 X118.661Y330.767
G1 X118.963Y330.797
G1 X119.265Y330.767
G1 X119.547Y330.679
G1 X119.802Y330.541
G1 X120.024Y330.358
G1 X120.207Y330.136
G1 X120.345Y329.881
G1 X120.433Y329.599
G1 X120.463Y329.297
G1 X120.433Y328.995
G1 X120.345Y328.713
G1 X120.207Y328.458
G1 X120.024Y328.236
G1 X119.802Y328.053
G1 X119.547Y327.915
G1 X119.265Y327.827
G1 X118.963Y327.797
G1 X118.661Y327.827
G1 X118.379Y327.915
G1 X118.125Y328.053
G1 X117.903Y328.236
G1 X117.719Y328.458
G1 X117.581Y328.713
G1 X117.494Y328.995
G1 X117.463Y329.297
G1 X117.494Y329.599
G1 X117.581Y329.881
G1 X117.719Y330.136
G1 X117.903Y330.358
G1 X117.869Y330.286
G0 X54.652Y254.369
G1 Y219.919
G1 X54.673Y219.517
G1 X54.733Y219.127
G1 X54.83Y218.75
G1 X54.963Y218.388
G1 X55.13Y218.044
G1 X55.328Y217.719
G1 X55.555Y217.415
G1 X55.81Y217.135
G1 X56.09Y216.88
G1 X56.394Y216.653
G1 X56.719Y216.455
G1 X57.063Y216.288
G1 X57.425Y216.155
G1 X57.802Y216.058
G1 X58.192Y215.998
G1 X58.594Y215.977
G1 X58.995Y215.998
G1 X59.385Y216.058
G1 X59.762Y216.155
G1 X60.124Y216.288
G1 X60.468Y216.455
G1 X60.793Y216.653
G1 X61.097Y216.88
G1 X61.377Y217.135
G1 X61.632Y217.415
G1 X61.86Y217.719
G1 X62.058Y218.044
G1 X62.224Y218.388
G1 X62.357Y218.75
G1 X62.455Y219.127
G1 X62.515Y219.517
G1 X62.535Y219.919
G1 Y254.369
G1 X62.515Y254.77
G1 X62.455Y255.161
G1 X62.357Y255.538
G1 X62.224Y255.899
G1 X62.058Y256.244
G1 X61.86Y256.569
G1 X61.632Y256.872
G1 X61.377Y257.153
G1 X61.097Y257.407
G1 X60.793Y257.635
G1 X60.468Y257.833
G1 X60.124Y257.999
G1 X59.762Y258.132
G1 X59.385Y258.23
G1 X58.995Y258.29
G1 X58.594Y258.31
G1 X58.192Y258.29
G1 X57.802Y258.23
G1 X57.425Y258.132
G1 X57.063Y257.999
G1 X56.719Y257.833
G1 X56.394Y257.635
G1 X56.09Y257.407
G1 X55.81Y257.153
G1 X55.555Y256.872
G1 X55.328Y256.569
G1 X55.13Y256.244
G1 X54.963Y255.899
G1 X54.83Y255.538
G1 X54.733Y255.161
G1 X54.673Y254.77
G1 X54.652Y254.369
G1 Y253.869
G0 X62.535Y199.737
G1 Y165.287
G1 X62.515Y164.886
G1 X62.455Y164.496
G1 X62.357Y164.119
G1 X62.224Y163.757
G1 X62.058Y163.413
G1 X61.86Y163.087
G1 X61.632Y162.784
G1 X61.377Y162.504
G1 X61.097Y162.249
G1 X60.793Y162.021
G1 X60.468Y161.823
G1 X60.124Y161.657
G1 X59.762Y161.524
G1 X59.385Y161.426
G1 X58.995Y161.366
G1 X58.594Y161.346
G1 X58.192Y161.366
G1 X57.802Y161.426
G1 X57.425Y161.524
G1 X57.063Y161.657
G1 X56.719Y161.823
G1 X56.394Y162.021
G1 X56.09Y162.249
G1 X55.81Y162.504
G1 X55.555Y162.784
G1 X55.328Y163.087
G1 X55.13Y163.413
G1 X54.963Y163.757
G1 X54.83Y164.119
G1 X54.733Y164.496
G1 X54.673Y164.886
G1 X54.652Y165.287
G1 Y199.737
G1 X54.673Y200.139
G1 X54.733Y200.529
G1 X54.83Y200.906
G1 X54.963Y201.268
G1 X55.13Y201.612
G1 X55.328Y201.937
G1 X55.555Y202.241
G1 X55.81Y202.521
G1 X56.09Y202.776
G1 X56.394Y203.004
G1 X56.719Y203.202
G1 X57.063Y203.368
G1 X57.425Y203.501
G1 X57.802Y203.599
G1 X58.192Y203.659
G1 X58.594Y203.679
G1 X58.995Y203.659
G1 X59.385Y203.599
G1 X59.762Y203.501
G1 X60.124Y203.368
G1 X60.468Y203.202
G1 X60.793Y203.004
G1 X61.097Y202.776
G1 X61.377Y202.521
G1 X61.632Y202.241
G1 X61.86Y201.937
G1 X62.058Y201.612
G1 X62.224Y201.268
G1 X62.357Y200.906
G1 X62.455Y200.529
G1 X62.515Y200.139
G1 X62.535Y199.737
G1 Y199.237
G0 X37.427Y161.346
G1 X37.025Y161.366
G1 X36.635Y161.426
G1 X36.258Y161.524
G1 X35.897Y161.657
G1 X35.552Y161.823
G1 X35.227Y162.021
G1 X34.924Y162.249
G1 X34.643Y162.504
G1 X34.388Y162.784
G1 X34.161Y163.087
G1 X33.963Y163.413
G1 X33.796Y163.757
G1 X33.663Y164.119
G1 X33.566Y164.496
G1 X33.506Y164.886
G1 X33.485Y165.287
G1 Y199.737
G1 X33.506Y200.139
G1 X33.566Y200.529
G1 X33.663Y200.906
G1 X33.796Y201.268
G1 X33.963Y201.612
G1 X34.161Y201.937
G1 X34.388Y202.241
G1 X34.643Y202.521
G1 X34.924Y202.776
G1 X35.227Y203.004
G1 X35.552Y203.202
G1 X35.897Y203.368
G1 X36.258Y203.501
G1 X36.635Y203.599
G1 X37.025Y203.659
G1 X37.427Y203.679
G1 X37.828Y203.659
G1 X38.219Y203.599
G1 X38.596Y203.501
G1 X38.957Y203.368
G1 X39.302Y203.202
G1 X39.627Y203.004
G1 X39.93Y202.776
G1 X40.211Y202.521
G1 X40.466Y202.241
G1 X40.693Y201.937
G1 X40.891Y201.612
G1 X41.058Y201.268
G1 X41.191Y200.906
G1 X41.288Y200.529
G1 X41.348Y200.139
G1 X41.369Y199.737
G1 Y165.287
G1 X41.348Y164.886
G1 X41.288Y164.496
G1 X41.191Y164.119
G1 X41.058Y163.757
G1 X40.891Y163.413
G1 X40.693Y163.087
G1 X40.466Y162.784
G1 X40.211Y162.504
G1 X39.93Y162.249
G1 X39.627Y162.021
G1 X39.302Y161.823
G1 X38.957Y161.657
G1 X38.596Y161.524
G1 X38.219Y161.426
G1 X37.828Y161.366
G1 X37.427Y161.346
G1 X37.025Y161.366
G1 X37.33Y161.356
G0 X32.097Y141.502
G1 X31.722Y141.618
G1 X31.382Y141.803
G1 X31.086Y142.047
G1 X30.842Y142.343
G1 X30.657Y142.682
G1 X30.541Y143.058
G1 X30.5Y143.461
G1 X30.541Y143.864
G1 X30.657Y144.239
G1 X30.842Y144.579
G1 X31.086Y144.875
G1 X31.382Y145.119
G1 X31.722Y145.304
G1 X32.097Y145.42
G1 X32.5Y145.461
G1 X32.903Y145.42
G1 X33.279Y145.304
G1 X33.618Y145.119
G1 X33.914Y144.875
G1 X34.159Y144.579
G1 X34.343Y144.239
G1 X34.459Y143.864
G1 X34.5Y143.461
G1 X34.459Y143.058
G1 X34.343Y142.682
G1 X34.159Y142.343
G1 X33.914Y142.047
G1 X33.618Y141.803
G1 X33.279Y141.618
G1 X32.903Y141.502
G1 X32.5Y141.461
G1 X32.097Y141.502
G1 X31.722Y141.618
G1 X31.999Y141.543
G0 X111.214Y201.836
G1 X145.664
G1 X146.065Y201.816
G1 X146.456Y201.756
G1 X146.833Y201.658
G1 X147.194Y201.525
G1 X147.539Y201.358
G1 X147.864Y201.16
G1 X148.167Y200.933
G1 X148.447Y200.678
G1 X148.702Y200.398
G1 X148.93Y200.094
G1 X149.128Y199.769
G1 X149.294Y199.425
G1 X149.427Y199.063
G1 X149.525Y198.686
G1 X149.585Y198.296
G1 X149.605Y197.894
G1 X149.585Y197.493
G1 X149.525Y197.103
G1 X149.427Y196.726
G1 X149.294Y196.364
G1 X149.128Y196.02
G1 X148.93Y195.695
G1 X148.702Y195.391
G1 X148.447Y195.111
G1 X148.167Y194.856
G1 X147.864Y194.628
G1 X147.539Y194.43
G1 X147.194Y194.264
G1 X146.833Y194.131
G1 X146.456Y194.033
G1 X146.065Y193.973
G1 X145.664Y193.953
G1 X111.214
G1 X110.812Y193.973
G1 X110.422Y194.033
G1 X110.045Y194.131
G1 X109.683Y194.264
G1 X109.339Y194.43
G1 X109.014Y194.628
G1 X108.71Y194.856
G1 X108.43Y195.111
G1 X108.175Y195.391
G1 X107.948Y195.695
G1 X107.75Y196.02
G1 X107.583Y196.364
G1 X107.45Y196.726
G1 X107.352Y197.103
G1 X107.292Y197.493
G1 X107.272Y197.894
G1 X107.292Y198.296
G1 X107.352Y198.686
G1 X107.45Y199.063
G1 X107.583Y199.425
G1 X107.75Y199.769
G1 X107.948Y200.094
G1 X108.175Y200.398
G1 X108.43Y200.678
G1 X108.71Y200.933
G1 X109.014Y201.16
G1 X109.339Y201.358
G1 X109.683Y201.525
G1 X110.045Y201.658
G1 X110.422Y201.756
G1 X110.812Y201.816
G1 X111.214Y201.836
G1 X111.714
G0 X225.704Y272.155
G1 X225.926Y271.972
G1 X226.11Y271.75
G1 X226.248Y271.495
G1 X226.335Y271.214
G1 X226.366Y270.911
G1 X226.335Y270.609
G1 X226.248Y270.327
G1 X226.11Y270.073
G1 X225.926Y269.851
G1 X225.704Y269.667
G1 X225.45Y269.529
G1 X225.168Y269.442
G1 X224.866Y269.411
G1 X224.563Y269.442
G1 X224.282Y269.529
G1 X224.027Y269.667
G1 X223.805Y269.851
G1 X223.622Y270.073
G1 X223.484Y270.327
G1 X223.396Y270.609
G1 X223.366Y270.911
G1 X223.396Y271.214
G1 X223.484Y271.495
G1 X223.622Y271.75
G1 X223.805Y271.972
G1 X224.027Y272.155
G1 X224.282Y272.293
G1 X224.563Y272.381
G1 X224.866Y272.411
G1 X225.168Y272.381
G1 X225.45Y272.293
G1 X225.704Y272.155
G1 X225.926Y271.972
G1 X225.854Y272.005
G0 X210.989Y290.36
G1 X211.105Y290.736
G1 X211.29Y291.075
G1 X211.534Y291.371
G1 X211.83Y291.616
G1 X212.17Y291.8
G1 X212.545Y291.916
G1 X212.948Y291.957
G1 X213.351Y291.916
G1 X213.727Y291.8
G1 X214.066Y291.616
G1 X214.362Y291.371
G1 X214.607Y291.075
G1 X214.791Y290.736
G1 X214.908Y290.36
G1 X214.948Y289.957
G1 X214.908Y289.554
G1 X214.791Y289.179
G1 X214.607Y288.839
G1 X214.362Y288.543
G1 X214.066Y288.299
G1 X213.727Y288.114
G1 X213.351Y287.998
G1 X212.948Y287.957
G1 X212.545Y287.998
G1 X212.17Y288.114
G1 X211.83Y288.299
G1 X211.534Y288.543
G1 X211.29Y288.839
G1 X211.105Y289.179
G1 X210.989Y289.554
G1 X210.948Y289.957
G1 X210.989Y290.36
G1 X211.105Y290.736
G1 X211.03Y290.459
G0 X203.933Y316.907
G1 X204.05Y317.283
G1 X204.234Y317.622
G1 X204.478Y317.918
G1 X204.774Y318.163
G1 X205.114Y318.347
G1 X205.49Y318.463
G1 X205.893Y318.504
G1 X206.296Y318.463
G1 X206.671Y318.347
G1 X207.011Y318.163
G1 X207.307Y317.918
G1 X207.551Y317.622
G1 X207.735Y317.283
G1 X207.852Y316.907
G1 X207.893Y316.504
G1 X207.852Y316.101
G1 X207.735Y315.726
G1 X207.551Y315.386
G1 X207.307Y315.09
G1 X207.011Y314.846
G1 X206.671Y314.661
G1 X206.296Y314.545
G1 X205.893Y314.504
G1 X205.49Y314.545
G1 X205.114Y314.661
G1 X204.774Y314.846
G1 X204.478Y315.09
G1 X204.234Y315.386
G1 X204.05Y315.726
G1 X203.933Y316.101
G1 X203.892Y316.504
G1 X203.933Y316.907
G1 X204.05Y317.283
G1 X203.975Y317.006
G0 X198.434Y314.545
G1 X198.059Y314.661
G1 X197.719Y314.846
G1 X197.423Y315.09
G1 X197.179Y315.386
G1 X196.994Y315.726
G1 X196.878Y316.101
G1 X196.837Y316.504
G1 X196.878Y316.907
G1 X196.994Y317.283
G1 X197.179Y317.622
G1 X197.423Y317.918
G1 X197.719Y318.163
G1 X198.059Y318.347
G1 X198.434Y318.463
G1 X198.837Y318.504
G1 X199.24Y318.463
G1 X199.616Y318.347
G1 X199.955Y318.163
G1 X200.251Y317.918
G1 X200.496Y317.622
G1 X200.68Y317.283
G1 X200.796Y316.907
G1 X200.837Y316.504
G1 X200.796Y316.101
G1 X200.68Y315.726
G1 X200.496Y315.386
G1 X200.251Y315.09
G1 X199.955Y314.846
G1 X199.616Y314.661
G1 X199.24Y314.545
G1 X198.837Y314.504
G1 X198.434Y314.545
G1 X198.059Y314.661
G1 X198.336Y314.586
G0 X189.822Y316.907
G1 X189.939Y317.283
G1 X190.123Y317.622
G1 X190.367Y317.918
G1 X190.663Y318.163
G1 X191.003Y318.347
G1 X191.379Y318.463
G1 X191.782Y318.504
G1 X192.185Y318.463
G1 X192.56Y318.347
G1 X192.9Y318.163
G1 X193.196Y317.918
G1 X193.44Y317.622
G1 X193.624Y317.283
G1 X193.741Y316.907
G1 X193.782Y316.504
G1 X193.741Y316.101
G1 X193.624Y315.726
G1 X193.44Y315.386
G1 X193.196Y315.09
G1 X192.9Y314.846
G1 X192.56Y314.661
G1 X192.185Y314.545
G1 X191.782Y314.504
G1 X191.379Y314.545
G1 X191.003Y314.661
G1 X190.663Y314.846
G1 X190.367Y315.09
G1 X190.123Y315.386
G1 X189.939Y315.726
G1 X189.822Y316.101
G1 X189.781Y316.504
G1 X189.822Y316.907
G1 X189.939Y317.283
G1 X189.863Y317.006
G0 X192.185Y325.1
G1 X192.56Y324.984
G1 X192.9Y324.799
G1 X193.196Y324.555
G1 X193.44Y324.259
G1 X193.624Y323.919
G1 X193.741Y323.544
G1 X193.782Y323.141
G1 X193.741Y322.738
G1 X193.624Y322.362
G1 X193.44Y322.023
G1 X193.196Y321.727
G1 X192.9Y321.483
G1 X192.56Y321.298
G1 X192.185Y321.182
G1 X191.782Y321.141
G1 X191.379Y321.182
G1 X191.003Y321.298
G1 X190.663Y321.483
G1 X190.367Y321.727
G1 X190.123Y322.023
G1 X189.939Y322.362
G1 X189.822Y322.738
G1 X189.781Y323.141
G1 X189.822Y323.544
G1 X189.939Y323.919
G1 X190.123Y324.259
G1 X190.367Y324.555
G1 X190.663Y324.799
G1 X191.003Y324.984
G1 X191.379Y325.1
G1 X191.782Y325.141
G1 X192.185Y325.1
G1 X192.56Y324.984
G1 X192.283Y325.059
G0 X200.796Y322.738
G1 X200.68Y322.362
G1 X200.496Y322.023
G1 X200.251Y321.727
G1 X199.955Y321.483
G1 X199.616Y321.298
G1 X199.24Y321.182
G1 X198.837Y321.141
G1 X198.434Y321.182
G1 X198.059Y321.298
G1 X197.719Y321.483
G1 X197.423Y321.727
G1 X197.179Y322.023
G1 X196.994Y322.362
G1 X196.878Y322.738
G1 X196.837Y323.141
G1 X196.878Y323.544
G1 X196.994Y323.919
G1 X197.179Y324.259
G1 X197.423Y324.555
G1 X197.719Y324.799
G1 X198.059Y324.984
G1 X198.434Y325.1
G1 X198.837Y325.141
G1 X199.24Y325.1
G1 X199.616Y324.984
G1 X199.955Y324.799
G1 X200.251Y324.555
G1 X200.496Y324.259
G1 X200.68Y323.919
G1 X200.796Y323.544
G1 X200.837Y323.141
G1 X200.796Y322.738
G1 X200.68Y322.362
G1 X200.755Y322.639
G0 X206.296Y325.1
G1 X206.671Y324.984
G1 X207.011Y324.799
G1 X207.307Y324.555
G1 X207.551Y324.259
G1 X207.735Y323.919
G1 X207.852Y323.544
G1 X207.893Y323.141
G1 X207.852Y322.738
G1 X207.735Y322.362
G1 X207.551Y322.023
G1 X207.307Y321.727
G1 X207.011Y321.483
G1 X206.671Y321.298
G1 X206.296Y321.182
G1 X205.893Y321.141
G1 X205.49Y321.182
G1 X205.114Y321.298
G1 X204.774Y321.483
G1 X204.478Y321.727
G1 X204.234Y322.023
G1 X204.05Y322.362
G1 X203.933Y322.738
G1 X203.892Y323.141
G1 X203.933Y323.544
G1 X204.05Y323.919
G1 X204.234Y324.259
G1 X204.478Y324.555
G1 X204.774Y324.799
G1 X205.114Y324.984
G1 X205.49Y325.1
G1 X205.893Y325.141
G1 X206.296Y325.1
G1 X206.671Y324.984
G1 X206.394Y325.059
G0 X214.908Y322.738
G1 X214.791Y322.362
G1 X214.607Y322.023
G1 X214.362Y321.727
G1 X214.066Y321.483
G1 X213.727Y321.298
G1 X213.351Y321.182
G1 X212.948Y321.141
G1 X212.545Y321.182
G1 X212.17Y321.298
G1 X211.83Y321.483
G1 X211.534Y321.727
G1 X211.29Y322.023
G1 X211.105Y322.362
G1 X210.989Y322.738
G1 X210.948Y323.141
G1 X210.989Y323.544
G1 X211.105Y323.919
G1 X211.29Y324.259
G1 X211.534Y324.555
G1 X211.83Y324.799
G1 X212.17Y324.984
G1 X212.545Y325.1
G1 X212.948Y325.141
G1 X213.351Y325.1
G1 X213.727Y324.984
G1 X214.066Y324.799
G1 X214.362Y324.555
G1 X214.607Y324.259
G1 X214.791Y323.919
G1 X214.908Y323.544
G1 X214.948Y323.141
G1 X214.908Y322.738
G1 X214.791Y322.362
G1 X214.866Y322.639
G0 X212.545Y314.545
G1 X212.17Y314.661
G1 X211.83Y314.846
G1 X211.534Y315.09
G1 X211.29Y315.386
G1 X211.105Y315.726
G1 X210.989Y316.101
G1 X210.948Y316.504
G1 X210.989Y316.907
G1 X211.105Y317.283
G1 X211.29Y317.622
G1 X211.534Y317.918
G1 X211.83Y318.163
G1 X212.17Y318.347
G1 X212.545Y318.463
G1 X212.948Y318.504
G1 X213.351Y318.463
G1 X213.727Y318.347
G1 X214.066Y318.163
G1 X214.362Y317.918
G1 X214.607Y317.622
G1 X214.791Y317.283
G1 X214.908Y316.907
G1 X214.948Y316.504
G1 X214.908Y316.101
G1 X214.791Y315.726
G1 X214.607Y315.386
G1 X214.362Y315.09
G1 X214.066Y314.846
G1 X213.727Y314.661
G1 X213.351Y314.545
G1 X212.948Y314.504
G1 X212.545Y314.545
G1 X212.17Y314.661
G1 X212.447Y314.586
G0 X205.49Y307.908
G1 X205.114Y308.025
G1 X204.774Y308.209
G1 X204.478Y308.453
G1 X204.234Y308.749
G1 X204.05Y309.089
G1 X203.933Y309.464
G1 X203.892Y309.867
G1 X203.933Y310.27
G1 X204.05Y310.646
G1 X204.234Y310.986
G1 X204.478Y311.282
G1 X204.774Y311.526
G1 X205.114Y311.71
G1 X205.49Y311.827
G1 X205.893Y311.867
G1 X206.296Y311.827
G1 X206.671Y311.71
G1 X207.011Y311.526
G1 X207.307Y311.282
G1 X207.551Y310.986
G1 X207.735Y310.646
G1 X207.852Y310.27
G1 X207.893Y309.867
G1 X207.852Y309.464
G1 X207.735Y309.089
G1 X207.551Y308.749
G1 X207.307Y308.453
G1 X207.011Y308.209
G1 X206.671Y308.025
G1 X206.296Y307.908
G1 X205.893Y307.868
G1 X205.49Y307.908
G1 X205.114Y308.025
G1 X205.391Y307.95
G0 X196.878Y310.27
G1 X196.994Y310.646
G1 X197.179Y310.986
G1 X197.423Y311.282
G1 X197.719Y311.526
G1 X198.059Y311.71
G1 X198.434Y311.827
G1 X198.837Y311.867
G1 X199.24Y311.827
G1 X199.616Y311.71
G1 X199.955Y311.526
G1 X200.251Y311.282
G1 X200.496Y310.986
G1 X200.68Y310.646
G1 X200.796Y310.27
G1 X200.837Y309.867
G1 X200.796Y309.464
G1 X200.68Y309.089
G1 X200.496Y308.749
G1 X200.251Y308.453
G1 X199.955Y308.209
G1 X199.616Y308.025
G1 X199.24Y307.908
G1 X198.837Y307.868
G1 X198.434Y307.908
G1 X198.059Y308.025
G1 X197.719Y308.209
G1 X197.423Y308.453
G1 X197.179Y308.749
G1 X196.994Y309.089
G1 X196.878Y309.464
G1 X196.837Y309.867
G1 X196.878Y310.27
G1 X196.994Y310.646
G1 X196.919Y310.369
G0 X191.379Y307.908
G1 X191.003Y308.025
G1 X190.663Y308.209
G1 X190.367Y308.453
G1 X190.123Y308.749
G1 X189.939Y309.089
G1 X189.822Y309.464
G1 X189.781Y309.867
G1 X189.822Y310.27
G1 X189.939Y310.646
G1 X190.123Y310.986
G1 X190.367Y311.282
G1 X190.663Y311.526
G1 X191.003Y311.71
G1 X191.379Y311.827
G1 X191.782Y311.867
G1 X192.185Y311.827
G1 X192.56Y311.71
G1 X192.9Y311.526
G1 X193.196Y311.282
G1 X193.44Y310.986
G1 X193.624Y310.646
G1 X193.741Y310.27
G1 X193.782Y309.867
G1 X193.741Y309.464
G1 X193.624Y309.089
G1 X193.44Y308.749
G1 X193.196Y308.453
G1 X192.9Y308.209
G1 X192.56Y308.025
G1 X192.185Y307.908
G1 X191.782Y307.868
G1 X191.379Y307.908
G1 X191.003Y308.025
G1 X191.28Y307.95
G0 X193.741Y302.828
G1 X193.624Y302.452
G1 X193.44Y302.112
G1 X193.196Y301.817
G1 X192.9Y301.572
G1 X192.56Y301.388
G1 X192.185Y301.271
G1 X191.782Y301.231
G1 X191.379Y301.271
G1 X191.003Y301.388
G1 X190.663Y301.572
G1 X190.367Y301.817
G1 X190.123Y302.112
G1 X189.939Y302.452
G1 X189.822Y302.828
G1 X189.781Y303.231
G1 X189.822Y303.634
G1 X189.939Y304.009
G1 X190.123Y304.349
G1 X190.367Y304.645
G1 X190.663Y304.889
G1 X191.003Y305.073
G1 X191.379Y305.19
G1 X191.782Y305.231
G1 X192.185Y305.19
G1 X192.56Y305.073
G1 X192.9Y304.889
G1 X193.196Y304.645
G1 X193.44Y304.349
G1 X193.624Y304.009
G1 X193.741Y303.634
G1 X193.782Y303.231
G1 X193.741Y302.828
G1 X193.624Y302.452
G1 X193.699Y302.729
G0 X199.24Y305.19
G1 X199.616Y305.073
G1 X199.955Y304.889
G1 X200.251Y304.645
G1 X200.496Y304.349
G1 X200.68Y304.009
G1 X200.796Y303.634
G1 X200.837Y303.231
G1 X200.796Y302.828
G1 X200.68Y302.452
G1 X200.496Y302.112
G1 X200.251Y301.817
G1 X199.955Y301.572
G1 X199.616Y301.388
G1 X199.24Y301.271
G1 X198.837Y301.231
G1 X198.434Y301.271
G1 X198.059Y301.388
G1 X197.719Y301.572
G1 X197.423Y301.817
G1 X197.179Y302.112
G1 X196.994Y302.452
G1 X196.878Y302.828
G1 X196.837Y303.231
G1 X196.878Y303.634
G1 X196.994Y304.009
G1 X197.179Y304.349
G1 X197.423Y304.645
G1 X197.719Y304.889
G1 X198.059Y305.073
G1 X198.434Y305.19
G1 X198.837Y305.231
G1 X199.24Y305.19
G1 X199.616Y305.073
G1 X199.339Y305.148
G0 X213.351Y311.827
G1 X213.727Y311.71
G1 X214.066Y311.526
G1 X214.362Y311.282
G1 X214.607Y310.986
G1 X214.791Y310.646
G1 X214.908Y310.27
G1 X214.948Y309.867
G1 X214.908Y309.464
G1 X214.791Y309.089
G1 X214.607Y308.749
G1 X214.362Y308.453
G1 X214.066Y308.209
G1 X213.727Y308.025
G1 X213.351Y307.908
G1 X212.948Y307.868
G1 X212.545Y307.908
G1 X212.17Y308.025
G1 X211.83Y308.209
G1 X211.534Y308.453
G1 X211.29Y308.749
G1 X211.105Y309.089
G1 X210.989Y309.464
G1 X210.948Y309.867
G1 X210.989Y310.27
G1 X211.105Y310.646
G1 X211.29Y310.986
G1 X211.534Y311.282
G1 X211.83Y311.526
G1 X212.17Y311.71
G1 X212.545Y311.827
G1 X212.948Y311.867
G1 X213.351Y311.827
G1 X213.727Y311.71
G1 X213.45Y311.785
G0 X205.49Y301.271
G1 X205.114Y301.388
G1 X204.774Y301.572
G1 X204.478Y301.817
G1 X204.234Y302.112
G1 X204.05Y302.452
G1 X203.933Y302.828
G1 X203.892Y303.231
G1 X203.933Y303.634
G1 X204.05Y304.009
G1 X204.234Y304.349
G1 X204.478Y304.645
G1 X204.774Y304.889
G1 X205.114Y305.073
G1 X205.49Y305.19
G1 X205.893Y305.231
G1 X206.296Y305.19
G1 X206.671Y305.073
G1 X207.011Y304.889
G1 X207.307Y304.645
G1 X207.551Y304.349
G1 X207.735Y304.009
G1 X207.852Y303.634
G1 X207.893Y303.231
G1 X207.852Y302.828
G1 X207.735Y302.452
G1 X207.551Y302.112
G1 X207.307Y301.817
G1 X207.011Y301.572
G1 X206.671Y301.388
G1 X206.296Y301.271
G1 X205.893Y301.231
G1 X205.49Y301.271
G1 X205.114Y301.388
G1 X205.391Y301.313
G0 X198.434Y294.635
G1 X198.059Y294.751
G1 X197.719Y294.936
G1 X197.423Y295.18
G1 X197.179Y295.476
G1 X196.994Y295.815
G1 X196.878Y296.191
G1 X196.837Y296.594
G1 X196.878Y296.997
G1 X196.994Y297.372
G1 X197.179Y297.712
G1 X197.423Y298.008
G1 X197.719Y298.252
G1 X198.059Y298.437
G1 X198.434Y298.553
G1 X198.837Y298.594
G1 X199.24Y298.553
G1 X199.616Y298.437
G1 X199.955Y298.252
G1 X200.251Y298.008
G1 X200.496Y297.712
G1 X200.68Y297.372
G1 X200.796Y296.997
G1 X200.837Y296.594
G1 X200.796Y296.191
G1 X200.68Y295.815
G1 X200.496Y295.476
G1 X200.251Y295.18
G1 X199.955Y294.936
G1 X199.616Y294.751
G1 X199.24Y294.635
G1 X198.837Y294.594
G1 X198.434Y294.635
G1 X198.059Y294.751
G1 X198.336Y294.676
G0 X189.822Y296.997
G1 X189.939Y297.372
G1 X190.123Y297.712
G1 X190.367Y298.008
G1 X190.663Y298.252
G1 X191.003Y298.437
G1 X191.379Y298.553
G1 X191.782Y298.594
G1 X192.185Y298.553
G1 X192.56Y298.437
G1 X192.9Y298.252
G1 X193.196Y298.008
G1 X193.44Y297.712
G1 X193.624Y297.372
G1 X193.741Y296.997
G1 X193.782Y296.594
G1 X193.741Y296.191
G1 X193.624Y295.815
G1 X193.44Y295.476
G1 X193.196Y295.18
G1 X192.9Y294.936
G1 X192.56Y294.751
G1 X192.185Y294.635
G1 X191.782Y294.594
G1 X191.379Y294.635
G1 X191.003Y294.751
G1 X190.663Y294.936
G1 X190.367Y295.18
G1 X190.123Y295.476
G1 X189.939Y295.815
G1 X189.822Y296.191
G1 X189.781Y296.594
G1 X189.822Y296.997
G1 X189.939Y297.372
G1 X189.863Y297.096
G0 X193.741Y289.554
G1 X193.624Y289.179
G1 X193.44Y288.839
G1 X193.196Y288.543
G1 X192.9Y288.299
G1 X192.56Y288.114
G1 X192.185Y287.998
G1 X191.782Y287.957
G1 X191.379Y287.998
G1 X191.003Y288.114
G1 X190.663Y288.299
G1 X190.367Y288.543
G1 X190.123Y288.839
G1 X189.939Y289.179
G1 X189.822Y289.554
G1 X189.781Y289.957
G1 X189.822Y290.36
G1 X189.939Y290.736
G1 X190.123Y291.075
G1 X190.367Y291.371
G1 X190.663Y291.616
G1 X191.003Y291.8
G1 X191.379Y291.916
G1 X191.782Y291.957
G1 X192.185Y291.916
G1 X192.56Y291.8
G1 X192.9Y291.616
G1 X193.196Y291.371
G1 X193.44Y291.075
G1 X193.624Y290.736
G1 X193.741Y290.36
G1 X193.782Y289.957
G1 X193.741Y289.554
G1 X193.624Y289.179
G1 X193.699Y289.456
G0 X199.24Y291.916
G1 X199.616Y291.8
G1 X199.955Y291.616
G1 X200.251Y291.371
G1 X200.496Y291.075
G1 X200.68Y290.736
G1 X200.796Y290.36
G1 X200.837Y289.957
G1 X200.796Y289.554
G1 X200.68Y289.179
G1 X200.496Y288.839
G1 X200.251Y288.543
G1 X199.955Y288.299
G1 X199.616Y288.114
G1 X199.24Y287.998
G1 X198.837Y287.957
G1 X198.434Y287.998
G1 X198.059Y288.114
G1 X197.719Y288.299
G1 X197.423Y288.543
G1 X197.179Y288.839
G1 X196.994Y289.179
G1 X196.878Y289.554
G1 X196.837Y289.957
G1 X196.878Y290.36
G1 X196.994Y290.736
G1 X197.179Y291.075
G1 X197.423Y291.371
G1 X197.719Y291.616
G1 X198.059Y291.8
G1 X198.434Y291.916
G1 X198.837Y291.957
G1 X199.24Y291.916
G1 X199.616Y291.8
G1 X199.339Y291.875
G0 X213.351Y298.553
G1 X213.727Y298.437
G1 X214.066Y298.252
G1 X214.362Y298.008
G1 X214.607Y297.712
G1 X214.791Y297.372
G1 X214.908Y296.997
G1 X214.948Y296.594
G1 X214.908Y296.191
G1 X214.791Y295.815
G1 X214.607Y295.476
G1 X214.362Y295.18
G1 X214.066Y294.936
G1 X213.727Y294.751
G1 X213.351Y294.635
G1 X212.948Y294.594
G1 X212.545Y294.635
G1 X212.17Y294.751
G1 X211.83Y294.936
G1 X211.534Y295.18
G1 X211.29Y295.476
G1 X211.105Y295.815
G1 X210.989Y296.191
G1 X210.948Y296.594
G1 X210.989Y296.997
G1 X211.105Y297.372
G1 X211.29Y297.712
G1 X211.534Y298.008
G1 X211.83Y298.252
G1 X212.17Y298.437
G1 X212.545Y298.553
G1 X212.948Y298.594
G1 X213.351Y298.553
G1 X213.727Y298.437
G1 X213.45Y298.512
G0 X210.989Y303.634
G1 X211.105Y304.009
G1 X211.29Y304.349
G1 X211.534Y304.645
G1 X211.83Y304.889
G1 X212.17Y305.073
G1 X212.545Y305.19
G1 X212.948Y305.231
G1 X213.351Y305.19
G1 X213.727Y305.073
G1 X214.066Y304.889
G1 X214.362Y304.645
G1 X214.607Y304.349
G1 X214.791Y304.009
G1 X214.908Y303.634
G1 X214.948Y303.231
G1 X214.908Y302.828
G1 X214.791Y302.452
G1 X214.607Y302.112
G1 X214.362Y301.817
G1 X214.066Y301.572
G1 X213.727Y301.388
G1 X213.351Y301.271
G1 X212.948Y301.231
G1 X212.545Y301.271
G1 X212.17Y301.388
G1 X211.83Y301.572
G1 X211.534Y301.817
G1 X211.29Y302.112
G1 X211.105Y302.452
G1 X210.989Y302.828
G1 X210.948Y303.231
G1 X210.989Y303.634
G1 X211.105Y304.009
G1 X211.03Y303.732
G0 X205.49Y294.635
G1 X205.114Y294.751
G1 X204.774Y294.936
G1 X204.478Y295.18
G1 X204.234Y295.476
G1 X204.05Y295.815
G1 X203.933Y296.191
G1 X203.892Y296.594
G1 X203.933Y296.997
G1 X204.05Y297.372
G1 X204.234Y297.712
G1 X204.478Y298.008
G1 X204.774Y298.252
G1 X205.114Y298.437
G1 X205.49Y298.553
G1 X205.893Y298.594
G1 X206.296Y298.553
G1 X206.671Y298.437
G1 X207.011Y298.252
G1 X207.307Y298.008
G1 X207.551Y297.712
G1 X207.735Y297.372
G1 X207.852Y296.997
G1 X207.893Y296.594
G1 X207.852Y296.191
G1 X207.735Y295.815
G1 X207.551Y295.476
G1 X207.307Y295.18
G1 X207.011Y294.936
G1 X206.671Y294.751
G1 X206.296Y294.635
G1 X205.893Y294.594
G1 X205.49Y294.635
G1 X205.114Y294.751
G1 X205.391Y294.676
G0 X207.852Y289.554
G1 X207.735Y289.179
G1 X207.551Y288.839
G1 X207.307Y288.543
G1 X207.011Y288.299
G1 X206.671Y288.114
G1 X206.296Y287.998
G1 X205.893Y287.957
G1 X205.49Y287.998
G1 X205.114Y288.114
G1 X204.774Y288.299
G1 X204.478Y288.543
G1 X204.234Y288.839
G1 X204.05Y289.179
G1 X203.933Y289.554
G1 X203.892Y289.957
G1 X203.933Y290.36
G1 X204.05Y290.736
G1 X204.234Y291.075
G1 X204.478Y291.371
G1 X204.774Y291.616
G1 X205.114Y291.8
G1 X205.49Y291.916
G1 X205.893Y291.957
G1 X206.296Y291.916
G1 X206.671Y291.8
G1 X207.011Y291.616
G1 X207.307Y291.371
G1 X207.551Y291.075
G1 X207.735Y290.736
G1 X207.852Y290.36
G1 X207.893Y289.957
G1 X207.852Y289.554
G1 X207.735Y289.179
G1 X207.811Y289.456
G0 X214.908Y282.917
G1 X214.791Y282.542
G1 X214.607Y282.202
G1 X214.362Y281.906
G1 X214.066Y281.662
G1 X213.727Y281.478
G1 X213.351Y281.361
G1 X212.948Y281.321
G1 X212.545Y281.361
G1 X212.17Y281.478
G1 X211.83Y281.662
G1 X211.534Y281.906
G1 X211.29Y282.202
G1 X211.105Y282.542
G1 X210.989Y282.917
G1 X210.948Y283.32
G1 X210.989Y283.723
G1 X211.105Y284.099
G1 X211.29Y284.439
G1 X211.534Y284.735
G1 X211.83Y284.979
G1 X212.17Y285.163
G1 X212.545Y285.28
G1 X212.948Y285.32
G1 X213.351Y285.28
G1 X213.727Y285.163
G1 X214.066Y284.979
G1 X214.362Y284.735
G1 X214.607Y284.439
G1 X214.791Y284.099
G1 X214.908Y283.723
G1 X214.948Y283.32
G1 X214.908Y282.917
G1 X214.791Y282.542
G1 X214.866Y282.819
G0 X212.545Y274.724
G1 X212.17Y274.841
G1 X211.83Y275.025
G1 X211.534Y275.27
G1 X211.29Y275.565
G1 X211.105Y275.905
G1 X210.989Y276.281
G1 X210.948Y276.684
G1 X210.989Y277.087
G1 X211.105Y277.462
G1 X211.29Y277.802
G1 X211.534Y278.098
G1 X211.83Y278.342
G1 X212.17Y278.526
G1 X212.545Y278.643
G1 X212.948Y278.684
G1 X213.351Y278.643
G1 X213.727Y278.526
G1 X214.066Y278.342
G1 X214.362Y278.098
G1 X214.607Y277.802
G1 X214.791Y277.462
G1 X214.908Y277.087
G1 X214.948Y276.684
G1 X214.908Y276.281
G1 X214.791Y275.905
G1 X214.607Y275.565
G1 X214.362Y275.27
G1 X214.066Y275.025
G1 X213.727Y274.841
G1 X213.351Y274.724
G1 X212.948Y274.684
G1 X212.545Y274.724
G1 X212.17Y274.841
G1 X212.447Y274.766
G0 X203.933Y277.087
G1 X204.05Y277.462
G1 X204.234Y277.802
G1 X204.478Y278.098
G1 X204.774Y278.342
G1 X205.114Y278.526
G1 X205.49Y278.643
G1 X205.893Y278.684
G1 X206.296Y278.643
G1 X206.671Y278.526
G1 X207.011Y278.342
G1 X207.307Y278.098
G1 X207.551Y277.802
G1 X207.735Y277.462
G1 X207.852Y277.087
G1 X207.893Y276.684
G1 X207.852Y276.281
G1 X207.735Y275.905
G1 X207.551Y275.565
G1 X207.307Y275.27
G1 X207.011Y275.025
G1 X206.671Y274.841
G1 X206.296Y274.724
G1 X205.893Y274.684
G1 X205.49Y274.724
G1 X205.114Y274.841
G1 X204.774Y275.025
G1 X204.478Y275.27
G1 X204.234Y275.565
G1 X204.05Y275.905
G1 X203.933Y276.281
G1 X203.892Y276.684
G1 X203.933Y277.087
G1 X204.05Y277.462
G1 X203.975Y277.185
G0 X198.434Y274.724
G1 X198.059Y274.841
G1 X197.719Y275.025
G1 X197.423Y275.27
G1 X197.179Y275.565
G1 X196.994Y275.905
G1 X196.878Y276.281
G1 X196.837Y276.684
G1 X196.878Y277.087
G1 X196.994Y277.462
G1 X197.179Y277.802
G1 X197.423Y278.098
G1 X197.719Y278.342
G1 X198.059Y278.526
G1 X198.434Y278.643
G1 X198.837Y278.684
G1 X199.24Y278.643
G1 X199.616Y278.526
G1 X199.955Y278.342
G1 X200.251Y278.098
G1 X200.496Y277.802
G1 X200.68Y277.462
G1 X200.796Y277.087
G1 X200.837Y276.684
G1 X200.796Y276.281
G1 X200.68Y275.905
G1 X200.496Y275.565
G1 X200.251Y275.27
G1 X199.955Y275.025
G1 X199.616Y274.841
G1 X199.24Y274.724
G1 X198.837Y274.684
G1 X198.434Y274.724
G1 X198.059Y274.841
G1 X198.336Y274.766
G0 X189.822Y277.087
G1 X189.939Y277.462
G1 X190.123Y277.802
G1 X190.367Y278.098
G1 X190.663Y278.342
G1 X191.003Y278.526
G1 X191.379Y278.643
G1 X191.782Y278.684
G1 X192.185Y278.643
G1 X192.56Y278.526
G1 X192.9Y278.342
G1 X193.196Y278.098
G1 X193.44Y277.802
G1 X193.624Y277.462
G1 X193.741Y277.087
G1 X193.782Y276.684
G1 X193.741Y276.281
G1 X193.624Y275.905
G1 X193.44Y275.565
G1 X193.196Y275.27
G1 X192.9Y275.025
G1 X192.56Y274.841
G1 X192.185Y274.724
G1 X191.782Y274.684
G1 X191.379Y274.724
G1 X191.003Y274.841
G1 X190.663Y275.025
G1 X190.367Y275.27
G1 X190.123Y275.565
G1 X189.939Y275.905
G1 X189.822Y276.281
G1 X189.781Y276.684
G1 X189.822Y277.087
G1 X189.939Y277.462
G1 X189.863Y277.185
G0 X192.185Y285.28
G1 X192.56Y285.163
G1 X192.9Y284.979
G1 X193.196Y284.735
G1 X193.44Y284.439
G1 X193.624Y284.099
G1 X193.741Y283.723
G1 X193.782Y283.32
G1 X193.741Y282.917
G1 X193.624Y282.542
G1 X193.44Y282.202
G1 X193.196Y281.906
G1 X192.9Y281.662
G1 X192.56Y281.478
G1 X192.185Y281.361
G1 X191.782Y281.321
G1 X191.379Y281.361
G1 X191.003Y281.478
G1 X190.663Y281.662
G1 X190.367Y281.906
G1 X190.123Y282.202
G1 X189.939Y282.542
G1 X189.822Y282.917
G1 X189.781Y283.32
G1 X189.822Y283.723
G1 X189.939Y284.099
G1 X190.123Y284.439
G1 X190.367Y284.735
G1 X190.663Y284.979
G1 X191.003Y285.163
G1 X191.379Y285.28
G1 X191.782Y285.32
G1 X192.185Y285.28
G1 X192.56Y285.163
G1 X192.283Y285.238
G0 X200.796Y282.917
G1 X200.68Y282.542
G1 X200.496Y282.202
G1 X200.251Y281.906
G1 X199.955Y281.662
G1 X199.616Y281.478
G1 X199.24Y281.361
G1 X198.837Y281.321
G1 X198.434Y281.361
G1 X198.059Y281.478
G1 X197.719Y281.662
G1 X197.423Y281.906
G1 X197.179Y282.202
G1 X196.994Y282.542
G1 X196.878Y282.917
G1 X196.837Y283.32
G1 X196.878Y283.723
G1 X196.994Y284.099
G1 X197.179Y284.439
G1 X197.423Y284.735
G1 X197.719Y284.979
G1 X198.059Y285.163
G1 X198.434Y285.28
G1 X198.837Y285.32
G1 X199.24Y285.28
G1 X199.616Y285.163
G1 X199.955Y284.979
G1 X200.251Y284.735
G1 X200.496Y284.439
G1 X200.68Y284.099
G1 X200.796Y283.723
G1 X200.837Y283.32
G1 X200.796Y282.917
G1 X200.68Y282.542
G1 X200.755Y282.819
G0 X206.296Y285.28
G1 X206.671Y285.163
G1 X207.011Y284.979
G1 X207.307Y284.735
G1 X207.551Y284.439
G1 X207.735Y284.099
G1 X207.852Y283.723
G1 X207.893Y283.32
G1 X207.852Y282.917
G1 X207.735Y282.542
G1 X207.551Y282.202
G1 X207.307Y281.906
G1 X207.011Y281.662
G1 X206.671Y281.478
G1 X206.296Y281.361
G1 X205.893Y281.321
G1 X205.49Y281.361
G1 X205.114Y281.478
G1 X204.774Y281.662
G1 X204.478Y281.906
G1 X204.234Y282.202
G1 X204.05Y282.542
G1 X203.933Y282.917
G1 X203.892Y283.32
G1 X203.933Y283.723
G1 X204.05Y284.099
G1 X204.234Y284.439
G1 X204.478Y284.735
G1 X204.774Y284.979
G1 X205.114Y285.163
G1 X205.49Y285.28
G1 X205.893Y285.32
G1 X206.296Y285.28
G1 X206.671Y285.163
G1 X206.394Y285.238
G0 X214.908Y269.644
G1 X214.791Y269.268
G1 X214.607Y268.929
G1 X214.362Y268.633
G1 X214.066Y268.389
G1 X213.727Y268.204
G1 X213.351Y268.088
G1 X212.948Y268.047
G1 X212.545Y268.088
G1 X212.17Y268.204
G1 X211.83Y268.389
G1 X211.534Y268.633
G1 X211.29Y268.929
G1 X211.105Y269.268
G1 X210.989Y269.644
G1 X210.948Y270.047
G1 X210.989Y270.45
G1 X211.105Y270.825
G1 X211.29Y271.165
G1 X211.534Y271.461
G1 X211.83Y271.705
G1 X212.17Y271.89
G1 X212.545Y272.006
G1 X212.948Y272.047
G1 X213.351Y272.006
G1 X213.727Y271.89
G1 X214.066Y271.705
G1 X214.362Y271.461
G1 X214.607Y271.165
G1 X214.791Y270.825
G1 X214.908Y270.45
G1 X214.948Y270.047
G1 X214.908Y269.644
G1 X214.791Y269.268
G1 X214.866Y269.545
G0 X204.774Y271.705
G1 X205.114Y271.89
G1 X205.49Y272.006
G1 X205.893Y272.047
G1 X206.296Y272.006
G1 X206.671Y271.89
G1 X207.011Y271.705
G1 X207.307Y271.461
G1 X207.551Y271.165
G1 X207.735Y270.825
G1 X207.852Y270.45
G1 X207.893Y270.047
G1 X207.852Y269.644
G1 X207.735Y269.268
G1 X207.551Y268.929
G1 X207.307Y268.633
G1 X207.011Y268.389
G1 X206.671Y268.204
G1 X206.296Y268.088
G1 X205.893Y268.047
G1 X205.49Y268.088
G1 X205.114Y268.204
G1 X204.774Y268.389
G1 X204.478Y268.633
G1 X204.234Y268.929
G1 X204.05Y269.268
G1 X203.933Y269.644
G1 X203.892Y270.047
G1 X203.933Y270.45
G1 X204.05Y270.825
G1 X204.234Y271.165
G1 X204.478Y271.461
G1 X204.774Y271.705
G1 X205.114Y271.89
G1 X204.879Y271.749
G0 X198.434Y268.088
G1 X198.059Y268.204
G1 X197.719Y268.389
G1 X197.423Y268.633
G1 X197.179Y268.929
G1 X196.994Y269.268
G1 X196.878Y269.644
G1 X196.837Y270.047
G1 X196.878Y270.45
G1 X196.994Y270.825
G1 X197.179Y271.165
G1 X197.423Y271.461
G1 X197.719Y271.705
G1 X198.059Y271.89
G1 X198.434Y272.006
G1 X198.837Y272.047
G1 X199.24Y272.006
G1 X199.616Y271.89
G1 X199.955Y271.705
G1 X200.251Y271.461
G1 X200.496Y271.165
G1 X200.68Y270.825
G1 X200.796Y270.45
G1 X200.837Y270.047
G1 X200.796Y269.644
G1 X200.68Y269.268
G1 X200.496Y268.929
G1 X200.251Y268.633
G1 X199.955Y268.389
G1 X199.616Y268.204
G1 X199.24Y268.088
G1 X198.837Y268.047
G1 X198.434Y268.088
G1 X198.059Y268.204
G1 X198.336Y268.129
G0 X189.822Y270.45
G1 X189.939Y270.825
G1 X190.123Y271.165
G1 X190.367Y271.461
G1 X190.663Y271.705
G1 X191.003Y271.89
G1 X191.379Y272.006
G1 X191.782Y272.047
G1 X192.185Y272.006
G1 X192.56Y271.89
G1 X192.9Y271.705
G1 X193.196Y271.461
G1 X193.44Y271.165
G1 X193.624Y270.825
G1 X193.741Y270.45
G1 X193.782Y270.047
G1 X193.741Y269.644
G1 X193.624Y269.268
G1 X193.44Y268.929
G1 X193.196Y268.633
G1 X192.9Y268.389
G1 X192.56Y268.204
G1 X192.185Y268.088
G1 X191.782Y268.047
G1 X191.379Y268.088
G1 X191.003Y268.204
G1 X190.663Y268.389
G1 X190.367Y268.633
G1 X190.123Y268.929
G1 X189.939Y269.268
G1 X189.822Y269.644
G1 X189.781Y270.047
G1 X189.822Y270.45
G1 X189.939Y270.825
G1 X189.863Y270.549
G0 X163.419Y330.136
G1 X163.603Y330.358
G1 X163.825Y330.541
G1 X164.079Y330.679
G1 X164.361Y330.767
G1 X164.663Y330.797
G1 X164.965Y330.767
G1 X165.247Y330.679
G1 X165.502Y330.541
G1 X165.724Y330.358
G1 X165.907Y330.136
G1 X166.045Y329.881
G1 X166.133Y329.599
G1 X166.163Y329.297
G1 X166.133Y328.995
G1 X166.045Y328.713
G1 X165.907Y328.458
G1 X165.724Y328.236
G1 X165.502Y328.053
G1 X165.247Y327.915
G1 X164.965Y327.827
G1 X164.663Y327.797
G1 X164.361Y327.827
G1 X164.079Y327.915
G1 X163.825Y328.053
G1 X163.603Y328.236
G1 X163.419Y328.458
G1 X163.281Y328.713
G1 X163.194Y328.995
G1 X163.163Y329.297
G1 X163.194Y329.599
G1 X163.281Y329.881
G1 X163.419Y330.136
G1 X163.603Y330.358
G1 X163.569Y330.286
G0 X165.907Y310.658
G1 X165.724Y310.436
G1 X165.502Y310.253
G1 X165.247Y310.115
G1 X164.965Y310.027
G1 X164.663Y309.997
G1 X164.361Y310.027
G1 X164.079Y310.115
G1 X163.825Y310.253
G1 X163.603Y310.436
G1 X163.419Y310.658
G1 X163.281Y310.913
G1 X163.194Y311.195
G1 X163.163Y311.497
G1 X163.194Y311.799
G1 X163.281Y312.081
G1 X163.419Y312.336
G1 X163.603Y312.558
G1 X163.825Y312.741
G1 X164.079Y312.879
G1 X164.361Y312.967
G1 X164.663Y312.997
G1 X164.965Y312.967
G1 X165.247Y312.879
G1 X165.502Y312.741
G1 X165.724Y312.558
G1 X165.907Y312.336
G1 X166.045Y312.081
G1 X166.133Y311.799
G1 X166.163Y311.497
G1 X166.133Y311.195
G1 X166.045Y310.913
G1 X165.907Y310.658
G1 X165.724Y310.436
G1 X165.757Y310.508
G0 X118.125Y312.741
G1 X118.379Y312.879
G1 X118.661Y312.967
G1 X118.963Y312.997
G1 X119.265Y312.967
G1 X119.547Y312.879
G1 X119.802Y312.741
G1 X120.024Y312.558
G1 X120.207Y312.336
G1 X120.345Y312.081
G1 X120.433Y311.799
G1 X120.463Y311.497
G1 X120.433Y311.195
G1 X120.345Y310.913
G1 X120.207Y310.658
G1 X120.024Y310.436
G1 X119.802Y310.253
G1 X119.547Y310.115
G1 X119.265Y310.027
G1 X118.963Y309.997
G1 X118.661Y310.027
G1 X118.379Y310.115
G1 X118.125Y310.253
G1 X117.903Y310.436
G1 X117.719Y310.658
G1 X117.581Y310.913
G1 X117.494Y311.195
G1 X117.463Y311.497
G1 X117.494Y311.799
G1 X117.581Y312.081
G1 X117.719Y312.336
G1 X117.903Y312.558
G1 X118.125Y312.741
G1 X118.379Y312.879
G1 X118.318Y312.822
G0 X221.963Y255.533
G1 X221.846Y255.157
G1 X221.662Y254.818
G1 X221.418Y254.522
G1 X221.122Y254.277
G1 X220.782Y254.093
G1 X220.407Y253.976
G1 X220.004Y253.936
G1 X219.601Y253.976
G1 X219.225Y254.093
G1 X218.886Y254.277
G1 X218.59Y254.522
G1 X218.345Y254.818
G1 X218.161Y255.157
G1 X218.044Y255.533
G1 X218.004Y255.936
G1 X218.044Y256.339
G1 X218.161Y256.714
G1 X218.345Y257.054
G1 X218.59Y257.35
G1 X218.886Y257.594
G1 X219.225Y257.779
G1 X219.601Y257.895
G1 X220.004Y257.936
G1 X220.407Y257.895
G1 X220.782Y257.779
G1 X221.122Y257.594
G1 X221.418Y257.35
G1 X221.662Y257.054
G1 X221.846Y256.714
G1 X221.963Y256.339
G1 X222.004Y255.936
G1 X221.963Y255.533
G1 X221.846Y255.157
G1 X221.921Y255.434
G0 X227.044Y257.895
G1 X227.419Y257.779
G1 X227.759Y257.594
G1 X228.055Y257.35
G1 X228.299Y257.054
G1 X228.483Y256.714
G1 X228.6Y256.339
G1 X228.64Y255.936
G1 X228.6Y255.533
G1 X228.483Y255.157
G1 X228.299Y254.818
G1 X228.055Y254.522
G1 X227.759Y254.277
G1 X227.419Y254.093
G1 X227.044Y253.976
G1 X226.64Y253.936
G1 X226.237Y253.976
G1 X225.862Y254.093
G1 X225.522Y254.277
G1 X225.226Y254.522
G1 X224.982Y254.818
G1 X224.798Y255.157
G1 X224.681Y255.533
G1 X224.641Y255.936
G1 X224.681Y256.339
G1 X224.798Y256.714
G1 X224.982Y257.054
G1 X225.226Y257.35
G1 X225.522Y257.594
G1 X225.862Y257.779
G1 X226.237Y257.895
G1 X226.64Y257.936
G1 X227.044Y257.895
G1 X227.419Y257.779
G1 X227.142Y257.854
G0 X235.236Y255.533
G1 X235.12Y255.157
G1 X234.936Y254.818
G1 X234.691Y254.522
G1 X234.395Y254.277
G1 X234.056Y254.093
G1 X233.68Y253.976
G1 X233.277Y253.936
G1 X232.874Y253.976
G1 X232.499Y254.093
G1 X232.159Y254.277
G1 X231.863Y254.522
G1 X231.619Y254.818
G1 X231.434Y255.157
G1 X231.318Y255.533
G1 X231.277Y255.936
G1 X231.318Y256.339
G1 X231.434Y256.714
G1 X231.619Y257.054
G1 X231.863Y257.35
G1 X232.159Y257.594
G1 X232.499Y257.779
G1 X232.874Y257.895
G1 X233.277Y257.936
G1 X233.68Y257.895
G1 X234.056Y257.779
G1 X234.395Y257.594
G1 X234.691Y257.35
G1 X234.936Y257.054
G1 X235.12Y256.714
G1 X235.236Y256.339
G1 X235.277Y255.936
G1 X235.236Y255.533
G1 X235.12Y255.157
G1 X235.195Y255.434
G0 X240.317Y257.895
G1 X240.692Y257.779
G1 X241.032Y257.594
G1 X241.328Y257.35
G1 X241.572Y257.054
G1 X241.757Y256.714
G1 X241.873Y256.339
G1 X241.914Y255.936
G1 X241.873Y255.533
G1 X241.757Y255.157
G1 X241.572Y254.818
G1 X241.328Y254.522
G1 X241.032Y254.277
G1 X240.692Y254.093
G1 X240.317Y253.976
G1 X239.914Y253.936
G1 X239.511Y253.976
G1 X239.135Y254.093
G1 X238.796Y254.277
G1 X238.5Y254.522
G1 X238.256Y254.818
G1 X238.071Y255.157
G1 X237.955Y255.533
G1 X237.914Y255.936
G1 X237.955Y256.339
G1 X238.071Y256.714
G1 X238.256Y257.054
G1 X238.5Y257.35
G1 X238.796Y257.594
G1 X239.135Y257.779
G1 X239.511Y257.895
G1 X239.914Y257.936
G1 X240.317Y257.895
G1 X240.692Y257.779
G1 X240.416Y257.854
G0 X248.51Y255.533
G1 X248.393Y255.157
G1 X248.209Y254.818
G1 X247.965Y254.522
G1 X247.669Y254.277
G1 X247.329Y254.093
G1 X246.954Y253.976
G1 X246.551Y253.936
G1 X246.148Y253.976
G1 X245.772Y254.093
G1 X245.433Y254.277
G1 X245.137Y254.522
G1 X244.892Y254.818
G1 X244.708Y255.157
G1 X244.591Y255.533
G1 X244.551Y255.936
G1 X244.591Y256.339
G1 X244.708Y256.714
G1 X244.892Y257.054
G1 X245.137Y257.35
G1 X245.433Y257.594
G1 X245.772Y257.779
G1 X246.148Y257.895
G1 X246.551Y257.936
G1 X246.954Y257.895
G1 X247.329Y257.779
G1 X247.669Y257.594
G1 X247.965Y257.35
G1 X248.209Y257.054
G1 X248.393Y256.714
G1 X248.51Y256.339
G1 X248.551Y255.936
G1 X248.51Y255.533
G1 X248.393Y255.157
G1 X248.469Y255.434
G0 X253.591Y257.895
G1 X253.966Y257.779
G1 X254.306Y257.594
G1 X254.602Y257.35
G1 X254.846Y257.054
G1 X255.03Y256.714
G1 X255.147Y256.339
G1 X255.187Y255.936
G1 X255.147Y255.533
G1 X255.03Y255.157
G1 X254.846Y254.818
G1 X254.602Y254.522
G1 X254.306Y254.277
G1 X253.966Y254.093
G1 X253.591Y253.976
G1 X253.187Y253.936
G1 X252.784Y253.976
G1 X252.409Y254.093
G1 X252.069Y254.277
G1 X251.773Y254.522
G1 X251.529Y254.818
G1 X251.345Y255.157
G1 X251.228Y255.533
G1 X251.188Y255.936
G1 X251.228Y256.339
G1 X251.345Y256.714
G1 X251.529Y257.054
G1 X251.773Y257.35
G1 X252.069Y257.594
G1 X252.409Y257.779
G1 X252.784Y257.895
G1 X253.187Y257.936
G1 X253.591Y257.895
G1 X253.966Y257.779
G1 X253.689Y257.854
G0 X261.784Y255.533
G1 X261.667Y255.157
G1 X261.483Y254.818
G1 X261.238Y254.522
G1 X260.942Y254.277
G1 X260.603Y254.093
G1 X260.227Y253.976
G1 X259.824Y253.936
G1 X259.421Y253.976
G1 X259.046Y254.093
G1 X258.706Y254.277
G1 X258.41Y254.522
G1 X258.166Y254.818
G1 X257.982Y255.157
G1 X257.865Y255.533
G1 X257.824Y255.936
G1 X257.865Y256.339
G1 X257.982Y256.714
G1 X258.166Y257.054
G1 X258.41Y257.35
G1 X258.706Y257.594
G1 X259.046Y257.779
G1 X259.421Y257.895
G1 X259.824Y257.936
G1 X260.227Y257.895
G1 X260.603Y257.779
G1 X260.942Y257.594
G1 X261.238Y257.35
G1 X261.483Y257.054
G1 X261.667Y256.714
G1 X261.784Y256.339
G1 X261.824Y255.936
G1 X261.784Y255.533
G1 X261.667Y255.157
G1 X261.742Y255.434
G0 X266.864Y257.895
G1 X267.239Y257.779
G1 X267.579Y257.594
G1 X267.875Y257.35
G1 X268.119Y257.054
G1 X268.304Y256.714
G1 X268.42Y256.339
G1 X268.461Y255.936
G1 X268.42Y255.533
G1 X268.304Y255.157
G1 X268.119Y254.818
G1 X267.875Y254.522
G1 X267.579Y254.277
G1 X267.239Y254.093
G1 X266.864Y253.976
G1 X266.461Y253.936
G1 X266.058Y253.976
G1 X265.683Y254.093
G1 X265.343Y254.277
G1 X265.047Y254.522
G1 X264.803Y254.818
G1 X264.618Y255.157
G1 X264.502Y255.533
G1 X264.461Y255.936
G1 X264.502Y256.339
G1 X264.618Y256.714
G1 X264.803Y257.054
G1 X265.047Y257.35
G1 X265.343Y257.594
G1 X265.683Y257.779
G1 X266.058Y257.895
G1 X266.461Y257.936
G1 X266.864Y257.895
G1 X267.239Y257.779
G1 X266.963Y257.854
G0 X299.184Y272.999
G1 X299.406Y272.816
G1 X299.589Y272.594
G1 X299.727Y272.339
G1 X299.815Y272.058
G1 X299.845Y271.756
G1 X299.815Y271.453
G1 X299.727Y271.172
G1 X299.589Y270.917
G1 X299.406Y270.695
G1 X299.184Y270.512
G1 X298.929Y270.373
G1 X298.647Y270.286
G1 X298.345Y270.256
G1 X298.043Y270.286
G1 X297.761Y270.373
G1 X297.507Y270.512
G1 X297.284Y270.695
G1 X297.101Y270.917
G1 X296.963Y271.172
G1 X296.876Y271.453
G1 X296.845Y271.756
G1 X296.876Y272.058
G1 X296.963Y272.339
G1 X297.101Y272.594
G1 X297.284Y272.816
G1 X297.507Y272.999
G1 X297.761Y273.138
G1 X298.043Y273.225
G1 X298.345Y273.256
G1 X298.647Y273.225
G1 X298.929Y273.138
G1 X299.184Y272.999
G1 X299.406Y272.816
G1 X299.334Y272.849
G0 X313.662Y266.474
G1 Y256.737
G1 X313.649Y256.479
G1 X313.611Y256.228
G1 X313.548Y255.986
G1 X313.463Y255.754
G1 X313.229Y255.324
G1 X312.919Y254.949
G1 X312.544Y254.639
G1 X312.114Y254.405
G1 X311.882Y254.32
G1 X311.64Y254.257
G1 X311.389Y254.219
G1 X311.131Y254.206
G1 X303.359
G1 X303.101Y254.219
G1 X302.85Y254.257
G1 X302.608Y254.32
G1 X302.376Y254.405
G1 X301.946Y254.639
G1 X301.571Y254.949
G1 X301.262Y255.324
G1 X301.027Y255.754
G1 X300.942Y255.986
G1 X300.879Y256.228
G1 X300.841Y256.479
G1 X300.828Y256.737
G1 Y266.474
G1 X300.841Y266.732
G1 X300.879Y266.983
G1 X300.942Y267.225
G1 X301.027Y267.457
G1 X301.262Y267.887
G1 X301.571Y268.262
G1 X301.946Y268.572
G1 X302.376Y268.806
G1 X302.608Y268.891
G1 X302.85Y268.954
G1 X303.101Y268.992
G1 X303.359Y269.006
G1 X311.131
G1 X311.389Y268.992
G1 X311.64Y268.954
G1 X311.882Y268.891
G1 X312.114Y268.806
G1 X312.544Y268.572
G1 X312.919Y268.262
G1 X313.229Y267.887
G1 X313.463Y267.457
G1 X313.548Y267.225
G1 X313.611Y266.983
G1 X313.649Y266.732
G1 X313.662Y266.474
G1 Y265.974
G0 X297.101Y294.562
G1 X297.284Y294.784
G1 X297.507Y294.967
G1 X297.761Y295.105
G1 X298.043Y295.193
G1 X298.345Y295.223
G1 X298.647Y295.193
G1 X298.929Y295.105
G1 X299.184Y294.967
G1 X299.406Y294.784
G1 X299.589Y294.562
G1 X299.727Y294.307
G1 X299.815Y294.026
G1 X299.845Y293.723
G1 X299.815Y293.421
G1 X299.727Y293.14
G1 X299.589Y292.885
G1 X299.406Y292.663
G1 X299.184Y292.48
G1 X298.929Y292.341
G1 X298.647Y292.254
G1 X298.345Y292.223
G1 X298.043Y292.254
G1 X297.761Y292.341
G1 X297.507Y292.48
G1 X297.284Y292.663
G1 X297.101Y292.885
G1 X296.963Y293.14
G1 X296.876Y293.421
G1 X296.845Y293.723
G1 X296.876Y294.026
G1 X296.963Y294.307
G1 X297.101Y294.562
G1 X297.284Y294.784
G1 X297.251Y294.712
G0 X316.984Y292.48
G1 X316.729Y292.341
G1 X316.447Y292.254
G1 X316.145Y292.223
G1 X315.843Y292.254
G1 X315.561Y292.341
G1 X315.306Y292.48
G1 X315.084Y292.663
G1 X314.901Y292.885
G1 X314.763Y293.14
G1 X314.676Y293.421
G1 X314.645Y293.723
G1 X314.676Y294.026
G1 X314.763Y294.307
G1 X314.901Y294.562
G1 X315.084Y294.784
G1 X315.306Y294.967
G1 X315.561Y295.105
G1 X315.843Y295.193
G1 X316.145Y295.223
G1 X316.447Y295.193
G1 X316.729Y295.105
G1 X316.984Y294.967
G1 X317.206Y294.784
G1 X317.389Y294.562
G1 X317.527Y294.307
G1 X317.615Y294.026
G1 X317.645Y293.723
G1 X317.615Y293.421
G1 X317.527Y293.14
G1 X317.389Y292.885
G1 X317.206Y292.663
G1 X316.984Y292.48
G1 X316.729Y292.341
G1 X316.79Y292.398
G0 X314.901Y270.917
G1 X314.763Y271.172
G1 X314.676Y271.453
G1 X314.645Y271.756
G1 X314.676Y272.058
G1 X314.763Y272.339
G1 X314.901Y272.594
G1 X315.084Y272.816
G1 X315.306Y272.999
G1 X315.561Y273.138
G1 X315.843Y273.225
G1 X316.145Y273.256
G1 X316.447Y273.225
G1 X316.729Y273.138
G1 X316.984Y272.999
G1 X317.206Y272.816
G1 X317.389Y272.594
G1 X317.527Y272.339
G1 X317.615Y272.058
G1 X317.645Y271.756
G1 X317.615Y271.453
G1 X317.527Y271.172
G1 X317.389Y270.917
G1 X317.206Y270.695
G1 X316.984Y270.512
G1 X316.729Y270.373
G1 X316.447Y270.286
G1 X316.145Y270.256
G1 X315.843Y270.286
G1 X315.561Y270.373
G1 X315.306Y270.512
G1 X315.084Y270.695
G1 X314.901Y270.917
G1 X314.763Y271.172
G1 X314.82Y271.111
G0 X317.389Y250.617
G1 X317.206Y250.395
G1 X316.984Y250.212
G1 X316.729Y250.073
G1 X316.447Y249.986
G1 X316.145Y249.956
G1 X315.843Y249.986
G1 X315.561Y250.073
G1 X315.306Y250.212
G1 X315.084Y250.395
G1 X314.901Y250.617
G1 X314.763Y250.872
G1 X314.676Y251.153
G1 X314.645Y251.456
G1 X314.676Y251.758
G1 X314.763Y252.039
G1 X314.901Y252.294
G1 X315.084Y252.516
G1 X315.306Y252.699
G1 X315.561Y252.838
G1 X315.843Y252.925
G1 X316.145Y252.956
G1 X316.447Y252.925
G1 X316.729Y252.838
G1 X316.984Y252.699
G1 X317.206Y252.516
G1 X317.389Y252.294
G1 X317.527Y252.039
G1 X317.615Y251.758
G1 X317.645Y251.456
G1 X317.615Y251.153
G1 X317.527Y250.872
G1 X317.389Y250.617
G1 X317.206Y250.395
G1 X317.239Y250.467
G0 X297.507Y252.699
G1 X297.761Y252.838
G1 X298.043Y252.925
G1 X298.345Y252.956
G1 X298.647Y252.925
G1 X298.929Y252.838
G1 X299.184Y252.699
G1 X299.406Y252.516
G1 X299.589Y252.294
G1 X299.727Y252.039
G1 X299.815Y251.758
G1 X299.845Y251.456
G1 X299.815Y251.153
G1 X299.727Y250.872
G1 X299.589Y250.617
G1 X299.406Y250.395
G1 X299.184Y250.212
G1 X298.929Y250.073
G1 X298.647Y249.986
G1 X298.345Y249.956
G1 X298.043Y249.986
G1 X297.761Y250.073
G1 X297.507Y250.212
G1 X297.284Y250.395
G1 X297.101Y250.617
G1 X296.963Y250.872
G1 X296.876Y251.153
G1 X296.845Y251.456
G1 X296.876Y251.758
G1 X296.963Y252.039
G1 X297.101Y252.294
G1 X297.284Y252.516
G1 X297.507Y252.699
G1 X297.761Y252.838
G1 X297.7Y252.781
G0 X145.664Y172.786
G1 X111.214
G1 X110.812Y172.807
G1 X110.422Y172.867
G1 X110.045Y172.964
G1 X109.683Y173.097
G1 X109.339Y173.264
G1 X109.014Y173.462
G1 X108.71Y173.689
G1 X108.43Y173.944
G1 X108.175Y174.224
G1 X107.948Y174.528
G1 X107.75Y174.853
G1 X107.583Y175.197
G1 X107.45Y175.559
G1 X107.352Y175.936
G1 X107.292Y176.326
G1 X107.272Y176.728
G1 X107.292Y177.129
G1 X107.352Y177.52
G1 X107.45Y177.896
G1 X107.583Y178.258
G1 X107.75Y178.603
G1 X107.948Y178.928
G1 X108.175Y179.231
G1 X108.43Y179.511
G1 X108.71Y179.766
G1 X109.014Y179.994
G1 X109.339Y180.192
G1 X109.683Y180.358
G1 X110.045Y180.491
G1 X110.422Y180.589
G1 X110.812Y180.649
G1 X111.214Y180.669
G1 X145.664
G1 X146.065Y180.649
G1 X146.456Y180.589
G1 X146.833Y180.491
G1 X147.194Y180.358
G1 X147.539Y180.192
G1 X147.864Y179.994
G1 X148.167Y179.766
G1 X148.447Y179.511
G1 X148.702Y179.231
G1 X148.93Y178.928
G1 X149.128Y178.603
G1 X149.294Y178.258
G1 X149.427Y177.896
G1 X149.525Y177.52
G1 X149.585Y177.129
G1 X149.605Y176.728
G1 X149.585Y176.326
G1 X149.525Y175.936
G1 X149.427Y175.559
G1 X149.294Y175.197
G1 X149.128Y174.853
G1 X148.93Y174.528
G1 X148.702Y174.224
G1 X148.447Y173.944
G1 X148.167Y173.689
G1 X147.864Y173.462
G1 X147.539Y173.264
G1 X147.194Y173.097
G1 X146.833Y172.964
G1 X146.456Y172.867
G1 X146.065Y172.807
G1 X145.664Y172.786
G1 X145.164
G0 X83.097Y141.502
G1 X82.722Y141.618
G1 X82.382Y141.803
G1 X82.086Y142.047
G1 X81.842Y142.343
G1 X81.657Y142.682
G1 X81.541Y143.058
G1 X81.5Y143.461
G1 X81.541Y143.864
G1 X81.657Y144.239
G1 X81.842Y144.579
G1 X82.086Y144.875
G1 X82.382Y145.119
G1 X82.722Y145.304
G1 X83.097Y145.42
G1 X83.5Y145.461
G1 X83.903Y145.42
G1 X84.279Y145.304
G1 X84.618Y145.119
G1 X84.914Y144.875
G1 X85.159Y144.579
G1 X85.343Y144.239
G1 X85.459Y143.864
G1 X85.5Y143.461
G1 X85.459Y143.058
G1 X85.343Y142.682
G1 X85.159Y142.343
G1 X84.914Y142.047
G1 X84.618Y141.803
G1 X84.279Y141.618
G1 X83.903Y141.502
G1 X83.5Y141.461
G1 X83.097Y141.502
G1 X82.722Y141.618
G1 X82.999Y141.543
G0 X165.845Y180.669
G1 X200.295
G1 X200.697Y180.649
G1 X201.087Y180.589
G1 X201.464Y180.491
G1 X201.826Y180.358
G1 X202.17Y180.192
G1 X202.495Y179.994
G1 X202.799Y179.766
G1 X203.079Y179.511
G1 X203.334Y179.231
G1 X203.561Y178.928
G1 X203.759Y178.603
G1 X203.926Y178.258
G1 X204.059Y177.896
G1 X204.156Y177.52
G1 X204.216Y177.129
G1 X204.237Y176.728
G1 X204.216Y176.326
G1 X204.156Y175.936
G1 X204.059Y175.559
G1 X203.926Y175.197
G1 X203.759Y174.853
G1 X203.561Y174.528
G1 X203.334Y174.224
G1 X203.079Y173.944
G1 X202.799Y173.689
G1 X202.495Y173.462
G1 X202.17Y173.264
G1 X201.826Y173.097
G1 X201.464Y172.964
G1 X201.087Y172.867
G1 X200.697Y172.807
G1 X200.295Y172.786
G1 X165.845
G1 X165.443Y172.807
G1 X165.053Y172.867
G1 X164.676Y172.964
G1 X164.314Y173.097
G1 X163.97Y173.264
G1 X163.645Y173.462
G1 X163.341Y173.689
G1 X163.061Y173.944
G1 X162.806Y174.224
G1 X162.579Y174.528
G1 X162.381Y174.853
G1 X162.214Y175.197
G1 X162.081Y175.559
G1 X161.984Y175.936
G1 X161.924Y176.326
G1 X161.903Y176.728
G1 X161.924Y177.129
G1 X161.984Y177.52
G1 X162.081Y177.896
G1 X162.214Y178.258
G1 X162.381Y178.603
G1 X162.579Y178.928
G1 X162.806Y179.231
G1 X163.061Y179.511
G1 X163.341Y179.766
G1 X163.645Y179.994
G1 X163.97Y180.192
G1 X164.314Y180.358
G1 X164.676Y180.491
G1 X165.053Y180.589
G1 X165.443Y180.649
G1 X165.845Y180.669
G1 X166.345
G0 X258.868Y176.728
G1 X258.848Y176.326
G1 X258.788Y175.936
G1 X258.69Y175.559
G1 X258.557Y175.197
G1 X258.391Y174.853
G1 X258.193Y174.528
G1 X257.965Y174.224
G1 X257.71Y173.944
G1 X257.43Y173.689
G1 X257.126Y173.462
G1 X256.801Y173.264
G1 X256.457Y173.097
G1 X256.095Y172.964
G1 X255.718Y172.867
G1 X255.328Y172.807
G1 X254.926Y172.786
G1 X220.476
G1 X220.075Y172.807
G1 X219.685Y172.867
G1 X219.308Y172.964
G1 X218.946Y173.097
G1 X218.602Y173.264
G1 X218.276Y173.462
G1 X217.973Y173.689
G1 X217.693Y173.944
G1 X217.438Y174.224
G1 X217.21Y174.528
G1 X217.012Y174.853
G1 X216.846Y175.197
G1 X216.713Y175.559
G1 X216.615Y175.936
G1 X216.555Y176.326
G1 X216.535Y176.728
G1 X216.555Y177.129
G1 X216.615Y177.52
G1 X216.713Y177.896
G1 X216.846Y178.258
G1 X217.012Y178.603
G1 X217.21Y178.928
G1 X217.438Y179.231
G1 X217.693Y179.511
G1 X217.973Y179.766
G1 X218.276Y179.994
G1 X218.602Y180.192
G1 X218.946Y180.358
G1 X219.308Y180.491
G1 X219.685Y180.589
G1 X220.075Y180.649
G1 X220.476Y180.669
G1 X254.926
G1 X255.328Y180.649
G1 X255.718Y180.589
G1 X256.095Y180.491
G1 X256.457Y180.358
G1 X256.801Y180.192
G1 X257.126Y179.994
G1 X257.43Y179.766
G1 X257.71Y179.511
G1 X257.965Y179.231
G1 X258.193Y178.928
G1 X258.391Y178.603
G1 X258.557Y178.258
G1 X258.69Y177.896
G1 X258.788Y177.52
G1 X258.848Y177.129
G1 X258.868Y176.728
G1 X258.848Y176.326
G1 X258.858Y176.63
G0 X282.459Y143.058
G1 X282.343Y142.682
G1 X282.159Y142.343
G1 X281.914Y142.047
G1 X281.618Y141.803
G1 X281.279Y141.618
G1 X280.903Y141.502
G1 X280.5Y141.461
G1 X280.097Y141.502
G1 X279.722Y141.618
G1 X279.382Y141.803
G1 X279.086Y142.047
G1 X278.842Y142.343
G1 X278.657Y142.682
G1 X278.541Y143.058
G1 X278.5Y143.461
G1 X278.541Y143.864
G1 X278.657Y144.239
G1 X278.842Y144.579
G1 X279.086Y144.875
G1 X279.382Y145.119
G1 X279.722Y145.304
G1 X280.097Y145.42
G1 X280.5Y145.461
G1 X280.903Y145.42
G1 X281.279Y145.304
G1 X281.618Y145.119
G1 X281.914Y144.875
G1 X282.159Y144.579
G1 X282.343Y144.239
G1 X282.459Y143.864
G1 X282.5Y143.461
G1 X282.459Y143.058
G1 X282.343Y142.682
G1 X282.418Y142.959
G0 X254.926Y201.836
G1 X220.476
G1 X220.075Y201.816
G1 X219.685Y201.756
G1 X219.308Y201.658
G1 X218.946Y201.525
G1 X218.602Y201.358
G1 X218.276Y201.16
G1 X217.973Y200.933
G1 X217.693Y200.678
G1 X217.438Y200.398
G1 X217.21Y200.094
G1 X217.012Y199.769
G1 X216.846Y199.425
G1 X216.713Y199.063
G1 X216.615Y198.686
G1 X216.555Y198.296
G1 X216.535Y197.894
G1 X216.555Y197.493
G1 X216.615Y197.103
G1 X216.713Y196.726
G1 X216.846Y196.364
G1 X217.012Y196.02
G1 X217.21Y195.695
G1 X217.438Y195.391
G1 X217.693Y195.111
G1 X217.973Y194.856
G1 X218.276Y194.628
G1 X218.602Y194.43
G1 X218.946Y194.264
G1 X219.308Y194.131
G1 X219.685Y194.033
G1 X220.075Y193.973
G1 X220.476Y193.953
G1 X254.926
G1 X255.328Y193.973
G1 X255.718Y194.033
G1 X256.095Y194.131
G1 X256.457Y194.264
G1 X256.801Y194.43
G1 X257.126Y194.628
G1 X257.43Y194.856
G1 X257.71Y195.111
G1 X257.965Y195.391
G1 X258.193Y195.695
G1 X258.391Y196.02
G1 X258.557Y196.364
G1 X258.69Y196.726
G1 X258.788Y197.103
G1 X258.848Y197.493
G1 X258.868Y197.894
G1 X258.848Y198.296
G1 X258.788Y198.686
G1 X258.69Y199.063
G1 X258.557Y199.425
G1 X258.391Y199.769
G1 X258.193Y200.094
G1 X257.965Y200.398
G1 X257.71Y200.678
G1 X257.43Y200.933
G1 X257.126Y201.16
G1 X256.801Y201.358
G1 X256.457Y201.525
G1 X256.095Y201.658
G1 X255.718Y201.756
G1 X255.328Y201.816
G1 X254.926Y201.836
G1 X254.426
G0 X200.295Y193.953
G1 X165.845
G1 X165.443Y193.973
G1 X165.053Y194.033
G1 X164.676Y194.131
G1 X164.314Y194.264
G1 X163.97Y194.43
G1 X163.645Y194.628
G1 X163.341Y194.856
G1 X163.061Y195.111
G1 X162.806Y195.391
G1 X162.579Y195.695
G1 X162.381Y196.02
G1 X162.214Y196.364
G1 X162.081Y196.726
G1 X161.984Y197.103
G1 X161.924Y197.493
G1 X161.903Y197.894
G1 X161.924Y198.296
G1 X161.984Y198.686
G1 X162.081Y199.063
G1 X162.214Y199.425
G1 X162.381Y199.769
G1 X162.579Y200.094
G1 X162.806Y200.398
G1 X163.061Y200.678
G1 X163.341Y200.933
G1 X163.645Y201.16
G1 X163.97Y201.358
G1 X164.314Y201.525
G1 X164.676Y201.658
G1 X165.053Y201.756
G1 X165.443Y201.816
G1 X165.845Y201.836
G1 X200.295
G1 X200.697Y201.816
G1 X201.087Y201.756
G1 X201.464Y201.658
G1 X201.826Y201.525
G1 X202.17Y201.358
G1 X202.495Y201.16
G1 X202.799Y200.933
G1 X203.079Y200.678
G1 X203.334Y200.398
G1 X203.561Y200.094
G1 X203.759Y199.769
G1 X203.926Y199.425
G1 X204.059Y199.063
G1 X204.156Y198.686
G1 X204.216Y198.296
G1 X204.237Y197.894
G1 X204.216Y197.493
G1 X204.156Y197.103
G1 X204.059Y196.726
G1 X203.926Y196.364
G1 X203.759Y196.02
G1 X203.561Y195.695
G1 X203.334Y195.391
G1 X203.079Y195.111
G1 X202.799Y194.856
G1 X202.495Y194.628
G1 X202.17Y194.43
G1 X201.826Y194.264
G1 X201.464Y194.131
G1 X201.087Y194.033
G1 X200.697Y193.973
G1 X200.295Y193.953
G1 X199.795
G0 X303.359Y226.738
G1 X311.131
G1 X311.389Y226.725
G1 X311.64Y226.686
G1 X311.882Y226.623
G1 X312.114Y226.538
G1 X312.544Y226.304
G1 X312.919Y225.994
G1 X313.229Y225.619
G1 X313.463Y225.189
G1 X313.548Y224.957
G1 X313.611Y224.715
G1 X313.649Y224.464
G1 X313.662Y224.206
G1 Y214.469
G1 X313.649Y214.211
G1 X313.611Y213.96
G1 X313.548Y213.718
G1 X313.463Y213.486
G1 X313.229Y213.056
G1 X312.919Y212.681
G1 X312.544Y212.371
G1 X312.114Y212.137
G1 X311.882Y212.052
G1 X311.64Y211.989
G1 X311.389Y211.951
G1 X311.131Y211.938
G1 X303.359
G1 X303.101Y211.951
G1 X302.85Y211.989
G1 X302.608Y212.052
G1 X302.376Y212.137
G1 X301.946Y212.371
G1 X301.571Y212.681
G1 X301.262Y213.056
G1 X301.027Y213.486
G1 X300.942Y213.718
G1 X300.879Y213.96
G1 X300.841Y214.211
G1 X300.828Y214.469
G1 Y224.206
G1 X300.841Y224.464
G1 X300.879Y224.715
G1 X300.942Y224.957
G1 X301.027Y225.189
G1 X301.262Y225.619
G1 X301.571Y225.994
G1 X301.946Y226.304
G1 X302.376Y226.538
G1 X302.608Y226.623
G1 X302.85Y226.686
G1 X303.101Y226.725
G1 X303.359Y226.738
G1 X303.859
G0 X316.984Y230.731
G1 X317.206Y230.548
G1 X317.389Y230.326
G1 X317.527Y230.071
G1 X317.615Y229.79
G1 X317.645Y229.488
G1 X317.615Y229.185
G1 X317.527Y228.904
G1 X317.389Y228.649
G1 X317.206Y228.427
G1 X316.984Y228.244
G1 X316.729Y228.105
G1 X316.447Y228.018
G1 X316.145Y227.988
G1 X315.843Y228.018
G1 X315.561Y228.105
G1 X315.306Y228.244
G1 X315.084Y228.427
G1 X314.901Y228.649
G1 X314.763Y228.904
G1 X314.676Y229.185
G1 X314.645Y229.488
G1 X314.676Y229.79
G1 X314.763Y230.071
G1 X314.901Y230.326
G1 X315.084Y230.548
G1 X315.306Y230.731
G1 X315.561Y230.87
G1 X315.843Y230.957
G1 X316.145Y230.988
G1 X316.447Y230.957
G1 X316.729Y230.87
G1 X316.984Y230.731
G1 X317.206Y230.548
G1 X317.134Y230.581
G0 X297.507Y228.244
G1 X297.284Y228.427
G1 X297.101Y228.649
G1 X296.963Y228.904
G1 X296.876Y229.185
G1 X296.845Y229.488
G1 X296.876Y229.79
G1 X296.963Y230.071
G1 X297.101Y230.326
G1 X297.284Y230.548
G1 X297.507Y230.731
G1 X297.761Y230.87
G1 X298.043Y230.957
G1 X298.345Y230.988
G1 X298.647Y230.957
G1 X298.929Y230.87
G1 X299.184Y230.731
G1 X299.406Y230.548
G1 X299.589Y230.326
G1 X299.727Y230.071
G1 X299.815Y229.79
G1 X299.845Y229.488
G1 X299.815Y229.185
G1 X299.727Y228.904
G1 X299.589Y228.649
G1 X299.406Y228.427
G1 X299.184Y228.244
G1 X298.929Y228.105
G1 X298.647Y228.018
G1 X298.345Y227.988
G1 X298.043Y228.018
G1 X297.761Y228.105
G1 X297.507Y228.244
G1 X297.284Y228.427
G1 X297.356Y228.394
G0 X277.775Y242.228
G1 X277.892Y242.603
G1 X278.076Y242.943
G1 X278.32Y243.239
G1 X278.616Y243.483
G1 X278.956Y243.668
G1 X279.331Y243.784
G1 X279.734Y243.825
G1 X280.138Y243.784
G1 X280.513Y243.668
G1 X280.853Y243.483
G1 X281.149Y243.239
G1 X281.393Y242.943
G1 X281.577Y242.603
G1 X281.694Y242.228
G1 X281.734Y241.825
G1 X281.694Y241.422
G1 X281.577Y241.046
G1 X281.393Y240.707
G1 X281.149Y240.41
G1 X280.853Y240.166
G1 X280.513Y239.982
G1 X280.138Y239.865
G1 X279.734Y239.825
G1 X279.331Y239.865
G1 X278.956Y239.982
G1 X278.616Y240.166
G1 X278.32Y240.41
G1 X278.076Y240.707
G1 X277.892Y241.046
G1 X277.775Y241.422
G1 X277.735Y241.825
G1 X277.775Y242.228
G1 X277.892Y242.603
G1 X277.817Y242.326
G0 X271.138Y249.283
G1 X271.255Y249.659
G1 X271.439Y249.999
G1 X271.684Y250.295
G1 X271.98Y250.539
G1 X272.319Y250.723
G1 X272.695Y250.84
G1 X273.098Y250.88
G1 X273.501Y250.84
G1 X273.876Y250.723
G1 X274.216Y250.539
G1 X274.512Y250.295
G1 X274.756Y249.999
G1 X274.94Y249.659
G1 X275.057Y249.283
G1 X275.098Y248.88
G1 X275.057Y248.477
G1 X274.94Y248.102
G1 X274.756Y247.762
G1 X274.512Y247.466
G1 X274.216Y247.222
G1 X273.876Y247.037
G1 X273.501Y246.921
G1 X273.098Y246.88
G1 X272.695Y246.921
G1 X272.319Y247.037
G1 X271.98Y247.222
G1 X271.684Y247.466
G1 X271.439Y247.762
G1 X271.255Y248.102
G1 X271.138Y248.477
G1 X271.098Y248.88
G1 X271.138Y249.283
G1 X271.255Y249.659
G1 X271.18Y249.382
G0 X266.058Y246.921
G1 X265.683Y247.037
G1 X265.343Y247.222
G1 X265.047Y247.466
G1 X264.803Y247.762
G1 X264.618Y248.102
G1 X264.502Y248.477
G1 X264.461Y248.88
G1 X264.502Y249.283
G1 X264.618Y249.659
G1 X264.803Y249.999
G1 X265.047Y250.295
G1 X265.343Y250.539
G1 X265.683Y250.723
G1 X266.058Y250.84
G1 X266.461Y250.88
G1 X266.864Y250.84
G1 X267.239Y250.723
G1 X267.579Y250.539
G1 X267.875Y250.295
G1 X268.119Y249.999
G1 X268.304Y249.659
G1 X268.42Y249.283
G1 X268.461Y248.88
G1 X268.42Y248.477
G1 X268.304Y248.102
G1 X268.119Y247.762
G1 X267.875Y247.466
G1 X267.579Y247.222
G1 X267.239Y247.037
G1 X266.864Y246.921
G1 X266.461Y246.88
G1 X266.058Y246.921
G1 X265.683Y247.037
G1 X265.959Y246.962
G0 X257.865Y249.283
G1 X257.982Y249.659
G1 X258.166Y249.999
G1 X258.41Y250.295
G1 X258.706Y250.539
G1 X259.046Y250.723
G1 X259.421Y250.84
G1 X259.824Y250.88
G1 X260.227Y250.84
G1 X260.603Y250.723
G1 X260.942Y250.539
G1 X261.238Y250.295
G1 X261.483Y249.999
G1 X261.667Y249.659
G1 X261.784Y249.283
G1 X261.824Y248.88
G1 X261.784Y248.477
G1 X261.667Y248.102
G1 X261.483Y247.762
G1 X261.238Y247.466
G1 X260.942Y247.222
G1 X260.603Y247.037
G1 X260.227Y246.921
G1 X259.824Y246.88
G1 X259.421Y246.921
G1 X259.046Y247.037
G1 X258.706Y247.222
G1 X258.41Y247.466
G1 X258.166Y247.762
G1 X257.982Y248.102
G1 X257.865Y248.477
G1 X257.824Y248.88
G1 X257.865Y249.283
G1 X257.982Y249.659
G1 X257.906Y249.382
G0 X252.784Y246.921
G1 X252.409Y247.037
G1 X252.069Y247.222
G1 X251.773Y247.466
G1 X251.529Y247.762
G1 X251.345Y248.102
G1 X251.228Y248.477
G1 X251.188Y248.88
G1 X251.228Y249.283
G1 X251.345Y249.659
G1 X251.529Y249.999
G1 X251.773Y250.295
G1 X252.069Y250.539
G1 X252.409Y250.723
G1 X252.784Y250.84
G1 X253.187Y250.88
G1 X253.591Y250.84
G1 X253.966Y250.723
G1 X254.306Y250.539
G1 X254.602Y250.295
G1 X254.846Y249.999
G1 X255.03Y249.659
G1 X255.147Y249.283
G1 X255.187Y248.88
G1 X255.147Y248.477
G1 X255.03Y248.102
G1 X254.846Y247.762
G1 X254.602Y247.466
G1 X254.306Y247.222
G1 X253.966Y247.037
G1 X253.591Y246.921
G1 X253.187Y246.88
G1 X252.784Y246.921
G1 X252.409Y247.037
G1 X252.686Y246.962
G0 X244.591Y249.283
G1 X244.708Y249.659
G1 X244.892Y249.999
G1 X245.137Y250.295
G1 X245.433Y250.539
G1 X245.772Y250.723
G1 X246.148Y250.84
G1 X246.551Y250.88
G1 X246.954Y250.84
G1 X247.329Y250.723
G1 X247.669Y250.539
G1 X247.965Y250.295
G1 X248.209Y249.999
G1 X248.393Y249.659
G1 X248.51Y249.283
G1 X248.551Y248.88
G1 X248.51Y248.477
G1 X248.393Y248.102
G1 X248.209Y247.762
G1 X247.965Y247.466
G1 X247.669Y247.222
G1 X247.329Y247.037
G1 X246.954Y246.921
G1 X246.551Y246.88
G1 X246.148Y246.921
G1 X245.772Y247.037
G1 X245.433Y247.222
G1 X245.137Y247.466
G1 X244.892Y247.762
G1 X244.708Y248.102
G1 X244.591Y248.477
G1 X244.551Y248.88
G1 X244.591Y249.283
G1 X244.708Y249.659
G1 X244.633Y249.382
G0 X239.511Y246.921
G1 X239.135Y247.037
G1 X238.796Y247.222
G1 X238.5Y247.466
G1 X238.256Y247.762
G1 X238.071Y248.102
G1 X237.955Y248.477
G1 X237.914Y248.88
G1 X237.955Y249.283
G1 X238.071Y249.659
G1 X238.256Y249.999
G1 X238.5Y250.295
G1 X238.796Y250.539
G1 X239.135Y250.723
G1 X239.511Y250.84
G1 X239.914Y250.88
G1 X240.317Y250.84
G1 X240.692Y250.723
G1 X241.032Y250.539
G1 X241.328Y250.295
G1 X241.572Y249.999
G1 X241.757Y249.659
G1 X241.873Y249.283
G1 X241.914Y248.88
G1 X241.873Y248.477
G1 X241.757Y248.102
G1 X241.572Y247.762
G1 X241.328Y247.466
G1 X241.032Y247.222
G1 X240.692Y247.037
G1 X240.317Y246.921
G1 X239.914Y246.88
G1 X239.511Y246.921
G1 X239.135Y247.037
G1 X239.412Y246.962
G0 X231.318Y249.283
G1 X231.434Y249.659
G1 X231.619Y249.999
G1 X231.863Y250.295
G1 X232.159Y250.539
G1 X232.499Y250.723
G1 X232.874Y250.84
G1 X233.277Y250.88
G1 X233.68Y250.84
G1 X234.056Y250.723
G1 X234.395Y250.539
G1 X234.691Y250.295
G1 X234.936Y249.999
G1 X235.12Y249.659
G1 X235.236Y249.283
G1 X235.277Y248.88
G1 X235.236Y248.477
G1 X235.12Y248.102
G1 X234.936Y247.762
G1 X234.691Y247.466
G1 X234.395Y247.222
G1 X234.056Y247.037
G1 X233.68Y246.921
G1 X233.277Y246.88
G1 X232.874Y246.921
G1 X232.499Y247.037
G1 X232.159Y247.222
G1 X231.863Y247.466
G1 X231.619Y247.762
G1 X231.434Y248.102
G1 X231.318Y248.477
G1 X231.277Y248.88
G1 X231.318Y249.283
G1 X231.434Y249.659
G1 X231.359Y249.382
G0 X226.237Y246.921
G1 X225.862Y247.037
G1 X225.522Y247.222
G1 X225.226Y247.466
G1 X224.982Y247.762
G1 X224.798Y248.102
G1 X224.681Y248.477
G1 X224.641Y248.88
G1 X224.681Y249.283
G1 X224.798Y249.659
G1 X224.982Y249.999
G1 X225.226Y250.295
G1 X225.522Y250.539
G1 X225.862Y250.723
G1 X226.237Y250.84
G1 X226.64Y250.88
G1 X227.044Y250.84
G1 X227.419Y250.723
G1 X227.759Y250.539
G1 X228.055Y250.295
G1 X228.299Y249.999
G1 X228.483Y249.659
G1 X228.6Y249.283
G1 X228.64Y248.88
G1 X228.6Y248.477
G1 X228.483Y248.102
G1 X228.299Y247.762
G1 X228.055Y247.466
G1 X227.759Y247.222
G1 X227.419Y247.037
G1 X227.044Y246.921
G1 X226.64Y246.88
G1 X226.237Y246.921
G1 X225.862Y247.037
G1 X226.139Y246.962
G0 X218.044Y249.283
G1 X218.161Y249.659
G1 X218.345Y249.999
G1 X218.59Y250.295
G1 X218.886Y250.539
G1 X219.225Y250.723
G1 X219.601Y250.84
G1 X220.004Y250.88
G1 X220.407Y250.84
G1 X220.782Y250.723
G1 X221.122Y250.539
G1 X221.418Y250.295
G1 X221.662Y249.999
G1 X221.846Y249.659
G1 X221.963Y249.283
G1 X222.004Y248.88
G1 X221.963Y248.477
G1 X221.846Y248.102
G1 X221.662Y247.762
G1 X221.418Y247.466
G1 X221.122Y247.222
G1 X220.782Y247.037
G1 X220.407Y246.921
G1 X220.004Y246.88
G1 X219.601Y246.921
G1 X219.225Y247.037
G1 X218.886Y247.222
G1 X218.59Y247.466
G1 X218.345Y247.762
G1 X218.161Y248.102
G1 X218.044Y248.477
G1 X218.004Y248.88
G1 X218.044Y249.283
G1 X218.161Y249.659
G1 X218.086Y249.382
G0 X221.963Y241.422
G1 X221.846Y241.046
G1 X221.662Y240.707
G1 X221.418Y240.41
G1 X221.122Y240.166
G1 X220.782Y239.982
G1 X220.407Y239.865
G1 X220.004Y239.825
G1 X219.601Y239.865
G1 X219.225Y239.982
G1 X218.886Y240.166
G1 X218.59Y240.41
G1 X218.345Y240.707
G1 X218.161Y241.046
G1 X218.044Y241.422
G1 X218.004Y241.825
G1 X218.044Y242.228
G1 X218.161Y242.603
G1 X218.345Y242.943
G1 X218.59Y243.239
G1 X218.886Y243.483
G1 X219.225Y243.668
G1 X219.601Y243.784
G1 X220.004Y243.825
G1 X220.407Y243.784
G1 X220.782Y243.668
G1 X221.122Y243.483
G1 X221.418Y243.239
G1 X221.662Y242.943
G1 X221.846Y242.603
G1 X221.963Y242.228
G1 X222.004Y241.825
G1 X221.963Y241.422
G1 X221.846Y241.046
G1 X221.922Y241.323
G0 X227.044Y243.784
G1 X227.419Y243.668
G1 X227.759Y243.483
G1 X228.055Y243.239
G1 X228.299Y242.943
G1 X228.483Y242.603
G1 X228.6Y242.228
G1 X228.64Y241.825
G1 X228.6Y241.422
G1 X228.483Y241.046
G1 X228.299Y240.707
G1 X228.055Y240.41
G1 X227.759Y240.166
G1 X227.419Y239.982
G1 X227.044Y239.865
G1 X226.64Y239.825
G1 X226.237Y239.865
G1 X225.862Y239.982
G1 X225.522Y240.166
G1 X225.226Y240.41
G1 X224.982Y240.707
G1 X224.798Y241.046
G1 X224.681Y241.422
G1 X224.641Y241.825
G1 X224.681Y242.228
G1 X224.798Y242.603
G1 X224.982Y242.943
G1 X225.226Y243.239
G1 X225.522Y243.483
G1 X225.862Y243.668
G1 X226.237Y243.784
G1 X226.64Y243.825
G1 X227.044Y243.784
G1 X227.419Y243.668
G1 X227.142Y243.743
G0 X235.236Y241.422
G1 X235.12Y241.046
G1 X234.936Y240.707
G1 X234.691Y240.41
G1 X234.395Y240.166
G1 X234.056Y239.982
G1 X233.68Y239.865
G1 X233.277Y239.825
G1 X232.874Y239.865
G1 X232.499Y239.982
G1 X232.159Y240.166
G1 X231.863Y240.41
G1 X231.619Y240.707
G1 X231.434Y241.046
G1 X231.318Y241.422
G1 X231.277Y241.825
G1 X231.318Y242.228
G1 X231.434Y242.603
G1 X231.619Y242.943
G1 X231.863Y243.239
G1 X232.159Y243.483
G1 X232.499Y243.668
G1 X232.874Y243.784
G1 X233.277Y243.825
G1 X233.68Y243.784
G1 X234.056Y243.668
G1 X234.395Y243.483
G1 X234.691Y243.239
G1 X234.936Y242.943
G1 X235.12Y242.603
G1 X235.236Y242.228
G1 X235.277Y241.825
G1 X235.236Y241.422
G1 X235.12Y241.046
G1 X235.195Y241.323
G0 X240.317Y243.784
G1 X240.692Y243.668
G1 X241.032Y243.483
G1 X241.328Y243.239
G1 X241.572Y242.943
G1 X241.757Y242.603
G1 X241.873Y242.228
G1 X241.914Y241.825
G1 X241.873Y241.422
G1 X241.757Y241.046
G1 X241.572Y240.707
G1 X241.328Y240.41
G1 X241.032Y240.166
G1 X240.692Y239.982
G1 X240.317Y239.865
G1 X239.914Y239.825
G1 X239.511Y239.865
G1 X239.135Y239.982
G1 X238.796Y240.166
G1 X238.5Y240.41
G1 X238.256Y240.707
G1 X238.071Y241.046
G1 X237.955Y241.422
G1 X237.914Y241.825
G1 X237.955Y242.228
G1 X238.071Y242.603
G1 X238.256Y242.943
G1 X238.5Y243.239
G1 X238.796Y243.483
G1 X239.135Y243.668
G1 X239.511Y243.784
G1 X239.914Y243.825
G1 X240.317Y243.784
G1 X240.692Y243.668
G1 X240.416Y243.743
