; LightBurn 1.7.04
; GRBL device profile, absolute coords
; Bounds: X15 Y50 to X385 Y350
G00 G17 G40 G21 G54
G90
M4
; Cut @ 30 mm/sec, 50% power
M8
G0 X203.763Y299.295
; Layer C11
G1 X206.263S500F1800
G0 X206.263Y298.295
G1 X203.763
G0 X203.763Y297.295
G1 X206.263
G0 X206.263Y296.295
G1 X203.763
G0 X206.262Y295.295
G1 X200.865
G0 X203.763Y294.295
G1 X206.263
G0 X206.263Y293.295
G1 X203.763
G0 X203.763Y292.295
G1 X206.263
G0 X206.263Y291.295
G1 X203.763
G0 X206.262Y290.295
G1 X200.865
G0 X201.263Y202.699
G1 Y197.301
G0 X200.263Y198.75
G1 Y201.25
G0 X199.263Y201.25
G1 Y198.75
G0 X198.263Y198.75
G1 Y201.25
G0 X197.263Y201.25
G1 Y198.75
G0 X202.263Y198.75
G1 Y201.25
G0 X203.263Y201.25
G1 Y198.75
G0 X204.263Y198.75
G1 Y201.25
G0 X205.263Y201.25
G1 Y198.75
G0 X341.277Y200.665
G1 Y195.267
G0 X342.277Y195.267
G1 Y197.767
G0 X343.277Y197.767
G1 Y195.267
G0 X344.277Y195.267
G1 Y197.767
G0 X345.277Y197.767
G1 Y195.267
G0 X346.277Y195.267
G1 Y200.665
G0 X347.277Y197.767
G1 Y195.267
G0 X348.277Y195.267
G1 Y197.767
G0 X349.277Y197.767
G1 Y195.267
G0 X350.277Y195.267
G1 Y197.767
G0 X61.275Y199.843
G1 Y205.24
G0 X60.275Y205.241
G1 Y202.741
G0 X59.275Y202.741
G1 Y205.241
G0 X58.275Y205.241
G1 Y202.741
G0 X57.275Y202.741
G1 Y205.241
G0 X56.275Y205.24
G1 Y199.843
G0 X55.275Y202.741
G1 Y205.241
G0 X54.275Y205.241
G1 Y202.741
G0 X53.275Y202.741
G1 Y205.241
G0 X52.275Y205.241
G1 Y202.741
G0 X51.263Y205.267
G1 X351.263
G1 Y195.267
G1 X51.263
G1 Y205.267
G0 X206.263Y300.267
G1 Y100.267
G1 X196.263
G1 Y300.267
G1 X206.263
G0 X201.661Y110.388
G1 X196.263
G0 X196.262Y109.388
G1 X198.763
G0 X198.763Y108.388
G1 X196.262
G0 X196.262Y107.388
G1 X198.763
G0 X198.763Y106.388
G1 X196.262
G0 X196.263Y105.388
G1 X201.661
G0 X198.763Y104.388
G1 X196.262
G0 X196.262Y103.388
G1 X198.763
G0 X198.763Y102.388
G1 X196.262
G0 X196.262Y101.388
G1 X198.763
; Scan @ 100 mm/sec, 50% power
M8
G0 X258.386Y54.99
; Layer C16
G91
G1 X2.5F6000S0
G1 X0.39S500
G1 X4.286S0
G1 X0.499S500
G1 X4.256S0
G1 X0.387S500
G1 X6.829S0
G1 X0.852S500
G1 X8.322S0
G1 X0.901S500
G1 X3.48S0
G1 X0.412S500
G1 X5.384S0
G1 X0.406S500
G1 X4.365S0
G1 X0.38S500
G1 X11.14S0
G1 X0.746S500
G1 X4.152S0
G1 X0.344S500
G1 X5.631S0
G1 X0.687S500
G1 X3.503S0
G1 X0.381S500
G1 X2.5S0
G1 X0.299Y0.1
G1 X-2.5
G1 X-0.975S500
G1 X-2.628S0
G1 X-1.831S500
G1 X-4.778S0
G1 X-0.89S500
G1 X-3.237S0
G1 X-1.987S500
G1 X-10.22S0
G1 X-1.064S500
G1 X-3.696S0
G1 X-1.061S500
G1 X-4.721S0
G1 X-1.075S500
G1 X-2.473S0
G1 X-2.208S500
G1 X-6.979S0
G1 X-2.264S500
G1 X-5.803S0
G1 X-1.021S500
G1 X-3.595S0
G1 X-1.207S500
G1 X-3.61S0
G1 X-1.023S500
G1 X-2.5S0
G1 X-0.162Y0.1
G1 X2.5
G1 X1.348S500
G1 X3.271S0
G1 X1.564S500
G1 X3.254S0
G1 X1.345S500
G1 X5.25S0
G1 X3.047S500
G1 X6.277S0
G1 X2.857S500
G1 X1.971S0
G1 X1.4S500
G1 X4.396S0
G1 X1.385S500
G1 X3.358S0
G1 X1.412S500
G1 X9.732S0
G1 X2.669S500
G1 X2.719S0
G1 X1.204S500
G1 X4.298S0
G1 X2.462S500
G1 X2.159S0
G1 X1.286S500
G1 X2.5S0
G1 X0.113Y0.1
G1 X-2.5
G1 X-1.509S500
G1 X-1.809S0
G1 X-2.937S500
G1 X-3.94S0
G1 X-1.446S500
G1 X-2.316S0
G1 X-3.181S500
G1 X-9.393S0
G1 X-1.634S500
G1 X-3.137S0
G1 X-1.6S500
G1 X-4.183S0
G1 X-1.613S500
G1 X-1.633S0
G1 X-3.286S500
G1 X-5.783S0
G1 X-3.637S500
G1 X-4.847S0
G1 X-1.567S500
G1 X-3.015S0
G1 X-1.824S500
G1 X-3.028S0
G1 X-1.571S500
G1 X-2.5S0
G1 X-0.082Y0.1
G1 X2.5
G1 X1.734S500
G1 X2.841S0
G1 X2.03S500
G1 X2.833S0
G1 X1.73S500
G1 X4.54S0
G1 X4.091S500
G1 X5.401S0
G1 X3.602S500
G1 X1.397S0
G1 X1.768S500
G1 X4.028S0
G1 X1.756S500
G1 X2.96S0
G1 X1.826S500
G1 X9.114S0
G1 X3.579S500
G1 X2.003S0
G1 X1.641S500
G1 X3.651S0
G1 X3.327S500
G1 X1.532S0
G1 X1.661S500
G1 X2.5S0
G1 X0.068Y0.1
G1 X-2.5
G1 X-1.8S500
G1 X-1.287S0
G1 X-3.677S500
G1 X-3.404S0
G1 X-1.806S500
G1 X-1.701S0
G1 X-3.952S500
G1 X-8.878S0
G1 X-1.967S500
G1 X-2.82S0
G1 X-1.889S500
G1 X-3.897S0
G1 X-1.899S500
G1 X-1.216S0
G1 X-3.848S500
G1 X-5.058S0
G1 X-4.521S500
G1 X-4.255S0
G1 X-1.871S500
G1 X-2.679S0
G1 X-2.198S500
G1 X-2.686S0
G1 X-1.875S500
G1 X-2.5S0
G1 X-0.047Y0.1
G1 X2.5
G1 X1.97S500
G1 X2.571S0
G1 X2.34S500
G1 X2.556S0
G1 X1.967S500
G1 X4.039S0
G1 X4.86S500
G1 X4.786S0
G1 X4.045S500
G1 X1.078S0
G1 X1.989S500
G1 X3.807S0
G1 X1.979S500
G1 X2.71S0
G1 X2.093S500
G1 X8.683S0
G1 X4.262S500
G1 X1.441S0
G1 X1.944S500
G1 X3.204S0
G1 X3.967S500
G1 X1.096S0
G1 X1.886S500
G1 X2.5S0
G1 X0.042Y0.1
G1 X-2.5
G1 X-1.97S500
G1 X-0.921S0
G1 X-4.237S500
G1 X-3.029S0
G1 X-2.063S500
G1 X-1.181S0
G1 X-4.566S500
G1 X-8.515S0
G1 X-2.177S500
G1 X-2.628S0
G1 X-2.057S500
G1 X-3.73S0
G1 X-2.066S500
G1 X-0.979S0
G1 X-4.196S500
G1 X-4.526S0
G1 X-5.199S500
G1 X-3.831S0
G1 X-2.048S500
G1 X-2.455S0
G1 X-2.457S500
G1 X-2.474S0
G1 X-2.051S500
G1 X-2.5S0
G1 X-0.032Y0.1
G1 X2.5
G1 X2.117S500
G1 X2.392S0
G1 X2.554S500
G1 X2.372S0
G1 X2.116S500
G1 X3.658S0
G1 X5.475S500
G1 X4.312S0
G1 X4.323S500
G1 X0.901S0
G1 X2.127S500
G1 X3.668S0
G1 X2.119S500
G1 X2.553S0
G1 X2.261S500
G1 X8.369S0
G1 X4.824S500
G1 X0.954S0
G1 X2.155S500
G1 X2.89S0
G1 X4.475S500
G1 X0.776S0
G1 X2.02S500
G1 X2.5S0
G1 X0.021Y0.1
G1 X-2.5
G1 X-2.063S500
G1 X-0.635S0
G1 X-4.704S500
G1 X-2.768S0
G1 X-2.238S500
G1 X-0.728S0
G1 X-5.073S500
G1 X-8.247S0
G1 X-2.315S500
G1 X-2.506S0
G1 X-2.158S500
G1 X-3.629S0
G1 X-2.167S500
G1 X-0.85S0
G1 X-4.414S500
G1 X-4.118S0
G1 X-5.744S500
G1 X-3.504S0
G1 X-2.157S500
G1 X-2.309S0
G1 X-2.644S500
G1 X-2.324S0
G1 X-2.158S500
G1 X-2.5S0
G1 X-0.021Y0.1
G1 X2.5
G1 X2.2S500
G1 X2.262S0
G1 X2.718S500
G1 X2.255S0
G1 X2.199S500
G1 X3.356S0
G1 X5.996S500
G1 X3.934S0
G1 X4.488S500
G1 X0.816S0
G1 X2.206S500
G1 X3.59S0
G1 X2.198S500
G1 X2.464S0
G1 X2.358S500
G1 X8.136S0
G1 X5.308S500
G1 X0.513S0
G1 X2.297S500
G1 X2.669S0
G1 X4.932S500
G1 X0.497S0
G1 X2.099S500
G1 X2.5S0
G1 X0.006Y0.1
G1 X-2.5
G1 X-2.112S500
G1 X-0.389S0
G1 X-5.122S500
G1 X-2.597S0
G1 X-2.345S500
G1 X-0.312S0
G1 X-5.515S500
G1 X-8.043S0
G1 X-2.401S500
G1 X-2.431S0
G1 X-2.22S500
G1 X-3.568S0
G1 X-2.228S500
G1 X-0.792S0
G1 X-4.544S500
G1 X-3.784S0
G1 X-6.212S500
G1 X-3.235S0
G1 X-2.225S500
G1 X-2.209S0
G1 X-2.785S500
G1 X-2.215S0
G1 X-2.225S500
G1 X-2.5S0
G1 X-0.006Y0.1
G1 X2.5
G1 X2.237S500
G1 X2.176S0
G1 X2.847S500
G1 X2.174S0
G1 X2.237S500
G1 X3.121S0
G1 X6.428S500
G1 X3.64S0
G1 X4.573S500
G1 X0.794S0
G1 X2.239S500
G1 X3.557S0
G1 X2.231S500
G1 X2.415S0
G1 X2.422S500
G1 X7.961S0
G1 X5.722S500
G1 X0.112S0
G1 X2.388S500
G1 X2.53S0
G1 X5.306S500
G1 X0.287S0
G1 X2.124S500
G1 X2.5S0
G1 X0.004Y0.1
G1 X-2.5
G1 X-2.133S500
G1 X-0.187S0
G1 X-5.488S500
G1 X-2.468S0
G1 X-8.259S500
G1 X-7.893S0
G1 X-2.434S500
G1 X-2.403S0
G1 X-2.243S500
G1 X-3.545S0
G1 X-2.251S500
G1 X-0.805S0
G1 X-4.593S500
G1 X-3.505S0
G1 X-6.625S500
G1 X-3.017S0
G1 X-2.248S500
G1 X-2.139S0
G1 X-2.909S500
G1 X-2.137S0
G1 X-2.249S500
G1 X-2.5S0
G1 X-0.004Y0.1
G1 X2.5
G1 X2.257S500
G1 X2.107S0
G1 X2.964S500
G1 X2.106S0
G1 X2.257S500
G1 X2.924S0
G1 X6.8S500
G1 X3.393S0
G1 X4.589S500
G1 X0.831S0
G1 X2.257S500
G1 X3.539S0
G1 X2.249S500
G1 X2.394S0
G1 X2.447S500
G1 X7.834S0
G1 X8.285S500
G1 X2.421S0
G1 X5.657S500
G1 X0.091S0
G1 X2.133S500
G1 X2.5S0
G1 Y0.1
G1 X-2.5
G1 X-7.952S500
G1 X-2.377S0
G1 X-4.43S500
G1 X-0.797S0
G1 X-3.083S500
G1 X-7.777S0
G1 X-2.456S500
G1 X-2.39S0
G1 X-2.249S500
G1 X-3.539S0
G1 X-2.257S500
G1 X-0.883S0
G1 X-4.559S500
G1 X-3.284S0
G1 X-6.974S500
G1 X-2.837S0
G1 X-2.257S500
G1 X-2.079S0
G1 X-3.018S500
G1 X-2.08S0
G1 X-2.257S500
G1 X-2.5S0
G1 Y0.1
G1 X2.5
G1 X2.257S500
G1 X2.054S0
G1 X3.071S500
G1 X2.052S0
G1 X2.257S500
G1 X2.752S0
G1 X7.141S500
G1 X3.18S0
G1 X4.508S500
G1 X0.956S0
G1 X2.257S500
G1 X3.539S0
G1 X2.249S500
G1 X2.39S0
G1 X2.456S500
G1 X7.732S0
G1 X2.818S500
G1 X1.525S0
G1 X3.983S500
G1 X2.335S0
G1 X8.023S500
G1 X2.5S0
G1 Y0.1
G1 X-2.5
G1 X-8.086S500
G1 X-2.301S0
G1 X-3.7S500
G1 X-1.964S0
G1 X-2.668S500
G1 X-7.697S0
G1 X-2.456S500
G1 X-2.39S0
G1 X-2.249S500
G1 X-3.539S0
G1 X-2.257S500
G1 X-1.056S0
G1 X-4.426S500
G1 X-3.092S0
G1 X-3.229S500
G1 X-0.832S0
G1 X-3.22S500
G1 X-2.682S0
G1 X-2.257S500
G1 X-2.025S0
G1 X-3.125S500
G1 X-2.027S0
G1 X-2.257S500
G1 X-2.5S0
G1 Y0.1
G1 X2.5
G1 X2.257S500
G1 X2S0
G1 X3.178S500
G1 X1.999S0
G1 X2.257S500
G1 X2.612S0
G1 X2.931S500
G1 X1.551S0
G1 X2.939S500
G1 X3.008S0
G1 X2.568S500
G1 X0.924S0
G1 X0.798S500
G1 X1.206S0
G1 X2.257S500
G1 X3.539S0
G1 X2.249S500
G1 X2.39S0
G1 X2.456S500
G1 X7.661S0
G1 X2.571S500
G1 X2.297S0
G1 X3.471S500
G1 X2.273S0
G1 X3.195S500
G1 X1.071S0
G1 X3.877S500
G1 X2.5S0
G1 Y0.1
G1 X-2.5
G1 X-3.593S500
G1 X-1.631S0
G1 X-2.976S500
G1 X-2.243S0
G1 X-3.276S500
G1 X-2.564S0
G1 X-2.502S500
G1 X-7.631S0
G1 X-2.456S500
G1 X-2.39S0
G1 X-2.249S500
G1 X-3.539S0
G1 X-2.257S500
G1 X-3.073S0
G1 X-2.436S500
G1 X-2.926S0
G1 X-2.789S500
G1 X-1.992S0
G1 X-2.779S500
G1 X-2.542S0
G1 X-2.257S500
G1 X-1.974S0
G1 X-3.229S500
G1 X-1.974S0
G1 X-2.257S500
G1 X-2.5S0
G1 Y0.1
G1 X2.5
G1 X2.257S500
G1 X1.947S0
G1 X3.282S500
G1 X1.948S0
G1 X2.257S500
G1 X2.482S0
G1 X2.67S500
G1 X2.326S0
G1 X2.682S500
G1 X2.854S0
G1 X2.371S500
G1 X3.152S0
G1 X2.257S500
G1 X3.539S0
G1 X2.249S500
G1 X2.39S0
G1 X2.456S500
G1 X7.61S0
G1 X2.433S500
G1 X2.787S0
G1 X3.116S500
G1 X2.213S0
G1 X2.846S500
G1 X2.006S0
G1 X3.405S500
G1 X2.5S0
G1 Y0.1
G1 X-2.5
G1 X-3.252S500
G1 X-2.314S0
G1 X-2.737S500
G1 X-2.194S0
G1 X-2.965S500
G1 X-2.973S0
G1 X-2.392S500
G1 X-7.589S0
G1 X-2.456S500
G1 X-2.39S0
G1 X-2.249S500
G1 X-3.539S0
G1 X-2.257S500
G1 X-3.205S0
G1 X-2.328S500
G1 X-2.789S0
G1 X-2.599S500
G1 X-2.591S0
G1 X-2.599S500
G1 X-2.426S0
G1 X-2.257S500
G1 X-1.922S0
G1 X-3.333S500
G1 X-1.922S0
G1 X-2.257S500
G1 X-2.5S0
G1 Y0.1
G1 X2.5
G1 X2.257S500
G1 X1.897S0
G1 X3.383S500
G1 X1.897S0
G1 X2.257S500
G1 X2.371S0
G1 X2.533S500
G1 X2.821S0
G1 X2.546S500
G1 X2.726S0
G1 X2.299S500
G1 X3.241S0
G1 X2.257S500
G1 X3.539S0
G1 X2.249S500
G1 X2.39S0
G1 X2.456S500
G1 X7.57S0
G1 X2.353S500
G1 X3.126S0
G1 X2.848S500
G1 X2.171S0
G1 X2.654S500
G1 X2.575S0
G1 X3.119S500
G1 X2.5S0
G1 Y0.1
G1 X-2.5
G1 X-3.018S500
G1 X-2.782S0
G1 X-2.593S500
G1 X-2.146S0
G1 X-2.736S500
G1 X-3.256S0
G1 X-2.322S500
G1 X-7.563S0
G1 X-2.456S500
G1 X-2.39S0
G1 X-2.249S500
G1 X-3.539S0
G1 X-2.257S500
G1 X-3.265S0
G1 X-2.283S500
G1 X-2.663S0
G1 X-2.502S500
G1 X-3.011S0
G1 X-2.497S500
G1 X-2.316S0
G1 X-2.257S500
G1 X-1.872S0
G1 X-3.433S500
G1 X-1.872S0
G1 X-2.257S500
G1 X-2.5S0
G1 Y0.1
G1 X2.5
G1 X2.257S500
G1 X1.846S0
G1 X3.484S500
G1 X1.847S0
G1 X2.257S500
G1 X2.272S0
G1 X2.453S500
G1 X3.187S0
G1 X2.456S500
G1 X2.614S0
G1 X2.274S500
G1 X3.281S0
G1 X2.257S500
G1 X3.539S0
G1 X2.249S500
G1 X2.39S0
G1 X2.456S500
G1 X7.557S0
G1 X2.296S500
G1 X3.356S0
G1 X2.648S500
G1 X2.122S0
G1 X2.544S500
G1 X2.971S0
G1 X2.922S500
G1 X2.5S0
G1 Y0.1
G1 X-2.5
G1 X-2.844S500
G1 X-3.133S0
G1 X-2.495S500
G1 X-2.104S0
G1 X-2.562S500
G1 X-3.445S0
G1 X-2.283S500
G1 X-7.55S0
G1 X-2.456S500
G1 X-2.39S0
G1 X-2.249S500
G1 X-3.539S0
G1 X-2.257S500
G1 X-3.292S0
G1 X-2.27S500
G1 X-2.564S0
G1 X-2.423S500
G1 X-3.338S0
G1 X-2.421S500
G1 X-2.229S0
G1 X-2.257S500
G1 X-1.822S0
G1 X-3.534S500
G1 X-1.821S0
G1 X-2.257S500
G1 X-2.5S0
G1 Y0.1
G1 X2.5
G1 X2.257S500
G1 X1.796S0
G1 X3.584S500
G1 X1.797S0
G1 X2.257S500
G1 X2.186S0
G1 X2.399S500
G1 X3.473S0
G1 X2.395S500
G1 X2.52S0
G1 X2.265S500
G1 X3.299S0
G1 X2.257S500
G1 X3.539S0
G1 X2.249S500
G1 X2.39S0
G1 X2.456S500
G1 X7.554S0
G1 X2.269S500
G1 X3.503S0
G1 X2.502S500
G1 X2.081S0
G1 X2.46S500
G1 X3.275S0
G1 X2.772S500
G1 X2.5S0
G1 Y0.1
G1 X-2.5
G1 X-2.703S500
G1 X-3.413S0
G1 X-2.426S500
G1 X-2.058S0
G1 X-2.445S500
G1 X-3.557S0
G1 X-2.252S500
G1 X-7.562S0
G1 X-2.456S500
G1 X-2.39S0
G1 X-2.249S500
G1 X-3.539S0
G1 X-2.257S500
G1 X-3.305S0
G1 X-2.261S500
G1 X-2.475S0
G1 X-2.377S500
G1 X-3.6S0
G1 X-2.375S500
G1 X-2.144S0
G1 X-2.257S500
G1 X-1.771S0
G1 X-3.635S500
G1 X-1.771S0
G1 X-2.257S500
G1 X-2.5S0
G1 Y0.1
G1 X2.5
G1 X2.257S500
G1 X1.746S0
G1 X3.685S500
G1 X1.746S0
G1 X2.257S500
G1 X2.11S0
G1 X2.359S500
G1 X3.706S0
G1 X2.353S500
G1 X2.441S0
G1 X2.259S500
G1 X3.309S0
G1 X2.257S500
G1 X3.539S0
G1 X2.249S500
G1 X2.39S0
G1 X2.456S500
G1 X7.571S0
G1 X2.252S500
G1 X3.593S0
G1 X2.389S500
G1 X2.034S0
G1 X2.406S500
G1 X3.521S0
G1 X2.65S500
G1 X2.5S0
G1 Y0.1
G1 X-2.5
G1 X-2.597S500
G1 X-3.626S0
G1 X-2.38S500
G1 X-2.013S0
G1 X-2.357S500
G1 X-3.611S0
G1 X-2.253S500
G1 X-7.579S0
G1 X-2.456S500
G1 X-2.39S0
G1 X-2.249S500
G1 X-3.539S0
G1 X-2.257S500
G1 X-3.312S0
G1 X-2.258S500
G1 X-2.407S0
G1 X-2.334S500
G1 X-3.805S0
G1 X-2.342S500
G1 X-2.079S0
G1 X-2.257S500
G1 X-1.721S0
G1 X-3.735S500
G1 X-1.721S0
G1 X-2.257S500
G1 X-2.5S0
G1 Y0.1
G1 X2.5
G1 X2.257S500
G1 X1.695S0
G1 X3.786S500
G1 X1.696S0
G1 X2.257S500
G1 X2.047S0
G1 X2.326S500
G1 X3.897S0
G1 X2.322S500
G1 X2.372S0
G1 X2.26S500
G1 X3.313S0
G1 X2.257S500
G1 X3.539S0
G1 X2.249S500
G1 X2.39S0
G1 X2.456S500
G1 X7.592S0
G1 X2.264S500
G1 X3.612S0
G1 X2.328S500
G1 X1.991S0
G1 X2.355S500
G1 X3.728S0
G1 X2.546S500
G1 X2.5S0
G1 Y0.1
G1 X-2.5
G1 X-2.508S500
G1 X-3.807S0
G1 X-2.34S500
G1 X-1.969S0
G1 X-2.299S500
G1 X-3.607S0
G1 X-2.268S500
G1 X-7.618S0
G1 X-2.456S500
G1 X-2.39S0
G1 X-2.249S500
G1 X-3.539S0
G1 X-2.257S500
G1 X-3.314S0
G1 X-2.259S500
G1 X-2.341S0
G1 X-2.31S500
G1 X-3.977S0
G1 X-2.32S500
G1 X-2.016S0
G1 X-2.257S500
G1 X-1.671S0
G1 X-3.836S500
G1 X-1.67S0
G1 X-2.257S500
G1 X-2.5S0
G1 Y0.1
G1 X2.5
G1 X2.257S500
G1 X1.645S0
G1 X3.886S500
G1 X1.646S0
G1 X2.257S500
G1 X1.99S0
G1 X2.312S500
G1 X4.044S0
G1 X2.303S500
G1 X2.315S0
G1 X2.258S500
G1 X3.315S0
G1 X2.257S500
G1 X3.539S0
G1 X2.249S500
G1 X2.39S0
G1 X2.456S500
G1 X7.645S0
G1 X2.288S500
G1 X3.584S0
G1 X2.275S500
G1 X1.943S0
G1 X2.329S500
G1 X3.882S0
G1 X2.47S500
G1 X2.5S0
G1 Y0.1
G1 X-2.5
G1 X-2.433S500
G1 X-3.955S0
G1 X-2.315S500
G1 X-1.919S0
G1 X-2.265S500
G1 X-3.538S0
G1 X-2.319S500
G1 X-7.672S0
G1 X-2.456S500
G1 X-2.39S0
G1 X-2.249S500
G1 X-3.539S0
G1 X-2.257S500
G1 X-3.315S0
G1 X-2.258S500
G1 X-2.293S0
G1 X-2.292S500
G1 X-4.111S0
G1 X-2.299S500
G1 X-1.969S0
G1 X-2.257S500
G1 X-1.621S0
G1 X-3.936S500
G1 X-1.62S0
G1 X-2.257S500
G1 X-2.5S0
G1 Y0.1
G1 X2.5
G1 X2.257S500
G1 X1.595S0
G1 X3.987S500
G1 X1.595S0
G1 X2.257S500
G1 X1.947S0
G1 X2.29S500
G1 X4.171S0
G1 X2.285S500
G1 X2.271S0
G1 X2.258S500
G1 X3.315S0
G1 X2.257S500
G1 X3.539S0
G1 X2.249S500
G1 X2.39S0
G1 X2.456S500
G1 X7.701S0
G1 X2.379S500
G1 X3.462S0
G1 X2.253S500
G1 X1.901S0
G1 X2.299S500
G1 X4.016S0
G1 X2.405S500
G1 X2.5S0
G1 Y0.1
G1 X-2.5
G1 X-2.381S500
G1 X-4.064S0
G1 X-2.293S500
G1 X-1.882S0
G1 X-2.242S500
G1 X-3.367S0
G1 X-2.437S500
G1 X-7.75S0
G1 X-2.456S500
G1 X-2.39S0
G1 X-2.249S500
G1 X-3.539S0
G1 X-2.257S500
G1 X-3.315S0
G1 X-2.258S500
G1 X-2.25S0
G1 X-2.282S500
G1 X-4.218S0
G1 X-2.288S500
G1 X-1.926S0
G1 X-2.257S500
G1 X-1.57S0
G1 X-4.037S500
G1 X-1.57S0
G1 X-2.257S500
G1 X-2.5S0
G1 Y0.1
G1 X2.5
G1 X2.257S500
G1 X1.544S0
G1 X4.088S500
G1 X1.545S0
G1 X2.257S500
G1 X1.904S0
G1 X2.288S500
G1 X4.264S0
G1 X2.28S500
G1 X2.228S0
G1 X2.258S500
G1 X3.315S0
G1 X2.257S500
G1 X3.539S0
G1 X2.249S500
G1 X2.39S0
G1 X2.456S500
G1 X7.798S0
G1 X2.523S500
G1 X3.246S0
G1 X2.23S500
G1 X1.863S0
G1 X2.288S500
G1 X4.112S0
G1 X2.356S500
G1 X2.5S0
G1 Y0.1
G1 X-2.5
G1 X-2.332S500
G1 X-4.16S0
G1 X-2.282S500
G1 X-1.844S0
G1 X-2.223S500
G1 X-3.09S0
G1 X-2.638S500
G1 X-7.847S0
G1 X-2.456S500
G1 X-2.39S0
G1 X-2.249S500
G1 X-3.539S0
G1 X-2.257S500
G1 X-3.315S0
G1 X-2.258S500
G1 X-2.216S0
G1 X-2.273S500
G1 X-4.306S0
G1 X-2.277S500
G1 X-1.892S0
G1 X-2.257S500
G1 X-1.52S0
G1 X-4.138S500
G1 X-1.519S0
G1 X-2.257S500
G1 X-2.5S0
G1 Y0.1
G1 X2.5
G1 X2.257S500
G1 X1.494S0
G1 X4.188S500
G1 X1.495S0
G1 X2.257S500
G1 X1.88S0
G1 X2.273S500
G1 X4.338S0
G1 X2.27S500
G1 X2.203S0
G1 X2.258S500
G1 X3.315S0
G1 X2.257S500
G1 X3.539S0
G1 X2.249S500
G1 X2.39S0
G1 X2.456S500
G1 X7.905S0
G1 X2.813S500
G1 X2.86S0
G1 X2.221S500
G1 X1.833S0
G1 X2.274S500
G1 X4.192S0
G1 X2.318S500
G1 X2.5S0
G1 Y0.1
G1 X-2.5
G1 X-2.305S500
G1 X-4.218S0
G1 X-2.271S500
G1 X-1.822S0
G1 X-2.218S500
G1 X-2.498S0
G1 X-3.104S500
G1 X-7.98S0
G1 X-2.456S500
G1 X-2.39S0
G1 X-2.249S500
G1 X-3.539S0
G1 X-2.257S500
G1 X-3.315S0
G1 X-2.258S500
G1 X-2.191S0
G1 X-2.266S500
G1 X-4.367S0
G1 X-2.272S500
G1 X-1.868S0
G1 X-2.257S500
G1 X-1.47S0
G1 X-4.238S500
G1 X-1.469S0
G1 X-2.257S500
G1 X-2.5S0
G1 Y0.1
G1 X2.5
G1 X2.257S500
G1 X1.444S0
G1 X4.289S500
G1 X1.444S0
G1 X2.257S500
G1 X1.856S0
G1 X2.271S500
G1 X4.391S0
G1 X2.268S500
G1 X2.178S0
G1 X2.258S500
G1 X3.315S0
G1 X2.257S500
G1 X3.539S0
G1 X2.249S500
G1 X2.39S0
G1 X2.456S500
G1 X8.054S0
G1 X3.467S500
G1 X2.064S0
G1 X2.216S500
G1 X1.811S0
G1 X2.268S500
G1 X4.244S0
G1 X2.292S500
G1 X2.5S0
G1 Y0.1
G1 X-2.5
G1 X-2.279S500
G1 X-4.27S0
G1 X-2.266S500
G1 X-1.799S0
G1 X-2.213S500
G1 X-1.612S0
G1 X-3.848S500
G1 X-8.129S0
G1 X-2.456S500
G1 X-2.39S0
G1 X-2.249S500
G1 X-3.539S0
G1 X-2.257S500
G1 X-3.315S0
G1 X-2.258S500
G1 X-2.168S0
G1 X-2.269S500
G1 X-4.412S0
G1 X-2.27S500
G1 X-1.845S0
G1 X-2.257S500
G1 X-1.419S0
G1 X-2.157S500
G1 X-0.026S0
G1 X-2.156S500
G1 X-1.419S0
G1 X-2.257S500
G1 X-2.5S0
G1 Y0.1
G1 X2.5
G1 X2.257S500
G1 X1.393S0
G1 X2.156S500
G1 X0.079S0
G1 X2.155S500
G1 X1.394S0
G1 X2.257S500
G1 X1.842S0
G1 X2.265S500
G1 X4.429S0
G1 X2.264S500
G1 X2.164S0
G1 X2.258S500
G1 X3.315S0
G1 X2.257S500
G1 X3.539S0
G1 X2.249S500
G1 X2.39S0
G1 X2.456S500
G1 X8.233S0
G1 X4.196S500
G1 X1.163S0
G1 X2.211S500
G1 X1.79S0
G1 X2.266S500
G1 X4.285S0
G1 X2.272S500
G1 X2.5S0
G1 Y0.1
G1 X-2.5
G1 X-2.268S500
G1 X-4.293S0
G1 X-2.265S500
G1 X-1.786S0
G1 X-2.212S500
G1 X-0.747S0
G1 X-4.504S500
G1 X-8.341S0
G1 X-2.456S500
G1 X-2.39S0
G1 X-2.249S500
G1 X-3.539S0
G1 X-2.257S500
G1 X-3.315S0
G1 X-2.258S500
G1 X-2.16S0
G1 X-2.263S500
G1 X-4.438S0
G1 X-2.265S500
G1 X-1.838S0
G1 X-2.257S500
G1 X-1.369S0
G1 X-2.154S500
G1 X-0.132S0
G1 X-2.154S500
G1 X-1.368S0
G1 X-2.257S500
G1 X-2.5S0
G1 Y0.1
G1 X2.5
G1 X2.257S500
G1 X1.343S0
G1 X2.153S500
G1 X0.185S0
G1 X2.152S500
G1 X1.344S0
G1 X2.257S500
G1 X1.834S0
G1 X2.265S500
G1 X4.445S0
G1 X2.264S500
G1 X2.156S0
G1 X2.258S500
G1 X3.315S0
G1 X2.258S500
G1 X3.538S0
G1 X2.249S500
G1 X2.39S0
G1 X2.456S500
G1 X8.448S0
G1 X4.765S500
G1 X0.379S0
G1 X2.212S500
G1 X1.782S0
G1 X2.265S500
G1 X4.301S0
G1 X2.264S500
G1 X2.5S0
G1 Y0.1
G1 X-2.5
G1 X-2.26S500
G1 X-4.309S0
G1 X-2.264S500
G1 X-1.778S0
G1 X-2.213S500
G1 X-0.065S0
G1 X-4.93S500
G1 X-8.597S0
G1 X-2.456S500
G1 X-2.39S0
G1 X-2.249S500
G1 X-3.537S0
G1 X-2.259S500
G1 X-3.315S0
G1 X-2.258S500
G1 X-2.152S0
G1 X-2.265S500
G1 X-4.452S0
G1 X-2.265S500
G1 X-1.83S0
G1 X-2.257S500
G1 X-1.319S0
G1 X-2.151S500
G1 X-0.238S0
G1 X-2.151S500
G1 X-1.318S0
G1 X-2.257S500
G1 X-2.5S0
G1 Y0.1
G1 X2.5
G1 X2.257S500
G1 X1.293S0
G1 X2.15S500
G1 X0.291S0
G1 X2.15S500
G1 X1.293S0
G1 X2.257S500
G1 X1.828S0
G1 X2.266S500
G1 X4.454S0
G1 X2.266S500
G1 X2.15S0
G1 X2.258S500
G1 X3.315S0
G1 X2.26S500
G1 X3.536S0
G1 X2.249S500
G1 X2.39S0
G1 X2.456S500
G1 X8.749S0
G1 X7.056S500
G1 X1.775S0
G1 X2.264S500
G1 X4.315S0
G1 X2.257S500
G1 X2.5S0
G1 Y0.1
G1 X-2.5
G1 X-2.262S500
G1 X-4.306S0
G1 X-2.269S500
G1 X-1.774S0
G1 X-6.87S500
G1 X-8.935S0
G1 X-2.456S500
G1 X-2.39S0
G1 X-2.249S500
G1 X-3.534S0
G1 X-2.262S500
G1 X-3.315S0
G1 X-2.258S500
G1 X-2.154S0
G1 X-2.264S500
G1 X-4.448S0
G1 X-2.266S500
G1 X-1.832S0
G1 X-2.257S500
G1 X-1.268S0
G1 X-2.149S500
G1 X-0.344S0
G1 X-2.148S500
G1 X-1.268S0
G1 X-2.257S500
G1 X-2.5S0
G1 Y0.1
G1 X2.5
G1 X2.257S500
G1 X1.243S0
G1 X2.146S500
G1 X0.398S0
G1 X2.147S500
G1 X1.243S0
G1 X2.257S500
G1 X1.836S0
G1 X2.266S500
G1 X4.441S0
G1 X2.263S500
G1 X2.158S0
G1 X2.258S500
G1 X3.315S0
G1 X2.265S500
G1 X3.531S0
G1 X2.249S500
G1 X2.39S0
G1 X2.456S500
G1 X9.159S0
G1 X6.647S500
G1 X1.776S0
G1 X2.27S500
G1 X4.298S0
G1 X2.266S500
G1 X2.5S0
G1 Y0.1
G1 X-2.5
G1 X-2.27S500
G1 X-4.29S0
G1 X-2.271S500
G1 X-1.779S0
G1 X-6.355S500
G1 X-9.451S0
G1 X-2.456S500
G1 X-2.39S0
G1 X-2.249S500
G1 X-3.528S0
G1 X-2.268S500
G1 X-3.315S0
G1 X-2.258S500
G1 X-2.162S0
G1 X-2.262S500
G1 X-4.434S0
G1 X-2.266S500
G1 X-1.84S0
G1 X-2.257S500
G1 X-1.218S0
G1 X-2.145S500
G1 X-0.451S0
G1 X-2.146S500
G1 X-1.217S0
G1 X-2.257S500
G1 X-2.5S0
G1 Y0.1
G1 X2.5
G1 X2.257S500
G1 X1.192S0
G1 X2.144S500
G1 X0.504S0
G1 X2.144S500
G1 X1.193S0
G1 X2.257S500
G1 X1.844S0
G1 X2.266S500
G1 X4.421S0
G1 X2.267S500
G1 X2.166S0
G1 X2.258S500
G1 X3.315S0
G1 X2.272S500
G1 X3.524S0
G1 X2.249S500
G1 X2.39S0
G1 X5.953S500
G1 X6.32S0
G1 X5.989S500
G1 X1.782S0
G1 X2.272S500
G1 X4.282S0
G1 X2.274S500
G1 X2.5S0
G1 Y0.1
G1 X-2.5
G1 X-2.286S500
G1 X-4.258S0
G1 X-2.281S500
G1 X-1.785S0
G1 X-5.517S500
G1 X-6.271S0
G1 X-6.474S500
G1 X-2.39S0
G1 X-2.249S500
G1 X-3.518S0
G1 X-2.278S500
G1 X-3.315S0
G1 X-2.258S500
G1 X-2.172S0
G1 X-2.27S500
G1 X-4.4S0
G1 X-2.272S500
G1 X-1.85S0
G1 X-2.257S500
G1 X-1.168S0
G1 X-2.142S500
G1 X-0.557S0
G1 X-2.143S500
G1 X-1.167S0
G1 X-2.257S500
G1 X-2.5S0
G1 Y0.1
G1 X2.5
G1 X2.257S500
G1 X1.142S0
G1 X2.141S500
G1 X0.61S0
G1 X2.142S500
G1 X1.142S0
G1 X2.257S500
G1 X1.862S0
G1 X2.272S500
G1 X4.379S0
G1 X2.266S500
G1 X2.185S0
G1 X2.258S500
G1 X3.315S0
G1 X2.283S500
G1 X3.512S0
G1 X2.25S500
G1 X2.39S0
G1 X6.836S500
G1 X6.392S0
G1 X5.035S500
G1 X1.789S0
G1 X2.288S500
G1 X4.233S0
G1 X2.299S500
G1 X2.5S0
G1 Y0.1
G1 X-2.5
G1 X-2.313S500
G1 X-4.206S0
G1 X-2.291S500
G1 X-1.799S0
G1 X-4.551S500
G1 X-6.585S0
G1 X-7.127S500
G1 X-2.39S0
G1 X-2.254S500
G1 X-3.499S0
G1 X-2.292S500
G1 X-3.315S0
G1 X-2.258S500
G1 X-2.197S0
G1 X-2.268S500
G1 X-4.352S0
G1 X-2.272S500
G1 X-1.875S0
G1 X-2.257S500
G1 X-1.117S0
G1 X-2.14S500
G1 X-0.663S0
G1 X-2.14S500
G1 X-1.117S0
G1 X-2.257S500
G1 X-2.5S0
G1 Y0.1
G1 X2.5
G1 X2.257S500
G1 X1.092S0
G1 X2.138S500
G1 X0.716S0
G1 X2.139S500
G1 X1.092S0
G1 X2.257S500
G1 X1.887S0
G1 X2.273S500
G1 X4.323S0
G1 X2.272S500
G1 X2.209S0
G1 X2.258S500
G1 X3.315S0
G1 X2.3S500
G1 X3.487S0
G1 X2.258S500
G1 X2.39S0
G1 X7.354S500
G1 X6.821S0
G1 X4.088S500
G1 X1.809S0
G1 X2.294S500
G1 X4.179S0
G1 X2.327S500
G1 X2.5S0
G1 Y0.1
G1 X-2.5
G1 X-2.348S500
G1 X-4.136S0
G1 X-2.306S500
G1 X-1.818S0
G1 X-3.649S500
G1 X-7.062S0
G1 X-7.553S500
G1 X-2.39S0
G1 X-2.262S500
G1 X-3.472S0
G1 X-2.311S500
G1 X-3.315S0
G1 X-2.258S500
G1 X-2.221S0
G1 X-2.276S500
G1 X-4.285S0
G1 X-2.283S500
G1 X-1.899S0
G1 X-2.257S500
G1 X-1.067S0
G1 X-2.137S500
G1 X-0.769S0
G1 X-2.138S500
G1 X-1.066S0
G1 X-2.257S500
G1 X-2.5S0
G1 Y0.1
G1 X2.5
G1 X2.257S500
G1 X1.041S0
G1 X2.136S500
G1 X0.822S0
G1 X2.136S500
G1 X1.042S0
G1 X2.257S500
G1 X1.916S0
G1 X2.288S500
G1 X4.241S0
G1 X2.281S500
G1 X2.238S0
G1 X2.258S500
G1 X3.315S0
G1 X2.323S500
G1 X3.456S0
G1 X2.266S500
G1 X2.39S0
G1 X7.727S500
G1 X7.293S0
G1 X3.244S500
G1 X1.828S0
G1 X2.319S500
G1 X4.088S0
G1 X2.373S500
G1 X2.5S0
G1 Y0.1
G1 X-2.5
G1 X-2.398S500
G1 X-4.04S0
G1 X-2.329S500
G1 X-1.841S0
G1 X-2.854S500
G1 X-7.531S0
G1 X-7.879S500
G1 X-2.391S0
G1 X-2.271S500
G1 X-3.435S0
G1 X-2.338S500
G1 X-3.315S0
G1 X-2.258S500
G1 X-2.26S0
G1 X-2.283S500
G1 X-4.194S0
G1 X-2.29S500
G1 X-1.937S0
G1 X-2.257S500
G1 X-1.017S0
G1 X-2.134S500
G1 X-0.875S0
G1 X-2.135S500
G1 X-1.016S0
G1 X-2.257S500
G1 X-2.5S0
G1 Y0.1
G1 X2.5
G1 X2.257S500
G1 X0.991S0
G1 X2.133S500
G1 X0.928S0
G1 X2.134S500
G1 X0.991S0
G1 X2.257S500
G1 X1.958S0
G1 X2.293S500
G1 X4.146S0
G1 X2.286S500
G1 X2.281S0
G1 X2.258S500
G1 X3.315S0
G1 X2.354S500
G1 X3.406S0
G1 X2.281S500
G1 X2.394S0
G1 X8.014S500
G1 X7.755S0
G1 X2.491S500
G1 X1.863S0
G1 X2.337S500
G1 X3.989S0
G1 X2.423S500
G1 X2.5S0
G1 Y0.1
G1 X-2.5
G1 X-2.46S500
G1 X-3.918S0
G1 X-2.354S500
G1 X-1.883S0
G1 X-2.211S500
G1 X-4.353S0
G1 X-0.62S500
G1 X-2.934S0
G1 X-8.139S500
G1 X-2.397S0
G1 X-2.292S500
G1 X-3.371S0
G1 X-2.375S500
G1 X-3.315S0
G1 X-2.258S500
G1 X-2.302S0
G1 X-2.298S500
G1 X-4.079S0
G1 X-2.305S500
G1 X-1.98S0
G1 X-2.257S500
G1 X-0.966S0
G1 X-2.132S500
G1 X-0.981S0
G1 X-2.132S500
G1 X-0.966S0
G1 X-2.257S500
G1 X-2.5S0
G1 Y0.1
G1 X2.5
G1 X2.257S500
G1 X0.941S0
G1 X2.13S500
G1 X1.034S0
G1 X2.131S500
G1 X0.941S0
G1 X2.257S500
G1 X2.001S0
G1 X2.319S500
G1 X4.011S0
G1 X2.309S500
G1 X2.324S0
G1 X2.258S500
G1 X3.315S0
G1 X2.398S500
G1 X3.335S0
G1 X2.301S500
G1 X2.401S0
G1 X8.245S500
G1 X2.585S0
G1 X1.046S500
G1 X4.161S0
G1 X2.216S500
G1 X1.905S0
G1 X2.371S500
G1 X3.845S0
G1 X2.498S500
G1 X2.5S0
G1 Y0.1
G1 X-2.5
G1 X-2.536S500
G1 X-3.773S0
G1 X-2.387S500
G1 X-1.927S0
G1 X-2.221S500
G1 X-4.068S0
G1 X-1.266S500
G1 X-2.343S0
G1 X-8.351S500
G1 X-2.404S0
G1 X-2.312S500
G1 X-3.29S0
G1 X-2.429S500
G1 X-3.315S0
G1 X-2.258S500
G1 X-2.355S0
G1 X-2.315S500
G1 X-3.94S0
G1 X-2.322S500
G1 X-2.032S0
G1 X-2.257S500
G1 X-0.916S0
G1 X-2.129S500
G1 X-1.087S0
G1 X-2.13S500
G1 X-0.915S0
G1 X-2.257S500
G1 X-2.5S0
G1 Y0.1
G1 X2.5
G1 X2.257S500
G1 X0.89S0
G1 X2.128S500
G1 X1.14S0
G1 X2.128S500
G1 X0.891S0
G1 X2.257S500
G1 X2.063S0
G1 X2.334S500
G1 X3.853S0
G1 X2.328S500
G1 X2.386S0
G1 X2.258S500
G1 X3.315S0
G1 X2.471S500
G1 X3.225S0
G1 X2.332S500
G1 X2.407S0
G1 X8.437S500
G1 X2.162S0
G1 X1.433S500
G1 X3.987S0
G1 X2.227S500
G1 X1.955S0
G1 X2.408S500
G1 X3.68S0
G1 X2.583S500
G1 X2.5S0
G1 Y0.1
G1 X-2.5
G1 X-2.635S500
G1 X-3.58S0
G1 X-2.43S500
G1 X-1.986S0
G1 X-2.232S500
G1 X-3.907S0
G1 X-1.574S500
G1 X-2.008S0
G1 X-8.52S500
G1 X-2.411S0
G1 X-2.354S500
G1 X-3.151S0
G1 X-2.519S500
G1 X-3.315S0
G1 X-2.258S500
G1 X-2.418S0
G1 X-2.339S500
G1 X-3.762S0
G1 X-2.35S500
G1 X-2.095S0
G1 X-2.257S500
G1 X-0.866S0
G1 X-2.126S500
G1 X-1.193S0
G1 X-2.127S500
G1 X-0.865S0
G1 X-2.257S500
G1 X-2.5S0
G1 Y0.1
G1 X2.5
G1 X2.257S500
G1 X0.84S0
G1 X2.125S500
G1 X1.246S0
G1 X2.125S500
G1 X0.841S0
G1 X2.257S500
G1 X2.126S0
G1 X2.367S500
G1 X3.658S0
G1 X2.364S500
G1 X2.449S0
G1 X2.258S500
G1 X3.315S0
G1 X2.567S500
G1 X3.077S0
G1 X2.368S500
G1 X2.423S0
G1 X8.602S500
G1 X1.872S0
G1 X1.695S500
G1 X3.82S0
G1 X2.24S500
G1 X2.025S0
G1 X2.451S500
G1 X3.48S0
G1 X2.687S500
G1 X2.5S0
G1 Y0.1
G1 X-2.5
G1 X-2.749S500
G1 X-3.357S0
G1 X-2.486S500
G1 X-2.063S0
G1 X-2.248S500
G1 X-3.733S0
G1 X-1.794S500
G1 X-1.776S0
G1 X-8.666S500
G1 X-2.434S0
G1 X-2.383S500
G1 X-2.988S0
G1 X-2.63S500
G1 X-3.315S0
G1 X-2.258S500
G1 X-2.488S0
G1 X-2.381S500
G1 X-3.545S0
G1 X-2.387S500
G1 X-2.163S0
G1 X-2.257S500
G1 X-0.815S0
G1 X-2.124S500
G1 X-1.299S0
G1 X-2.124S500
G1 X-0.815S0
G1 X-2.257S500
G1 X-2.5S0
G1 Y0.1
G1 X2.5
G1 X2.257S500
G1 X0.79S0
G1 X2.122S500
G1 X1.352S0
G1 X2.123S500
G1 X0.79S0
G1 X2.257S500
G1 X2.206S0
G1 X2.41S500
G1 X3.411S0
G1 X2.406S500
G1 X2.531S0
G1 X2.258S500
G1 X3.315S0
G1 X2.696S500
G1 X2.88S0
G1 X2.413S500
G1 X2.446S0
G1 X8.729S500
G1 X1.693S0
G1 X1.879S500
G1 X3.647S0
G1 X2.257S500
G1 X2.107S0
G1 X2.518S500
G1 X3.224S0
G1 X2.818S500
G1 X2.5S0
G1 Y0.1
G1 X-2.5
G1 X-2.888S500
G1 X-3.088S0
G1 X-2.548S500
G1 X-2.156S0
G1 X-2.271S500
G1 X-3.551S0
G1 X-1.958S500
G1 X-1.619S0
G1 X-8.793S500
G1 X-2.457S0
G1 X-2.446S500
G1 X-2.762S0
G1 X-2.77S500
G1 X-3.315S0
G1 X-2.258S500
G1 X-2.573S0
G1 X-2.435S500
G1 X-3.274S0
G1 X-2.434S500
G1 X-2.248S0
G1 X-2.257S500
G1 X-0.765S0
G1 X-2.121S500
G1 X-1.406S0
G1 X-2.121S500
G1 X-0.764S0
G1 X-2.257S500
G1 X-2.5S0
G1 Y0.1
G1 X2.5
G1 X2.257S500
G1 X0.739S0
G1 X2.12S500
G1 X1.458S0
G1 X2.12S500
G1 X0.74S0
G1 X2.257S500
G1 X2.291S0
G1 X2.475S500
G1 X3.106S0
G1 X2.477S500
G1 X2.615S0
G1 X2.258S500
G1 X3.315S0
G1 X2.86S500
G1 X2.628S0
G1 X2.478S500
G1 X2.469S0
G1 X2.456S500
G1 X2.358S0
G1 X4.028S500
G1 X1.574S0
G1 X2.027S500
G1 X3.442S0
G1 X2.295S500
G1 X2.205S0
G1 X2.598S500
G1 X2.911S0
G1 X2.978S500
G1 X2.5S0
G1 Y0.1
G1 X-2.5
G1 X-3.07S500
G1 X-2.732S0
G1 X-2.648S500
G1 X-2.262S0
G1 X-2.312S500
G1 X-3.327S0
G1 X-2.096S500
G1 X-1.536S0
G1 X-3.503S500
G1 X-2.93S0
G1 X-2.456S500
G1 X-2.486S0
G1 X-2.519S500
G1 X-2.476S0
G1 X-2.954S500
G1 X-3.315S0
G1 X-2.258S500
G1 X-2.666S0
G1 X-2.514S500
G1 X-2.928S0
G1 X-2.518S500
G1 X-2.338S0
G1 X-2.257S500
G1 X-0.715S0
G1 X-2.118S500
G1 X-1.512S0
G1 X-2.118S500
G1 X-0.714S0
G1 X-2.257S500
G1 X-2.5S0
G1 Y0.1
G1 X2.5
G1 X2.257S500
G1 X0.689S0
G1 X2.117S500
G1 X1.565S0
G1 X2.116S500
G1 X0.69S0
G1 X2.257S500
G1 X2.393S0
G1 X2.568S500
G1 X2.714S0
G1 X2.568S500
G1 X2.721S0
G1 X2.258S500
G1 X3.315S0
G1 X3.075S500
G1 X2.281S0
G1 X2.572S500
G1 X2.507S0
G1 X2.456S500
G1 X3.248S0
G1 X3.233S500
G1 X1.497S0
G1 X2.178S500
G1 X3.189S0
G1 X2.336S500
G1 X2.328S0
G1 X2.715S500
G1 X2.51S0
G1 X3.182S500
G1 X2.5S0
G1 Y0.1
G1 X-2.5
G1 X-3.306S500
G1 X-2.268S0
G1 X-2.785S500
G1 X-2.4S0
G1 X-2.372S500
G1 X-3.029S0
G1 X-2.256S500
G1 X-1.479S0
G1 X-3.054S500
G1 X-3.467S0
G1 X-2.456S500
G1 X-2.531S0
G1 X-2.643S500
G1 X-2.053S0
G1 X-3.208S500
G1 X-3.315S0
G1 X-2.258S500
G1 X-2.776S0
G1 X-2.636S500
G1 X-2.468S0
G1 X-2.636S500
G1 X-2.448S0
G1 X-2.257S500
G1 X-0.664S0
G1 X-2.116S500
G1 X-1.618S0
G1 X-2.115S500
G1 X-0.664S0
G1 X-2.257S500
G1 X-2.5S0
G1 Y0.1
G1 X2.5
G1 X2.257S500
G1 X0.639S0
G1 X2.114S500
G1 X1.671S0
G1 X2.114S500
G1 X0.639S0
G1 X2.257S500
G1 X2.503S0
G1 X2.732S500
G1 X2.173S0
G1 X2.725S500
G1 X2.831S0
G1 X2.258S500
G1 X3.315S0
G1 X3.374S500
G1 X1.756S0
G1 X2.744S500
G1 X2.561S0
G1 X2.456S500
G1 X3.638S0
G1 X2.918S500
G1 X1.471S0
G1 X2.347S500
G1 X2.848S0
G1 X2.412S500
G1 X2.471S0
G1 X2.891S500
G1 X1.958S0
G1 X3.462S500
G1 X2.5S0
G1 Y0.1
G1 X-2.5
G1 X-3.648S500
G1 X-1.589S0
G1 X-3.026S500
G1 X-2.542S0
G1 X-2.487S500
G1 X-2.607S0
G1 X-2.463S500
G1 X-1.464S0
G1 X-2.827S500
G1 X-3.763S0
G1 X-2.456S500
G1 X-2.591S0
G1 X-2.913S500
G1 X-1.329S0
G1 X-3.602S500
G1 X-3.315S0
G1 X-2.258S500
G1 X-2.898S0
G1 X-2.842S500
G1 X-1.812S0
G1 X-2.845S500
G1 X-2.567S0
G1 X-2.257S500
G1 X-0.614S0
G1 X-2.113S500
G1 X-1.724S0
G1 X-2.112S500
G1 X-0.614S0
G1 X-2.257S500
G1 X-2.5S0
G1 Y0.1
G1 X2.5
G1 X2.257S500
G1 X0.588S0
G1 X2.112S500
G1 X1.777S0
G1 X2.111S500
G1 X0.589S0
G1 X2.257S500
G1 X2.636S0
G1 X3.038S500
G1 X1.278S0
G1 X3.044S500
G1 X2.22S0
G1 X4.109S500
G1 X2.212S0
G1 X4.031S500
G1 X0.485S0
G1 X3.288S500
G1 X2.631S0
G1 X2.456S500
G1 X3.869S0
G1 X2.755S500
G1 X1.473S0
G1 X2.601S500
G1 X2.28S0
G1 X2.596S500
G1 X2.639S0
G1 X3.238S500
G1 X1.045S0
G1 X3.92S500
G1 X2.5S0
G1 Y0.1
G1 X-2.5
G1 X-8.141S500
G1 X-2.738S0
G1 X-2.789S500
G1 X-1.77S0
G1 X-2.835S500
G1 X-1.495S0
G1 X-2.69S500
G1 X-3.958S0
G1 X-2.456S500
G1 X-2.673S0
G1 X-7.762S500
G1 X-1.902S0
G1 X-4.621S500
G1 X-2.088S0
G1 X-7.22S500
G1 X-2.706S0
G1 X-2.257S500
G1 X-0.564S0
G1 X-2.11S500
G1 X-1.83S0
G1 X-2.11S500
G1 X-0.563S0
G1 X-2.257S500
G1 X-2.5S0
G1 Y0.1
G1 X2.5
G1 X2.257S500
G1 X0.538S0
G1 X2.109S500
G1 X1.883S0
G1 X2.108S500
G1 X0.539S0
G1 X2.257S500
G1 X2.778S0
G1 X7.072S500
G1 X2.041S0
G1 X4.906S500
G1 X1.74S0
G1 X7.713S500
G1 X2.722S0
G1 X2.456S500
G1 X4.029S0
G1 X2.641S500
G1 X1.519S0
G1 X3.559S500
G1 X0.392S0
G1 X3.359S500
G1 X2.838S0
G1 X8.079S500
G1 X2.5S0
G1 Y0.1
G1 X-2.5
G1 X-8.009S500
G1 X-2.945S0
G1 X-7.209S500
G1 X-1.56S0
G1 X-2.604S500
G1 X-4.089S0
G1 X-2.456S500
G1 X-2.775S0
G1 X-7.66S500
G1 X-1.646S0
G1 X-5.087S500
G1 X-2.041S0
G1 X-6.898S500
G1 X-2.865S0
G1 X-2.257S500
G1 X-0.513S0
G1 X-2.108S500
G1 X-1.936S0
G1 X-2.107S500
G1 X-0.513S0
G1 X-2.257S500
G1 X-2.5S0
G1 Y0.1
G1 X2.5
G1 X2.257S500
G1 X0.488S0
G1 X2.106S500
G1 X1.989S0
G1 X2.106S500
G1 X0.488S0
G1 X2.257S500
G1 X2.952S0
G1 X6.724S500
G1 X2.07S0
G1 X5.21S500
G1 X1.581S0
G1 X2.257S500
G1 X0.004S0
G1 X5.34S500
G1 X2.834S0
G1 X2.456S500
G1 X4.141S0
G1 X2.575S500
G1 X1.602S0
G1 X7.088S500
G1 X3.079S0
G1 X5.778S500
G1 X0.02S0
G1 X2.133S500
G1 X2.5S0
G1 Y0.1
G1 X-2.5
G1 X-2.133S500
G1 X-0.119S0
G1 X-5.601S500
G1 X-3.215S0
G1 X-6.962S500
G1 X-1.657S0
G1 X-2.551S500
G1 X-4.178S0
G1 X-2.456S500
G1 X-2.898S0
G1 X-5.185S500
G1 X-0.095S0
G1 X-2.257S500
G1 X-1.543S0
G1 X-5.286S500
G1 X-2.122S0
G1 X-6.547S500
G1 X-3.039S0
G1 X-2.257S500
G1 X-0.463S0
G1 X-2.105S500
G1 X-2.042S0
G1 X-2.104S500
G1 X-0.463S0
G1 X-2.257S500
G1 X-2.5S0
G1 Y0.1
G1 X2.5
G1 X2.257S500
G1 X0.437S0
G1 X2.104S500
G1 X2.095S0
G1 X2.103S500
G1 X0.438S0
G1 X2.257S500
G1 X3.147S0
G1 X6.33S500
G1 X2.204S0
G1 X5.335S500
G1 X1.521S0
G1 X2.257S500
G1 X0.186S0
G1 X5.031S500
G1 X2.961S0
G1 X2.456S500
G1 X4.216S0
G1 X2.526S500
G1 X1.734S0
G1 X6.814S500
G1 X3.358S0
G1 X5.418S500
G1 X0.217S0
G1 X2.133S500
G1 X2.5S0
G1 Y0.1
G1 X-2.5
G1 X-2.133S500
G1 X-0.316S0
G1 X-5.222S500
G1 X-3.523S0
G1 X-6.657S500
G1 X-1.811S0
G1 X-2.515S500
G1 X-4.239S0
G1 X-2.456S500
G1 X-3.033S0
G1 X-4.862S500
G1 X-0.283S0
G1 X-2.257S500
G1 X-1.51S0
G1 X-5.356S500
G1 X-2.302S0
G1 X-6.113S500
G1 X-3.256S0
G1 X-2.257S500
G1 X-0.413S0
G1 X-2.102S500
G1 X-2.148S0
G1 X-2.102S500
G1 X-0.412S0
G1 X-2.257S500
G1 X-2.5S0
G1 Y0.1
G1 X2.5
G1 X2.257S500
G1 X0.387S0
G1 X2.101S500
G1 X2.201S0
G1 X2.1S500
G1 X0.388S0
G1 X2.257S500
G1 X3.368S0
G1 X5.886S500
G1 X2.417S0
G1 X5.357S500
G1 X1.509S0
G1 X2.257S500
G1 X0.384S0
G1 X4.676S500
G1 X3.118S0
G1 X2.456S500
G1 X4.259S0
G1 X2.508S500
G1 X1.903S0
G1 X6.463S500
G1 X3.709S0
G1 X5.01S500
G1 X0.431S0
G1 X2.133S500
G1 X2.5S0
G1 Y0.1
G1 X-2.5
G1 X-2.133S500
G1 X-0.547S0
G1 X-4.782S500
G1 X-3.91S0
G1 X-6.252S500
G1 X-2.019S0
G1 X-2.494S500
G1 X-4.279S0
G1 X-2.456S500
G1 X-3.204S0
G1 X-4.481S500
G1 X-0.493S0
G1 X-2.257S500
G1 X-1.518S0
G1 X-5.338S500
G1 X-2.563S0
G1 X-5.614S500
G1 X-3.504S0
G1 X-2.257S500
G1 X-0.362S0
G1 X-2.1S500
G1 X-2.254S0
G1 X-2.099S500
G1 X-0.362S0
G1 X-2.257S500
G1 X-2.5S0
G1 Y0.1
G1 X2.5
G1 X2.257S500
G1 X0.337S0
G1 X2.098S500
G1 X2.307S0
G1 X2.098S500
G1 X0.337S0
G1 X2.257S500
G1 X3.64S0
G1 X5.343S500
G1 X2.726S0
G1 X5.284S500
G1 X1.544S0
G1 X2.257S500
G1 X0.606S0
G1 X4.268S500
G1 X3.304S0
G1 X2.456S500
G1 X4.286S0
G1 X2.491S500
G1 X2.138S0
G1 X6.028S500
G1 X4.131S0
G1 X4.542S500
G1 X0.667S0
G1 X2.133S500
G1 X2.5S0
G1 Y0.1
G1 X-2.5
G1 X-2.133S500
G1 X-0.807S0
G1 X-4.275S500
G1 X-4.389S0
G1 X-5.734S500
G1 X-2.297S0
G1 X-2.489S500
G1 X-4.292S0
G1 X-2.456S500
G1 X-3.418S0
G1 X-4.027S500
G1 X-0.733S0
G1 X-2.257S500
G1 X-1.582S0
G1 X-5.207S500
G1 X-2.926S0
G1 X-5.023S500
G1 X-3.799S0
G1 X-2.257S500
G1 X-0.312S0
G1 X-2.097S500
G1 X-2.36S0
G1 X-2.096S500
G1 X-0.312S0
G1 X-2.257S500
G1 X-2.5S0
G1 Y0.1
G1 X2.5
G1 X2.257S500
G1 X0.286S0
G1 X2.096S500
G1 X2.413S0
G1 X2.095S500
G1 X0.287S0
G1 X2.257S500
G1 X3.971S0
G1 X4.681S500
G1 X3.158S0
G1 X5.088S500
G1 X1.639S0
G1 X2.257S500
G1 X0.868S0
G1 X3.775S500
G1 X3.535S0
G1 X2.456S500
G1 X4.298S0
G1 X2.487S500
G1 X2.457S0
G1 X5.438S500
G1 X4.673S0
G1 X3.983S500
G1 X0.947S0
G1 X2.133S500
G1 X2.5S0
G1 Y0.1
G1 X-2.5
G1 X-2.133S500
G1 X-1.115S0
G1 X-3.654S500
G1 X-5.014S0
G1 X-5.054S500
G1 X-2.659S0
G1 X-2.494S500
G1 X-4.293S0
G1 X-2.456S500
G1 X-3.69S0
G1 X-3.465S500
G1 X-1.023S0
G1 X-2.257S500
G1 X-1.725S0
G1 X-4.91S500
G1 X-3.447S0
G1 X-4.288S500
G1 X-4.167S0
G1 X-2.257S500
G1 X-0.262S0
G1 X-2.094S500
G1 X-2.466S0
G1 X-2.094S500
G1 X-0.261S0
G1 X-2.257S500
G1 X-2.5S0
G1 Y0.1
G1 X2.5
G1 X2.257S500
G1 X0.236S0
G1 X2.092S500
G1 X2.52S0
G1 X2.092S500
G1 X0.237S0
G1 X2.257S500
G1 X4.389S0
G1 X3.846S500
G1 X3.798S0
G1 X4.655S500
G1 X1.849S0
G1 X2.257S500
G1 X1.205S0
G1 X3.125S500
G1 X3.848S0
G1 X2.456S500
G1 X4.285S0
G1 X2.497S500
G1 X2.879S0
G1 X4.643S500
G1 X5.408S0
G1 X3.281S500
G1 X1.29S0
G1 X2.133S500
G1 X2.5S0
G1 Y0.1
G1 X-2.5
G1 X-2.133S500
G1 X-1.526S0
G1 X-2.809S500
G1 X-5.919S0
G1 X-4.081S500
G1 X-3.17S0
G1 X-2.5S500
G1 X-4.278S0
G1 X-2.456S500
G1 X-4.065S0
G1 X-2.691S500
G1 X-1.422S0
G1 X-2.257S500
G1 X-2.053S0
G1 X-4.232S500
G1 X-4.291S0
G1 X-3.298S500
G1 X-4.663S0
G1 X-2.257S500
G1 X-0.211S0
G1 X-2.091S500
G1 X-2.573S0
G1 X-2.091S500
G1 X-0.211S0
G1 X-2.257S500
G1 X-2.5S0
G1 Y0.1
G1 X2.5
G1 X2.257S500
G1 X0.186S0
G1 X2.089S500
G1 X2.626S0
G1 X2.09S500
G1 X0.186S0
G1 X2.257S500
G1 X4.995S0
G1 X2.633S500
G1 X5.336S0
G1 X2.258S500
G1 X3.315S0
G1 X2.257S500
G1 X1.698S0
G1 X2.151S500
G1 X4.329S0
G1 X2.456S500
G1 X4.27S0
G1 X2.504S500
G1 X3.518S0
G1 X3.394S500
G1 X6.562S0
G1 X2.208S500
G1 X1.827S0
G1 X2.133S500
G1 X2.5S0
G1 Y0.1
G1 X-2.5
G1 X-2.133S500
G1 X-2.324S0
G1 X-1.22S500
G1 X-7.598S0
G1 X-2.33S500
G1 X-4.041S0
G1 X-2.525S500
G1 X-4.245S0
G1 X-2.456S500
G1 X-4.731S0
G1 X-1.328S500
G1 X-2.119S0
G1 X-2.257S500
G1 X-3.315S0
G1 X-2.258S500
G1 X-5.849S0
G1 X-1.609S500
G1 X-5.506S0
G1 X-2.257S500
G1 X-0.161S0
G1 X-2.088S500
G1 X-2.679S0
G1 X-2.088S500
G1 X-0.161S0
G1 X-2.257S500
G1 X-2.5S0
G1 Y0.1
G1 X2.5
G1 X2.257S500
G1 X0.135S0
G1 X2.087S500
G1 X2.732S0
G1 X2.087S500
G1 X0.136S0
G1 X2.257S500
G1 X12.964S0
G1 X2.258S500
G1 X3.315S0
G1 X2.257S500
G1 X8.178S0
G1 X2.456S500
G1 X4.22S0
G1 X2.536S500
G1 X17.527S0
G1 X2.133S500
G1 X2.987S0
G1 X0.435S500
G1 X1.301S0
G1 X0.41S500
G1 X1.079S0
G1 X0.338S500
G1 X1.148S0
G1 X0.42S500
G1 X2.5S0
G1 X-0.006Y0.1
G1 X-2.5
G1 X-0.42S500
G1 X-1.106S0
G1 X-0.408S500
G1 X-1.039S0
G1 X-0.409S500
G1 X-1.308S0
G1 X-0.435S500
G1 X-2.987S0
G1 X-2.133S500
G1 X-17.54S0
G1 X-2.549S500
G1 X-4.194S0
G1 X-2.456S500
G1 X-8.178S0
G1 X-2.257S500
G1 X-3.315S0
G1 X-2.258S500
G1 X-12.964S0
G1 X-2.257S500
G1 X-0.111S0
G1 X-2.085S500
G1 X-2.785S0
G1 X-2.086S500
G1 X-0.11S0
G1 X-2.257S500
G1 X-2.5S0
G1 Y0.1
G1 X2.5
G1 X2.257S500
G1 X0.085S0
G1 X2.084S500
G1 X2.838S0
G1 X2.084S500
G1 X0.086S0
G1 X2.257S500
G1 X12.964S0
G1 X2.258S500
G1 X3.315S0
G1 X2.257S500
G1 X8.178S0
G1 X2.456S500
G1 X4.157S0
G1 X2.573S500
G1 X17.553S0
G1 X2.133S500
G1 X2.987S0
G1 X0.435S500
G1 X1.315S0
G1 X0.408S500
G1 X0.999S0
G1 X0.479S500
G1 X1.064S0
G1 X0.419S500
G1 X2.5S0
G1 X-0.006Y0.1
G1 X-2.5
G1 X-0.419S500
G1 X-1.022S0
G1 X-0.549S500
G1 X-0.958S0
G1 X-0.408S500
G1 X-1.322S0
G1 X-0.435S500
G1 X-2.987S0
G1 X-2.133S500
G1 X-17.566S0
G1 X-2.607S500
G1 X-4.11S0
G1 X-2.456S500
G1 X-8.178S0
G1 X-2.257S500
G1 X-3.315S0
G1 X-2.258S500
G1 X-12.964S0
G1 X-2.257S500
G1 X-0.061S0
G1 X-2.082S500
G1 X-2.891S0
G1 X-2.083S500
G1 X-0.06S0
G1 X-2.257S500
G1 X-2.5S0
G1 Y0.1
G1 X2.5
G1 X2.257S500
G1 X0.035S0
G1 X2.081S500
G1 X2.944S0
G1 X2.082S500
G1 X0.035S0
G1 X2.257S500
G1 X12.964S0
G1 X2.258S500
G1 X3.315S0
G1 X2.257S500
G1 X8.178S0
G1 X2.456S500
G1 X4.062S0
G1 X2.632S500
G1 X17.589S0
G1 X2.133S500
G1 X2.987S0
G1 X0.435S500
G1 X1.329S0
G1 X0.407S500
G1 X0.919S0
G1 X0.618S500
G1 X0.98S0
G1 X0.418S500
G1 X2.5S0
G1 X-0.006Y0.1
G1 X-2.5
G1 X-0.418S500
G1 X-0.937S0
G1 X-0.689S500
G1 X-0.879S0
G1 X-0.406S500
G1 X-1.336S0
G1 X-0.435S500
G1 X-2.987S0
G1 X-2.133S500
G1 X-17.612S0
G1 X-2.669S500
G1 X-4.002S0
G1 X-2.456S500
G1 X-8.178S0
G1 X-2.257S500
G1 X-3.315S0
G1 X-2.258S500
G1 X-12.964S0
G1 X-2.257S500
G1 X-0.01S0
G1 X-2.08S500
G1 X-2.997S0
G1 X-2.08S500
G1 X-0.01S0
G1 X-2.257S500
G1 X-2.5S0
G1 Y0.1
G1 X2.5
G1 X4.32S500
G1 X3.05S0
G1 X4.321S500
G1 X12.964S0
G1 X2.258S500
G1 X3.315S0
G1 X2.257S500
G1 X8.178S0
G1 X2.456S500
G1 X3.926S0
G1 X2.721S500
G1 X17.636S0
G1 X2.133S500
G1 X2.987S0
G1 X0.435S500
G1 X1.343S0
G1 X0.405S500
G1 X0.839S0
G1 X0.386S500
G1 X0.036S0
G1 X0.337S500
G1 X0.896S0
G1 X0.417S500
G1 X2.5S0
G1 X-0.006Y0.1
G1 X-2.5
G1 X-0.417S500
G1 X-0.853S0
G1 X-0.345S500
G1 X-0.092S0
G1 X-0.393S500
G1 X-0.798S0
G1 X-0.405S500
G1 X-1.35S0
G1 X-0.435S500
G1 X-2.987S0
G1 X-2.133S500
G1 X-17.661S0
G1 X-2.772S500
G1 X-3.85S0
G1 X-2.456S500
G1 X-8.178S0
G1 X-2.257S500
G1 X-3.315S0
G1 X-2.258S500
G1 X-12.964S0
G1 X-4.294S500
G1 X-3.103S0
G1 X-4.294S500
G1 X-2.5S0
G1 Y0.1
G1 X2.5
G1 X4.267S500
G1 X3.156S0
G1 X4.268S500
G1 X12.964S0
G1 X2.258S500
G1 X3.315S0
G1 X2.257S500
G1 X8.178S0
G1 X2.456S500
G1 X3.744S0
G1 X2.843S500
G1 X17.696S0
G1 X2.133S500
G1 X2.987S0
G1 X0.435S500
G1 X1.357S0
G1 X0.404S500
G1 X0.758S0
G1 X0.399S500
G1 X0.148S0
G1 X0.353S500
G1 X0.811S0
G1 X0.416S500
G1 X2.5S0
G1 X-0.006Y0.1
G1 X-2.5
G1 X-0.415S500
G1 X-0.77S0
G1 X-0.36S500
G1 X-0.204S0
G1 X-0.406S500
G1 X-0.718S0
G1 X-0.403S500
G1 X-1.364S0
G1 X-0.435S500
G1 X-2.987S0
G1 X-2.133S500
G1 X-17.73S0
G1 X-2.95S500
G1 X-3.603S0
G1 X-2.456S500
G1 X-8.178S0
G1 X-2.257S500
G1 X-3.315S0
G1 X-2.258S500
G1 X-12.964S0
G1 X-4.241S500
G1 X-3.209S0
G1 X-4.241S500
G1 X-2.5S0
G1 Y0.1
G1 X2.5
G1 X4.214S500
G1 X3.262S0
G1 X4.215S500
G1 X12.964S0
G1 X2.258S500
G1 X3.315S0
G1 X2.257S500
G1 X8.178S0
G1 X2.456S500
G1 X3.409S0
G1 X3.11S500
G1 X17.764S0
G1 X2.133S500
G1 X2.987S0
G1 X0.435S500
G1 X1.371S0
G1 X0.402S500
G1 X0.678S0
G1 X0.412S500
G1 X0.261S0
G1 X0.368S500
G1 X0.727S0
G1 X0.415S500
G1 X2.5S0
G1 X-0.006Y0.1
G1 X-2.5
G1 X-0.415S500
G1 X-0.685S0
G1 X-0.375S500
G1 X-0.317S0
G1 X-0.419S500
G1 X-0.637S0
G1 X-0.402S500
G1 X-1.378S0
G1 X-0.435S500
G1 X-2.987S0
G1 X-2.133S500
G1 X-17.807S0
G1 X-3.347S500
G1 X-3.129S0
G1 X-2.456S500
G1 X-8.178S0
G1 X-2.257S500
G1 X-3.315S0
G1 X-2.258S500
G1 X-12.964S0
G1 X-4.188S500
G1 X-3.315S0
G1 X-4.188S500
G1 X-2.5S0
G1 Y0.1
G1 X2.5
G1 X4.161S500
G1 X3.368S0
G1 X4.162S500
G1 X12.965S0
G1 X2.257S500
G1 X3.315S0
G1 X2.257S500
G1 X8.178S0
G1 X2.456S500
G1 X2.663S0
G1 X3.766S500
G1 X17.854S0
G1 X2.133S500
G1 X2.987S0
G1 X0.435S500
G1 X1.385S0
G1 X0.401S500
G1 X0.597S0
G1 X0.42S500
G1 X0.383S0
G1 X0.379S500
G1 X0.642S0
G1 X0.415S500
G1 X2.5S0
G1 X-0.007Y0.1
G1 X-2.5
G1 X-0.413S500
G1 X-0.601S0
G1 X-0.381S500
G1 X-0.449S0
G1 X-0.422S500
G1 X-0.557S0
G1 X-0.4S500
G1 X-1.392S0
G1 X-0.435S500
G1 X-2.987S0
G1 X-2.133S500
G1 X-17.901S0
G1 X-8.838S500
G1 X-8.178S0
G1 X-2.257S500
G1 X-3.315S0
G1 X-2.256S500
G1 X-12.966S0
G1 X-4.135S500
G1 X-3.421S0
G1 X-4.135S500
G1 X-2.5S0
G1 Y0.1
G1 X2.5
G1 X4.108S500
G1 X3.474S0
G1 X4.109S500
G1 X12.967S0
G1 X2.253S500
G1 X3.317S0
G1 X2.257S500
G1 X8.178S0
G1 X8.787S500
G1 X17.952S0
G1 X2.133S500
G1 X2.987S0
G1 X0.435S500
G1 X1.399S0
G1 X0.399S500
G1 X0.517S0
G1 X0.424S500
G1 X0.515S0
G1 X0.383S500
G1 X0.559S0
G1 X0.413S500
G1 X2.5S0
G1 X-0.006Y0.1
G1 X-2.5
G1 X-0.412S500
G1 X-0.517S0
G1 X-0.387S500
G1 X-0.58S0
G1 X-0.426S500
G1 X-0.478S0
G1 X-0.397S500
G1 X-1.406S0
G1 X-0.435S500
G1 X-2.987S0
G1 X-2.133S500
G1 X-18.014S0
G1 X-8.725S500
G1 X-8.178S0
G1 X-2.257S500
G1 X-3.318S0
G1 X-2.25S500
G1 X-12.969S0
G1 X-4.082S500
G1 X-3.528S0
G1 X-4.081S500
G1 X-2.5S0
G1 Y0.1
G1 X2.5
G1 X4.054S500
G1 X3.582S0
G1 X4.055S500
G1 X12.972S0
G1 X2.244S500
G1 X3.321S0
G1 X2.257S500
G1 X8.178S0
G1 X8.663S500
G1 X18.076S0
G1 X2.133S500
G1 X2.987S0
G1 X0.435S500
G1 X1.413S0
G1 X0.395S500
G1 X0.44S0
G1 X0.427S500
G1 X0.646S0
G1 X0.389S500
G1 X0.476S0
G1 X0.411S500
G1 X2.5S0
G1 X-0.007Y0.1
G1 X-2.5
G1 X-0.409S500
G1 X-0.436S0
G1 X-0.39S500
G1 X-0.713S0
G1 X-0.426S500
G1 X-0.402S0
G1 X-0.394S500
G1 X-1.42S0
G1 X-0.435S500
G1 X-2.987S0
G1 X-2.133S500
G1 X-18.142S0
G1 X-8.591S500
G1 X-8.184S0
G1 X-2.257S500
G1 X-3.326S0
G1 X-2.235S500
G1 X-12.976S0
G1 X-4.027S500
G1 X-3.637S0
G1 X-4.027S500
G1 X-2.5S0
G1 Y0.1
G1 X2.502
G1 X3.997S500
G1 X3.692S0
G1 X3.997S500
G1 X12.983S0
G1 X2.227S500
G1 X3.33S0
G1 X2.257S500
G1 X8.19S0
G1 X8.506S500
G1 X18.221S0
G1 X2.133S500
G1 X2.987S0
G1 X0.435S500
G1 X1.426S0
G1 X0.393S500
G1 X0.365S0
G1 X0.423S500
G1 X0.785S0
G1 X0.388S500
G1 X0.396S0
G1 X0.408S500
G1 X2.5S0
G1 X-0.006Y0.1
G1 X-2.5
G1 X-0.407S500
G1 X-0.356S0
G1 X-0.386S500
G1 X-0.858S0
G1 X-0.42S500
G1 X-0.327S0
G1 X-0.391S500
G1 X-1.433S0
G1 X-0.435S500
G1 X-2.987S0
G1 X-2.133S500
G1 X-18.3S0
G1 X-8.421S500
G1 X-8.196S0
G1 X-2.257S500
G1 X-3.34S0
G1 X-2.209S500
G1 X-12.998S0
G1 X-3.96S500
G1 X-3.751S0
G1 X-3.961S500
G1 X-2.5S0
G1 X0.007Y0.1
G1 X2.5
G1 X3.924S500
G1 X3.811S0
G1 X3.923S500
G1 X13.015S0
G1 X2.19S500
G1 X3.353S0
G1 X2.25S500
G1 X8.208S0
G1 X8.323S500
G1 X18.394S0
G1 X2.128S500
G1 X2.987S0
G1 X0.435S500
G1 X1.44S0
G1 X0.389S500
G1 X0.29S0
G1 X0.417S500
G1 X0.93S0
G1 X0.384S500
G1 X0.317S0
G1 X0.405S500
G1 X2.5S0
G1 X-0.007Y0.1
G1 X-2.5
G1 X-0.403S500
G1 X-0.277S0
G1 X-0.383S500
G1 X-1.001S0
G1 X-0.414S500
G1 X-0.253S0
G1 X-0.387S500
G1 X-1.447S0
G1 X-0.435S500
G1 X-2.991S0
G1 X-2.119S500
G1 X-18.499S0
G1 X-8.201S500
G1 X-8.236S0
G1 X-2.239S500
G1 X-3.374S0
G1 X-2.155S500
G1 X-13.041S0
G1 X-3.886S500
G1 X-3.872S0
G1 X-3.885S500
G1 X-2.5S0
G1 X0.02Y0.1
G1 X2.5
G1 X3.831S500
G1 X3.94S0
G1 X3.831S500
G1 X13.081S0
G1 X2.118S500
G1 X3.398S0
G1 X2.227S500
G1 X8.264S0
G1 X8.078S500
G1 X18.606S0
G1 X2.107S500
G1 X2.997S0
G1 X0.435S500
G1 X1.454S0
G1 X0.385S500
G1 X0.216S0
G1 X0.41S500
G1 X1.074S0
G1 X0.381S500
G1 X0.238S0
G1 X0.401S500
G1 X2.5S0
G1 X-0.006Y0.1
G1 X-2.5
G1 X-0.397S500
G1 X-0.202S0
G1 X-0.378S500
G1 X-1.146S0
G1 X-0.404S500
G1 X-0.184S0
G1 X-0.381S500
G1 X-1.461S0
G1 X-0.435S500
G1 X-3.002S0
G1 X-2.089S500
G1 X-18.743S0
G1 X-7.932S500
G1 X-8.297S0
G1 X-2.206S500
G1 X-3.436S0
G1 X-2.061S500
G1 X-13.136S0
G1 X-3.77S500
G1 X-4.009S0
G1 X-3.771S500
G1 X-2.5S0
G1 X0.026Y0.1
G1 X2.5
G1 X3.707S500
G1 X4.084S0
G1 X3.708S500
G1 X13.204S0
G1 X1.978S500
G1 X3.496S0
G1 X2.166S500
G1 X8.361S0
G1 X7.76S500
G1 X18.889S0
G1 X2.054S500
G1 X3.019S0
G1 X0.435S500
G1 X1.468S0
G1 X0.378S500
G1 X0.153S0
G1 X0.396S500
G1 X1.218S0
G1 X0.372S500
G1 X0.169S0
G1 X0.393S500
G1 X2.5S0
G1 X-0.007Y0.1
G1 X-2.5
G1 X-0.388S500
G1 X-0.136S0
G1 X-0.366S500
G1 X-1.29S0
G1 X-0.389S500
G1 X-0.122S0
G1 X-0.374S500
G1 X-1.475S0
G1 X-0.435S500
G1 X-3.039S0
G1 X-2.015S500
G1 X-19.06S0
G1 X-7.563S500
G1 X-8.427S0
G1 X-2.125S500
G1 X-3.569S0
G1 X-1.881S500
G1 X-13.295S0
G1 X-3.619S500
G1 X-4.167S0
G1 X-3.619S500
G1 X-2.5S0
G1 X0.055Y0.1
G1 X2.5
G1 X3.513S500
G1 X4.268S0
G1 X3.514S500
G1 X13.424S0
G1 X1.738S500
G1 X3.668S0
G1 X2.063S500
G1 X8.517S0
G1 X7.342S500
G1 X19.255S0
G1 X1.961S500
G1 X3.061S0
G1 X0.435S500
G1 X1.482S0
G1 X0.371S500
G1 X0.091S0
G1 X0.38S500
G1 X1.363S0
G1 X0.36S500
G1 X0.103S0
G1 X0.384S500
G1 X2.5S0
G1 X-0.006Y0.1
G1 X-2.5
G1 X-0.38S500
G1 X-0.07S0
G1 X-0.355S500
G1 X-1.434S0
G1 X-0.372S500
G1 X-0.061S0
G1 X-0.367S500
G1 X-1.489S0
G1 X-0.435S500
G1 X-3.1S0
G1 X-1.886S500
G1 X-19.497S0
G1 X-7.055S500
G1 X-8.638S0
G1 X-1.984S500
G1 X-3.8S0
G1 X-1.568S500
G1 X-13.575S0
G1 X-3.38S500
G1 X-4.388S0
G1 X-3.38S500
G1 X-2.5S0
G1 X0.106Y0.1
G1 X2.5
G1 X3.19S500
G1 X4.557S0
G1 X3.189S500
G1 X13.803S0
G1 X1.322S500
G1 X3.968S0
G1 X1.893S500
G1 X8.787S0
G1 X6.717S500
G1 X19.778S0
G1 X1.802S500
G1 X3.139S0
G1 X0.435S500
G1 X1.496S0
G1 X0.364S500
G1 X0.029S0
G1 X0.365S500
G1 X1.506S0
G1 X0.35S500
G1 X0.036S0
G1 X0.376S500
G1 X2.5S0
G1 X-0.007Y0.1
G1 X-2.5
G1 X-0.718S500
G1 X-1.579S0
G1 X-0.715S500
G1 X-1.503S0
G1 X-0.435S500
G1 X-3.203S0
G1 X-1.677S500
G1 X-20.144S0
G1 X-6.271S500
G1 X-8.996S0
G1 X-1.759S500
G1 X-4.194S0
G1 X-1.019S500
G1 X-14.105S0
G1 X-2.91S500
G1 X-4.797S0
G1 X-2.911S500
G1 X-2.5S0
G1 X0.238Y0.1
G1 X2.5
G1 X2.469S500
G1 X5.205S0
G1 X2.468S500
G1 X14.615S0
G1 X0.485S500
G1 X4.534S0
G1 X1.601S500
G1 X9.306S0
G1 X5.567S500
G1 X20.693S0
G1 X1.532S500
G1 X2.26S0
G1 X2.466S500
G1 X0.492S0
G1 X0.673S500
G1 X1.651S0
G1 X0.675S500
G1 X2.5S0
G1 X-0.006Y0.1
G1 X-2.5
G1 X-0.632S500
G1 X-1.723S0
G1 X-0.631S500
G1 X-0.499S0
G1 X-2.466S500
G1 X-2.368S0
G1 X-1.326S500
G1 X-21.918S0
G1 X-3.868S500
G1 X-9.987S0
G1 X-1.385S500
G1 X-20.291S0
G1 X-1.319S500
G1 X-6.403S0
G1 X-1.319S500
G1 X-2.5S0
G1 X29.493Y0.1
G1 X2.5
G1 X1.06S500
G1 X36.09S0
G1 X1.018S500
G1 X2.523S0
G1 X2.466S500
G1 X0.506S0
G1 X0.589S500
G1 X1.794S0
G1 X0.59S500
G1 X2.5S0
G1 X-8.78Y0.1
G1 X-2.5
G1 X-0.394S500
G1 X-36.73S0
G1 X-0.409S500
G1 X-2.5S0
G90
; Cut @ 3 mm/sec, 100% power
M8
G0 X65Y350
; Layer C19 Pass 1 of 3
G1 X63.709Y349.984S1000F180
G1 X62.427Y349.935
G1 X61.153Y349.853
G1 X59.888Y349.74
G1 X58.632Y349.595
G1 X57.385Y349.42
G1 X56.149Y349.213
G1 X54.923Y348.977
G1 X53.708Y348.71
G1 X52.504Y348.414
G1 X51.312Y348.089
G1 X50.131Y347.736
G1 X48.963Y347.354
G1 X47.808Y346.944
G1 X46.666Y346.506
G1 X45.538Y346.042
G1 X44.423Y345.551
G1 X43.323Y345.033
G1 X42.237Y344.49
G1 X41.167Y343.921
G1 X40.112Y343.327
G1 X39.073Y342.708
G1 X38.05Y342.065
G1 X37.044Y341.398
G1 X36.055Y340.707
G1 X35.084Y339.993
G1 X34.131Y339.257
G1 X33.195Y338.498
G1 X32.279Y337.717
G1 X31.381Y336.915
G1 X30.503Y336.091
G1 X29.645Y335.247
G1 X28.806Y334.382
G1 X27.989Y333.498
G1 X27.193Y332.594
G1 X26.417Y331.67
G1 X25.664Y330.728
G1 X24.933Y329.767
G1 X24.225Y328.789
G1 X23.539Y327.793
G1 X22.877Y326.779
G1 X22.239Y325.749
G1 X21.624Y324.702
G1 X21.035Y323.64
G1 X20.47Y322.561
G1 X19.93Y321.468
G1 X19.417Y320.359
G1 X18.929Y319.237
G1 X18.468Y318.1
G1 X18.034Y316.949
G1 X17.627Y315.785
G1 X17.248Y314.609
G1 X16.897Y313.42
G1 X16.574Y312.219
G1 X16.28Y311.006
G1 X16.016Y309.782
G1 X15.781Y308.547
G1 X15.576Y307.301
G1 X15.402Y306.046
G1 X15.258Y304.78
G1 X15.146Y303.506
G1 X15.065Y302.222
G1 X15.016Y300.931
G1 X15Y299.63
G1 Y100
G1 X15.016Y98.71
G1 X15.065Y97.427
G1 X15.146Y96.153
G1 X15.259Y94.888
G1 X15.403Y93.632
G1 X15.578Y92.386
G1 X15.784Y91.149
G1 X16.02Y89.923
G1 X16.285Y88.708
G1 X16.58Y87.504
G1 X16.904Y86.312
G1 X17.256Y85.132
G1 X17.637Y83.964
G1 X18.045Y82.808
G1 X18.481Y81.666
G1 X18.944Y80.538
G1 X19.433Y79.423
G1 X19.949Y78.323
G1 X20.49Y77.238
G1 X21.057Y76.167
G1 X21.649Y75.112
G1 X22.265Y74.073
G1 X22.906Y73.051
G1 X23.571Y72.045
G1 X24.259Y71.056
G1 X24.97Y70.084
G1 X25.704Y69.131
G1 X26.46Y68.195
G1 X27.238Y67.279
G1 X28.037Y66.381
G1 X28.858Y65.503
G1 X29.699Y64.645
G1 X30.56Y63.807
G1 X31.442Y62.989
G1 X32.343Y62.193
G1 X33.263Y61.418
G1 X34.201Y60.664
G1 X35.158Y59.933
G1 X36.133Y59.225
G1 X37.126Y58.539
G1 X38.136Y57.877
G1 X39.162Y57.239
G1 X40.205Y56.624
G1 X41.264Y56.035
G1 X42.338Y55.47
G1 X43.428Y54.931
G1 X44.532Y54.417
G1 X45.651Y53.929
G1 X46.783Y53.468
G1 X47.93Y53.034
G1 X49.089Y52.627
G1 X50.261Y52.248
G1 X51.446Y51.897
G1 X52.643Y51.574
G1 X53.851Y51.28
G1 X55.071Y51.016
G1 X56.301Y50.781
G1 X57.542Y50.576
G1 X58.793Y50.402
G1 X60.054Y50.258
G1 X61.323Y50.146
G1 X62.602Y50.065
G1 X63.889Y50.016
G1 X65.185Y50
G1 X334.815
G1 X336.111Y50.016
G1 X337.398Y50.066
G1 X338.676Y50.147
G1 X339.946Y50.261
G1 X341.207Y50.406
G1 X342.458Y50.582
G1 X343.699Y50.789
G1 X344.929Y51.027
G1 X346.149Y51.294
G1 X347.357Y51.591
G1 X348.554Y51.917
G1 X349.739Y52.272
G1 X350.911Y52.655
G1 X352.07Y53.067
G1 X353.217Y53.505
G1 X354.349Y53.971
G1 X355.468Y54.464
G1 X356.572Y54.984
G1 X357.662Y55.529
G1 X358.736Y56.1
G1 X359.795Y56.696
G1 X360.838Y57.316
G1 X361.864Y57.962
G1 X362.874Y58.631
G1 X363.866Y59.324
G1 X364.841Y60.04
G1 X365.799Y60.779
G1 X366.737Y61.54
G1 X367.657Y62.324
G1 X368.558Y63.129
G1 X369.44Y63.955
G1 X370.301Y64.802
G1 X371.142Y65.67
G1 X371.963Y66.557
G1 X372.762Y67.464
G1 X373.54Y68.391
G1 X374.296Y69.336
G1 X375.03Y70.3
G1 X375.741Y71.282
G1 X376.429Y72.281
G1 X377.094Y73.298
G1 X377.734Y74.332
G1 X378.351Y75.382
G1 X378.943Y76.448
G1 X379.51Y77.53
G1 X380.051Y78.627
G1 X380.567Y79.739
G1 X381.056Y80.866
G1 X381.519Y82.007
G1 X381.955Y83.161
G1 X382.363Y84.329
G1 X382.744Y85.509
G1 X383.096Y86.702
G1 X383.42Y87.907
G1 X383.715Y89.124
G1 X383.98Y90.352
G1 X384.216Y91.592
G1 X384.422Y92.841
G1 X384.597Y94.101
G1 X384.741Y95.37
G1 X384.854Y96.649
G1 X384.935Y97.937
G1 X384.984Y99.233
G1 X385Y100.537
G1 Y299.815
G1 X384.984Y301.111
G1 X384.934Y302.398
G1 X384.853Y303.677
G1 X384.74Y304.946
G1 X384.595Y306.207
G1 X384.42Y307.458
G1 X384.213Y308.699
G1 X383.977Y309.929
G1 X383.71Y311.149
G1 X383.414Y312.357
G1 X383.089Y313.554
G1 X382.735Y314.739
G1 X382.353Y315.911
G1 X381.944Y317.071
G1 X381.506Y318.217
G1 X381.042Y319.349
G1 X380.55Y320.468
G1 X380.033Y321.573
G1 X379.49Y322.662
G1 X378.921Y323.736
G1 X378.327Y324.795
G1 X377.708Y325.838
G1 X377.065Y326.864
G1 X376.398Y327.874
G1 X375.707Y328.867
G1 X374.993Y329.842
G1 X374.257Y330.799
G1 X373.498Y331.737
G1 X372.717Y332.658
G1 X371.915Y333.558
G1 X371.091Y334.44
G1 X370.247Y335.301
G1 X369.382Y336.142
G1 X368.498Y336.963
G1 X367.594Y337.762
G1 X366.67Y338.54
G1 X365.728Y339.296
G1 X364.767Y340.03
G1 X363.789Y340.741
G1 X362.792Y341.429
G1 X361.779Y342.094
G1 X360.749Y342.735
G1 X359.702Y343.351
G1 X358.64Y343.943
G1 X357.561Y344.51
G1 X356.468Y345.051
G1 X355.359Y345.567
G1 X354.237Y346.056
G1 X353.1Y346.519
G1 X351.949Y346.955
G1 X350.785Y347.363
G1 X349.609Y347.744
G1 X348.42Y348.096
G1 X347.219Y348.42
G1 X346.006Y348.715
G1 X344.782Y348.98
G1 X343.547Y349.216
G1 X342.301Y349.422
G1 X341.046Y349.597
G1 X339.78Y349.741
G1 X338.506Y349.854
G1 X337.222Y349.935
G1 X335.93Y349.984
G1 X334.63Y350
G1 X61.25
; Layer C19 Pass 2 of 3
G1 X334.63
G1 X335.93Y349.984
G1 X337.222Y349.935
G1 X338.506Y349.854
G1 X339.78Y349.741
G1 X341.046Y349.597
G1 X342.301Y349.422
G1 X343.547Y349.216
G1 X344.782Y348.98
G1 X346.006Y348.715
G1 X347.219Y348.42
G1 X348.42Y348.096
G1 X349.609Y347.744
G1 X350.785Y347.363
G1 X351.949Y346.955
G1 X353.1Y346.519
G1 X354.237Y346.056
G1 X355.359Y345.567
G1 X356.468Y345.051
G1 X357.561Y344.51
G1 X358.64Y343.943
G1 X359.702Y343.351
G1 X360.749Y342.735
G1 X361.779Y342.094
G1 X362.792Y341.429
G1 X363.789Y340.741
G1 X364.767Y340.03
G1 X365.728Y339.296
G1 X366.67Y338.54
G1 X367.594Y337.762
G1 X368.498Y336.963
G1 X369.382Y336.142
G1 X370.247Y335.301
G1 X371.091Y334.44
G1 X371.915Y333.558
G1 X372.717Y332.658
G1 X373.498Y331.737
G1 X374.257Y330.799
G1 X374.993Y329.842
G1 X375.707Y328.867
G1 X376.398Y327.874
G1 X377.065Y326.864
G1 X377.708Y325.838
G1 X378.327Y324.795
G1 X378.921Y323.736
G1 X379.49Y322.662
G1 X380.033Y321.573
G1 X380.55Y320.468
G1 X381.042Y319.349
G1 X381.506Y318.217
G1 X381.944Y317.071
G1 X382.353Y315.911
G1 X382.735Y314.739
G1 X383.089Y313.554
G1 X383.414Y312.357
G1 X383.71Y311.149
G1 X383.977Y309.929
G1 X384.213Y308.699
G1 X384.42Y307.458
G1 X384.595Y306.207
G1 X384.74Y304.946
G1 X384.853Y303.677
G1 X384.934Y302.398
G1 X384.984Y301.111
G1 X385Y299.815
G1 Y100.537
G1 X384.984Y99.233
G1 X384.935Y97.937
G1 X384.854Y96.649
G1 X384.741Y95.37
G1 X384.597Y94.101
G1 X384.422Y92.841
G1 X384.216Y91.592
G1 X383.98Y90.352
G1 X383.715Y89.124
G1 X383.42Y87.907
G1 X383.096Y86.702
G1 X382.744Y85.509
G1 X382.363Y84.329
G1 X381.955Y83.161
G1 X381.519Y82.007
G1 X381.056Y80.866
G1 X380.567Y79.739
G1 X380.051Y78.627
G1 X379.51Y77.53
G1 X378.943Y76.448
G1 X378.351Y75.382
G1 X377.734Y74.332
G1 X377.094Y73.298
G1 X376.429Y72.281
G1 X375.741Y71.282
G1 X375.03Y70.3
G1 X374.296Y69.336
G1 X373.54Y68.391
G1 X372.762Y67.464
G1 X371.963Y66.557
G1 X371.142Y65.67
G1 X370.301Y64.802
G1 X369.44Y63.955
G1 X368.558Y63.129
G1 X367.657Y62.324
G1 X366.737Y61.54
G1 X365.799Y60.779
G1 X364.841Y60.04
G1 X363.866Y59.324
G1 X362.874Y58.631
G1 X361.864Y57.962
G1 X360.838Y57.316
G1 X359.795Y56.696
G1 X358.736Y56.1
G1 X357.662Y55.529
G1 X356.572Y54.984
G1 X355.468Y54.464
G1 X354.349Y53.971
G1 X353.217Y53.505
G1 X352.07Y53.067
G1 X350.911Y52.655
G1 X349.739Y52.272
G1 X348.554Y51.917
G1 X347.357Y51.591
G1 X346.149Y51.294
G1 X344.929Y51.027
G1 X343.699Y50.789
G1 X342.458Y50.582
G1 X341.207Y50.406
G1 X339.946Y50.261
G1 X338.676Y50.147
G1 X337.398Y50.066
G1 X336.111Y50.016
G1 X334.815Y50
G1 X65.185
G1 X63.889Y50.016
G1 X62.602Y50.065
G1 X61.323Y50.146
G1 X60.054Y50.258
G1 X58.793Y50.402
G1 X57.542Y50.576
G1 X56.301Y50.781
G1 X55.071Y51.016
G1 X53.851Y51.28
G1 X52.643Y51.574
G1 X51.446Y51.897
G1 X50.261Y52.248
G1 X49.089Y52.627
G1 X47.93Y53.034
G1 X46.783Y53.468
G1 X45.651Y53.929
G1 X44.532Y54.417
G1 X43.428Y54.931
G1 X42.338Y55.47
G1 X41.264Y56.035
G1 X40.205Y56.624
G1 X39.162Y57.239
G1 X38.136Y57.877
G1 X37.126Y58.539
G1 X36.133Y59.225
G1 X35.158Y59.933
G1 X34.201Y60.664
G1 X33.263Y61.418
G1 X32.343Y62.193
G1 X31.442Y62.989
G1 X30.56Y63.807
G1 X29.699Y64.645
G1 X28.858Y65.503
G1 X28.037Y66.381
G1 X27.238Y67.279
G1 X26.46Y68.195
G1 X25.704Y69.131
G1 X24.97Y70.084
G1 X24.259Y71.056
G1 X23.571Y72.045
G1 X22.906Y73.051
G1 X22.265Y74.073
G1 X21.649Y75.112
G1 X21.057Y76.167
G1 X20.49Y77.238
G1 X19.949Y78.323
G1 X19.433Y79.423
G1 X18.944Y80.538
G1 X18.481Y81.666
G1 X18.045Y82.808
G1 X17.637Y83.964
G1 X17.256Y85.132
G1 X16.904Y86.312
G1 X16.58Y87.504
G1 X16.285Y88.708
G1 X16.02Y89.923
G1 X15.784Y91.149
G1 X15.578Y92.386
G1 X15.403Y93.632
G1 X15.259Y94.888
G1 X15.146Y96.153
G1 X15.065Y97.427
G1 X15.016Y98.71
G1 X15Y100
G1 Y299.63
G1 X15.016Y300.931
G1 X15.065Y302.222
G1 X15.146Y303.506
G1 X15.258Y304.78
G1 X15.402Y306.046
G1 X15.576Y307.301
G1 X15.781Y308.547
G1 X16.016Y309.782
G1 X16.28Y311.006
G1 X16.574Y312.219
G1 X16.897Y313.42
G1 X17.248Y314.609
G1 X17.627Y315.785
G1 X18.034Y316.949
G1 X18.468Y318.1
G1 X18.929Y319.237
G1 X19.417Y320.359
G1 X19.93Y321.468
G1 X20.47Y322.561
G1 X21.035Y323.64
G1 X21.624Y324.702
G1 X22.239Y325.749
G1 X22.877Y326.779
G1 X23.539Y327.793
G1 X24.225Y328.789
G1 X24.933Y329.767
G1 X25.664Y330.728
G1 X26.417Y331.67
G1 X27.193Y332.594
G1 X27.989Y333.498
G1 X28.806Y334.382
G1 X29.645Y335.247
G1 X30.503Y336.091
G1 X31.381Y336.915
G1 X32.279Y337.717
G1 X33.195Y338.498
G1 X34.131Y339.257
G1 X35.084Y339.993
G1 X36.055Y340.707
G1 X37.044Y341.398
G1 X38.05Y342.065
G1 X39.073Y342.708
G1 X40.112Y343.327
G1 X41.167Y343.921
G1 X42.237Y344.49
G1 X43.323Y345.033
G1 X44.423Y345.551
G1 X45.538Y346.042
G1 X46.666Y346.506
G1 X47.808Y346.944
G1 X48.963Y347.354
G1 X50.131Y347.736
G1 X51.312Y348.089
G1 X52.504Y348.414
G1 X53.708Y348.71
G1 X54.923Y348.977
G1 X56.149Y349.213
G1 X57.385Y349.42
G1 X58.632Y349.595
G1 X59.888Y349.74
G1 X61.153Y349.853
G1 X62.427Y349.935
G1 X63.709Y349.984
G1 X65Y350
; Layer C19 Pass 3 of 3
G1 X63.709Y349.984
G1 X62.427Y349.935
G1 X61.153Y349.853
G1 X59.888Y349.74
G1 X58.632Y349.595
G1 X57.385Y349.42
G1 X56.149Y349.213
G1 X54.923Y348.977
G1 X53.708Y348.71
G1 X52.504Y348.414
G1 X51.312Y348.089
G1 X50.131Y347.736
G1 X48.963Y347.354
G1 X47.808Y346.944
G1 X46.666Y346.506
G1 X45.538Y346.042
G1 X44.423Y345.551
G1 X43.323Y345.033
G1 X42.237Y344.49
G1 X41.167Y343.921
G1 X40.112Y343.327
G1 X39.073Y342.708
G1 X38.05Y342.065
G1 X37.044Y341.398
G1 X36.055Y340.707
G1 X35.084Y339.993
G1 X34.131Y339.257
G1 X33.195Y338.498
G1 X32.279Y337.717
G1 X31.381Y336.915
G1 X30.503Y336.091
G1 X29.645Y335.247
G1 X28.806Y334.382
G1 X27.989Y333.498
G1 X27.193Y332.594
G1 X26.417Y331.67
G1 X25.664Y330.728
G1 X24.933Y329.767
G1 X24.225Y328.789
G1 X23.539Y327.793
G1 X22.877Y326.779
G1 X22.239Y325.749
G1 X21.624Y324.702
G1 X21.035Y323.64
G1 X20.47Y322.561
G1 X19.93Y321.468
G1 X19.417Y320.359
G1 X18.929Y319.237
G1 X18.468Y318.1
G1 X18.034Y316.949
G1 X17.627Y315.785
G1 X17.248Y314.609
G1 X16.897Y313.42
G1 X16.574Y312.219
G1 X16.28Y311.006
G1 X16.016Y309.782
G1 X15.781Y308.547
G1 X15.576Y307.301
G1 X15.402Y306.046
G1 X15.258Y304.78
G1 X15.146Y303.506
G1 X15.065Y302.222
G1 X15.016Y300.931
G1 X15Y299.63
G1 Y100
G1 X15.016Y98.71
G1 X15.065Y97.427
G1 X15.146Y96.153
G1 X15.259Y94.888
G1 X15.403Y93.632
G1 X15.578Y92.386
G1 X15.784Y91.149
G1 X16.02Y89.923
G1 X16.285Y88.708
G1 X16.58Y87.504
G1 X16.904Y86.312
G1 X17.256Y85.132
G1 X17.637Y83.964
G1 X18.045Y82.808
G1 X18.481Y81.666
G1 X18.944Y80.538
G1 X19.433Y79.423
G1 X19.949Y78.323
G1 X20.49Y77.238
G1 X21.057Y76.167
G1 X21.649Y75.112
G1 X22.265Y74.073
G1 X22.906Y73.051
G1 X23.571Y72.045
G1 X24.259Y71.056
G1 X24.97Y70.084
G1 X25.704Y69.131
G1 X26.46Y68.195
G1 X27.238Y67.279
G1 X28.037Y66.381
G1 X28.858Y65.503
G1 X29.699Y64.645
G1 X30.56Y63.807
G1 X31.442Y62.989
G1 X32.343Y62.193
G1 X33.263Y61.418
G1 X34.201Y60.664
G1 X35.158Y59.933
G1 X36.133Y59.225
G1 X37.126Y58.539
G1 X38.136Y57.877
G1 X39.162Y57.239
G1 X40.205Y56.624
G1 X41.264Y56.035
G1 X42.338Y55.47
G1 X43.428Y54.931
G1 X44.532Y54.417
G1 X45.651Y53.929
G1 X46.783Y53.468
G1 X47.93Y53.034
G1 X49.089Y52.627
G1 X50.261Y52.248
G1 X51.446Y51.897
G1 X52.643Y51.574
G1 X53.851Y51.28
G1 X55.071Y51.016
G1 X56.301Y50.781
G1 X57.542Y50.576
G1 X58.793Y50.402
G1 X60.054Y50.258
G1 X61.323Y50.146
G1 X62.602Y50.065
G1 X63.889Y50.016
G1 X65.185Y50
G1 X334.815
G1 X336.111Y50.016
G1 X337.398Y50.066
G1 X338.676Y50.147
G1 X339.946Y50.261
G1 X341.207Y50.406
G1 X342.458Y50.582
G1 X343.699Y50.789
G1 X344.929Y51.027
G1 X346.149Y51.294
G1 X347.357Y51.591
G1 X348.554Y51.917
G1 X349.739Y52.272
G1 X350.911Y52.655
G1 X352.07Y53.067
G1 X353.217Y53.505
G1 X354.349Y53.971
G1 X355.468Y54.464
G1 X356.572Y54.984
G1 X357.662Y55.529
G1 X358.736Y56.1
G1 X359.795Y56.696
G1 X360.838Y57.316
G1 X361.864Y57.962
G1 X362.874Y58.631
G1 X363.866Y59.324
G1 X364.841Y60.04
G1 X365.799Y60.779
G1 X366.737Y61.54
G1 X367.657Y62.324
G1 X368.558Y63.129
G1 X369.44Y63.955
G1 X370.301Y64.802
G1 X371.142Y65.67
G1 X371.963Y66.557
G1 X372.762Y67.464
G1 X373.54Y68.391
G1 X374.296Y69.336
G1 X375.03Y70.3
G1 X375.741Y71.282
G1 X376.429Y72.281
G1 X377.094Y73.298
G1 X377.734Y74.332
G1 X378.351Y75.382
G1 X378.943Y76.448
G1 X379.51Y77.53
G1 X380.051Y78.627
G1 X380.567Y79.739
G1 X381.056Y80.866
G1 X381.519Y82.007
G1 X381.955Y83.161
G1 X382.363Y84.329
G1 X382.744Y85.509
G1 X383.096Y86.702
G1 X383.42Y87.907
G1 X383.715Y89.124
G1 X383.98Y90.352
G1 X384.216Y91.592
G1 X384.422Y92.841
G1 X384.597Y94.101
G1 X384.741Y95.37
G1 X384.854Y96.649
G1 X384.935Y97.937
G1 X384.984Y99.233
G1 X385Y100.537
G1 Y299.815
G1 X384.984Y301.111
G1 X384.934Y302.398
G1 X384.853Y303.677
G1 X384.74Y304.946
G1 X384.595Y306.207
G1 X384.42Y307.458
G1 X384.213Y308.699
G1 X383.977Y309.929
G1 X383.71Y311.149
G1 X383.414Y312.357
G1 X383.089Y313.554
G1 X382.735Y314.739
G1 X382.353Y315.911
G1 X381.944Y317.071
G1 X381.506Y318.217
G1 X381.042Y319.349
G1 X380.55Y320.468
G1 X380.033Y321.573
G1 X379.49Y322.662
G1 X378.921Y323.736
G1 X378.327Y324.795
G1 X377.708Y325.838
G1 X377.065Y326.864
G1 X376.398Y327.874
G1 X375.707Y328.867
G1 X374.993Y329.842
G1 X374.257Y330.799
G1 X373.498Y331.737
G1 X372.717Y332.658
G1 X371.915Y333.558
G1 X371.091Y334.44
G1 X370.247Y335.301
G1 X369.382Y336.142
G1 X368.498Y336.963
G1 X367.594Y337.762
G1 X366.67Y338.54
G1 X365.728Y339.296
G1 X364.767Y340.03
G1 X363.789Y340.741
G1 X362.792Y341.429
G1 X361.779Y342.094
G1 X360.749Y342.735
G1 X359.702Y343.351
G1 X358.64Y343.943
G1 X357.561Y344.51
G1 X356.468Y345.051
G1 X355.359Y345.567
G1 X354.237Y346.056
G1 X353.1Y346.519
G1 X351.949Y346.955
G1 X350.785Y347.363
G1 X349.609Y347.744
G1 X348.42Y348.096
G1 X347.219Y348.42
G1 X346.006Y348.715
G1 X344.782Y348.98
G1 X343.547Y349.216
G1 X342.301Y349.422
G1 X341.046Y349.597
G1 X339.78Y349.741
G1 X338.506Y349.854
G1 X337.222Y349.935
G1 X335.93Y349.984
G1 X334.63Y350
G1 X61.25
M9
G1 S0
M5
G90
; return to user-defined finish pos
G0 X0Y0
M2
