; LightBurn 1.7.04
; GRBL device profile, absolute coords
; Bounds: X129.42 Y107.71 to X270.58 Y292.29
G00 G17 G40 G21 G54
G90
M4
; Cut @ 1 mm/sec, 100% power
M8
G0 X160.024Y287.767
; Layer C01
G1 X160.067Y287.339S1000F60
G1 X160.191Y286.94
G1 X160.387Y286.579
G1 X160.646Y286.264
G1 X160.961Y286.005
G1 X161.322Y285.809
G1 X161.721Y285.685
G1 X162.149Y285.642
G1 X162.577Y285.685
G1 X162.976Y285.809
G1 X163.337Y286.005
G1 X163.651Y286.264
G1 X163.911Y286.579
G1 X164.107Y286.94
G1 X164.231Y287.339
G1 X164.274Y287.767
G1 X164.231Y288.195
G1 X164.107Y288.594
G1 X163.911Y288.955
G1 X163.651Y289.27
G1 X163.337Y289.529
G1 X162.976Y289.725
G1 X162.577Y289.849
G1 X162.149Y289.892
G1 X161.721Y289.849
G1 X161.322Y289.725
G1 X160.961Y289.529
G1 X160.646Y289.27
G1 X160.387Y288.955
G1 X160.191Y288.594
G1 X160.067Y288.195
G1 X160.024Y287.767
G1 X160.067Y287.339
G1 X160.038Y287.699
G0 X164.274Y276.525
G1 X164.231Y276.096
G1 X164.107Y275.698
G1 X163.911Y275.337
G1 X163.651Y275.022
G1 X163.337Y274.763
G1 X162.976Y274.567
G1 X162.577Y274.443
G1 X162.149Y274.4
G1 X161.721Y274.443
G1 X161.322Y274.567
G1 X160.961Y274.763
G1 X160.646Y275.022
G1 X160.387Y275.337
G1 X160.191Y275.698
G1 X160.067Y276.096
G1 X160.024Y276.525
G1 X160.067Y276.953
G1 X160.191Y277.352
G1 X160.387Y277.713
G1 X160.646Y278.027
G1 X160.961Y278.287
G1 X161.322Y278.483
G1 X161.721Y278.607
G1 X162.149Y278.65
G1 X162.577Y278.607
G1 X162.976Y278.483
G1 X163.337Y278.287
G1 X163.651Y278.027
G1 X163.911Y277.713
G1 X164.107Y277.352
G1 X164.231Y276.953
G1 X164.274Y276.525
G1 X164.231Y276.096
G1 X164.26Y276.457
G0 X236.662Y289.892
G1 X237.09Y289.849
G1 X237.489Y289.725
G1 X237.85Y289.529
G1 X238.165Y289.27
G1 X238.424Y288.955
G1 X238.62Y288.594
G1 X238.744Y288.195
G1 X238.787Y287.767
G1 X238.744Y287.339
G1 X238.62Y286.94
G1 X238.424Y286.579
G1 X238.165Y286.264
G1 X237.85Y286.005
G1 X237.489Y285.809
G1 X237.09Y285.685
G1 X236.662Y285.642
G1 X236.234Y285.685
G1 X235.835Y285.809
G1 X235.474Y286.005
G1 X235.159Y286.264
G1 X234.9Y286.579
G1 X234.704Y286.94
G1 X234.58Y287.339
G1 X234.537Y287.767
G1 X234.58Y288.195
G1 X234.704Y288.594
G1 X234.9Y288.955
G1 X235.159Y289.27
G1 X235.474Y289.529
G1 X235.835Y289.725
G1 X236.234Y289.849
G1 X236.662Y289.892
G1 X237.09Y289.849
G1 X236.73Y289.878
G0 X238.787Y276.525
G1 X238.744Y276.096
G1 X238.62Y275.698
G1 X238.424Y275.337
G1 X238.165Y275.022
G1 X237.85Y274.763
G1 X237.489Y274.567
G1 X237.09Y274.443
G1 X236.662Y274.4
G1 X236.234Y274.443
G1 X235.835Y274.567
G1 X235.474Y274.763
G1 X235.159Y275.022
G1 X234.9Y275.337
G1 X234.704Y275.698
G1 X234.58Y276.096
G1 X234.537Y276.525
G1 X234.58Y276.953
G1 X234.704Y277.352
G1 X234.9Y277.713
G1 X235.159Y278.027
G1 X235.474Y278.287
G1 X235.835Y278.483
G1 X236.234Y278.607
G1 X236.662Y278.65
G1 X237.09Y278.607
G1 X237.489Y278.483
G1 X237.85Y278.287
G1 X238.165Y278.027
G1 X238.424Y277.713
G1 X238.62Y277.352
G1 X238.744Y276.953
G1 X238.787Y276.525
G1 X238.744Y276.096
G1 X238.773Y276.457
G0 X193.698Y287.767
G1 X193.741Y288.195
G1 X193.865Y288.594
G1 X194.061Y288.955
G1 X194.321Y289.27
G1 X194.635Y289.529
G1 X194.996Y289.725
G1 X195.395Y289.849
G1 X195.823Y289.892
G1 X196.251Y289.849
G1 X196.65Y289.725
G1 X197.011Y289.529
G1 X197.326Y289.27
G1 X197.585Y288.955
G1 X197.781Y288.594
G1 X197.905Y288.195
G1 X197.948Y287.767
G1 X197.905Y287.339
G1 X197.781Y286.94
G1 X197.585Y286.579
G1 X197.326Y286.264
G1 X197.011Y286.005
G1 X196.65Y285.809
G1 X196.251Y285.685
G1 X195.823Y285.642
G1 X195.395Y285.685
G1 X194.996Y285.809
G1 X194.635Y286.005
G1 X194.321Y286.264
G1 X194.061Y286.579
G1 X193.865Y286.94
G1 X193.741Y287.339
G1 X193.698Y287.767
G1 X193.741Y288.195
G1 X193.712Y287.835
G0 X205.709Y276.525
G1 X205.666Y276.096
G1 X205.542Y275.698
G1 X205.346Y275.337
G1 X205.087Y275.022
G1 X204.772Y274.763
G1 X204.411Y274.567
G1 X204.012Y274.443
G1 X203.584Y274.4
G1 X203.156Y274.443
G1 X202.757Y274.567
G1 X202.396Y274.763
G1 X202.082Y275.022
G1 X201.822Y275.337
G1 X201.626Y275.698
G1 X201.503Y276.096
G1 X201.459Y276.525
G1 X201.503Y276.953
G1 X201.626Y277.352
G1 X201.822Y277.713
G1 X202.082Y278.027
G1 X202.396Y278.287
G1 X202.757Y278.483
G1 X203.156Y278.607
G1 X203.584Y278.65
G1 X204.012Y278.607
G1 X204.411Y278.483
G1 X204.772Y278.287
G1 X205.087Y278.027
G1 X205.346Y277.713
G1 X205.542Y277.352
G1 X205.666Y276.953
G1 X205.709Y276.525
G1 X205.666Y276.096
G1 X205.695Y276.457
G0 X162.094Y263.059
G1 X161.666Y263.102
G1 X161.267Y263.226
G1 X160.906Y263.422
G1 X160.592Y263.682
G1 X160.332Y263.996
G1 X160.136Y264.357
G1 X160.013Y264.756
G1 X159.969Y265.184
G1 X160.013Y265.613
G1 X160.136Y266.012
G1 X160.332Y266.373
G1 X160.592Y266.687
G1 X160.906Y266.947
G1 X161.267Y267.143
G1 X161.666Y267.266
G1 X162.094Y267.31
G1 X162.523Y267.266
G1 X162.921Y267.143
G1 X163.282Y266.947
G1 X163.597Y266.687
G1 X163.856Y266.373
G1 X164.052Y266.012
G1 X164.176Y265.613
G1 X164.219Y265.184
G1 X164.176Y264.756
G1 X164.052Y264.357
G1 X163.856Y263.996
G1 X163.597Y263.682
G1 X163.282Y263.422
G1 X162.921Y263.226
G1 X162.523Y263.102
G1 X162.094Y263.059
G1 X161.666Y263.102
G1 X162.026Y263.073
G0 X145.86Y267.003
G1 X145.903Y267.432
G1 X146.027Y267.831
G1 X146.223Y268.192
G1 X146.483Y268.506
G1 X146.797Y268.766
G1 X147.158Y268.961
G1 X147.557Y269.085
G1 X147.985Y269.128
G1 X148.414Y269.085
G1 X148.813Y268.961
G1 X149.174Y268.766
G1 X149.488Y268.506
G1 X149.748Y268.192
G1 X149.943Y267.831
G1 X150.067Y267.432
G1 X150.11Y267.003
G1 X150.067Y266.575
G1 X149.943Y266.176
G1 X149.748Y265.815
G1 X149.488Y265.501
G1 X149.174Y265.242
G1 X148.813Y265.046
G1 X148.414Y264.922
G1 X147.985Y264.879
G1 X147.557Y264.922
G1 X147.158Y265.046
G1 X146.797Y265.242
G1 X146.483Y265.501
G1 X146.223Y265.815
G1 X146.027Y266.176
G1 X145.903Y266.575
G1 X145.86Y267.003
G1 X145.903Y267.432
G1 X145.874Y267.072
G0 X164.219Y253.942
G1 X164.176Y253.514
G1 X164.052Y253.115
G1 X163.856Y252.754
G1 X163.597Y252.44
G1 X163.282Y252.18
G1 X162.921Y251.984
G1 X162.523Y251.86
G1 X162.094Y251.817
G1 X161.666Y251.86
G1 X161.267Y251.984
G1 X160.906Y252.18
G1 X160.592Y252.44
G1 X160.332Y252.754
G1 X160.136Y253.115
G1 X160.013Y253.514
G1 X159.969Y253.942
G1 X160.013Y254.371
G1 X160.136Y254.77
G1 X160.332Y255.131
G1 X160.592Y255.445
G1 X160.906Y255.705
G1 X161.267Y255.901
G1 X161.666Y256.024
G1 X162.094Y256.068
G1 X162.523Y256.024
G1 X162.921Y255.901
G1 X163.282Y255.705
G1 X163.597Y255.445
G1 X163.856Y255.131
G1 X164.052Y254.77
G1 X164.176Y254.371
G1 X164.219Y253.942
G1 X164.176Y253.514
G1 X164.206Y253.874
G0 X195.768Y267.31
G1 X196.197Y267.266
G1 X196.596Y267.143
G1 X196.957Y266.947
G1 X197.271Y266.687
G1 X197.531Y266.373
G1 X197.727Y266.012
G1 X197.85Y265.613
G1 X197.894Y265.184
G1 X197.85Y264.756
G1 X197.727Y264.357
G1 X197.531Y263.996
G1 X197.271Y263.682
G1 X196.957Y263.422
G1 X196.596Y263.226
G1 X196.197Y263.102
G1 X195.768Y263.059
G1 X195.34Y263.102
G1 X194.941Y263.226
G1 X194.581Y263.422
G1 X194.266Y263.682
G1 X194.007Y263.996
G1 X193.811Y264.357
G1 X193.687Y264.756
G1 X193.644Y265.184
G1 X193.687Y265.613
G1 X193.811Y266.012
G1 X194.007Y266.373
G1 X194.266Y266.687
G1 X194.581Y266.947
G1 X194.941Y267.143
G1 X195.34Y267.266
G1 X195.768Y267.31
G1 X196.197Y267.266
G1 X195.837Y267.296
G0 X244.676Y292.117
G1 Y272.116
G1 X154.725
G1 Y292.117
G1 X244.676
G1 Y291.617
G0 X236.607Y263.059
G1 X236.179Y263.102
G1 X235.78Y263.226
G1 X235.419Y263.422
G1 X235.105Y263.682
G1 X234.845Y263.996
G1 X234.65Y264.357
G1 X234.526Y264.756
G1 X234.483Y265.184
G1 X234.526Y265.613
G1 X234.65Y266.012
G1 X234.845Y266.373
G1 X235.105Y266.687
G1 X235.419Y266.947
G1 X235.78Y267.143
G1 X236.179Y267.266
G1 X236.607Y267.31
G1 X237.036Y267.266
G1 X237.435Y267.143
G1 X237.796Y266.947
G1 X238.11Y266.687
G1 X238.37Y266.373
G1 X238.565Y266.012
G1 X238.689Y265.613
G1 X238.732Y265.184
G1 X238.689Y264.756
G1 X238.565Y264.357
G1 X238.37Y263.996
G1 X238.11Y263.682
G1 X237.796Y263.422
G1 X237.435Y263.226
G1 X237.036Y263.102
G1 X236.607Y263.059
G1 X236.179Y263.102
G1 X236.539Y263.073
G0 X238.732Y253.942
G1 X238.689Y253.514
G1 X238.565Y253.115
G1 X238.37Y252.754
G1 X238.11Y252.44
G1 X237.796Y252.18
G1 X237.435Y251.984
G1 X237.036Y251.86
G1 X236.607Y251.817
G1 X236.179Y251.86
G1 X235.78Y251.984
G1 X235.419Y252.18
G1 X235.105Y252.44
G1 X234.845Y252.754
G1 X234.65Y253.115
G1 X234.526Y253.514
G1 X234.483Y253.942
G1 X234.526Y254.371
G1 X234.65Y254.77
G1 X234.845Y255.131
G1 X235.105Y255.445
G1 X235.419Y255.705
G1 X235.78Y255.901
G1 X236.179Y256.024
G1 X236.607Y256.068
G1 X237.036Y256.024
G1 X237.435Y255.901
G1 X237.796Y255.705
G1 X238.11Y255.445
G1 X238.37Y255.131
G1 X238.565Y254.77
G1 X238.689Y254.371
G1 X238.732Y253.942
G1 X238.689Y253.514
G1 X238.719Y253.874
G0 X203.53Y251.817
G1 X203.101Y251.86
G1 X202.703Y251.984
G1 X202.342Y252.18
G1 X202.027Y252.44
G1 X201.768Y252.754
G1 X201.572Y253.115
G1 X201.448Y253.514
G1 X201.405Y253.942
G1 X201.448Y254.371
G1 X201.572Y254.77
G1 X201.768Y255.131
G1 X202.027Y255.445
G1 X202.342Y255.705
G1 X202.703Y255.901
G1 X203.101Y256.024
G1 X203.53Y256.068
G1 X203.958Y256.024
G1 X204.357Y255.901
G1 X204.718Y255.705
G1 X205.032Y255.445
G1 X205.292Y255.131
G1 X205.488Y254.77
G1 X205.612Y254.371
G1 X205.655Y253.942
G1 X205.612Y253.514
G1 X205.488Y253.115
G1 X205.292Y252.754
G1 X205.032Y252.44
G1 X204.718Y252.18
G1 X204.357Y251.984
G1 X203.958Y251.86
G1 X203.53Y251.817
G1 X203.101Y251.86
G1 X203.461Y251.831
G0 X240.496Y242.405
G1 X240.453Y241.977
G1 X240.329Y241.578
G1 X240.133Y241.217
G1 X239.874Y240.903
G1 X239.559Y240.643
G1 X239.198Y240.447
G1 X238.799Y240.323
G1 X238.371Y240.28
G1 X237.943Y240.323
G1 X237.544Y240.447
G1 X237.183Y240.643
G1 X236.869Y240.903
G1 X236.609Y241.217
G1 X236.413Y241.578
G1 X236.29Y241.977
G1 X236.246Y242.405
G1 X236.29Y242.834
G1 X236.413Y243.233
G1 X236.609Y243.594
G1 X236.869Y243.908
G1 X237.183Y244.168
G1 X237.544Y244.364
G1 X237.943Y244.487
G1 X238.371Y244.531
G1 X238.799Y244.487
G1 X239.198Y244.364
G1 X239.559Y244.168
G1 X239.874Y243.908
G1 X240.133Y243.594
G1 X240.329Y243.233
G1 X240.453Y242.834
G1 X240.496Y242.405
G1 X240.453Y241.977
G1 X240.483Y242.337
G0 X219.01Y234.8
G1 X218.582Y234.843
G1 X218.183Y234.967
G1 X217.822Y235.163
G1 X217.508Y235.422
G1 X217.248Y235.737
G1 X217.052Y236.098
G1 X216.929Y236.497
G1 X216.885Y236.925
G1 X216.929Y237.353
G1 X217.052Y237.752
G1 X217.248Y238.113
G1 X217.508Y238.428
G1 X217.822Y238.687
G1 X218.183Y238.883
G1 X218.582Y239.007
G1 X219.01Y239.05
G1 X219.438Y239.007
G1 X219.837Y238.883
G1 X220.198Y238.687
G1 X220.513Y238.428
G1 X220.772Y238.113
G1 X220.968Y237.752
G1 X221.092Y237.353
G1 X221.135Y236.925
G1 X221.092Y236.497
G1 X220.968Y236.098
G1 X220.772Y235.737
G1 X220.513Y235.422
G1 X220.198Y235.163
G1 X219.837Y234.967
G1 X219.438Y234.843
G1 X219.01Y234.8
G1 X218.582Y234.843
G1 X218.942Y234.814
G0 X242.613Y230.105
G1 X242.57Y229.677
G1 X242.446Y229.278
G1 X242.25Y228.917
G1 X241.991Y228.602
G1 X241.676Y228.343
G1 X241.315Y228.147
G1 X240.916Y228.023
G1 X240.488Y227.98
G1 X240.06Y228.023
G1 X239.661Y228.147
G1 X239.3Y228.343
G1 X238.985Y228.602
G1 X238.726Y228.917
G1 X238.53Y229.278
G1 X238.406Y229.677
G1 X238.363Y230.105
G1 X238.406Y230.533
G1 X238.53Y230.932
G1 X238.726Y231.293
G1 X238.985Y231.608
G1 X239.3Y231.867
G1 X239.661Y232.063
G1 X240.06Y232.187
G1 X240.488Y232.23
G1 X240.916Y232.187
G1 X241.315Y232.063
G1 X241.676Y231.867
G1 X241.991Y231.608
G1 X242.25Y231.293
G1 X242.446Y230.932
G1 X242.57Y230.533
G1 X242.613Y230.105
G1 X242.57Y229.677
G1 X242.599Y230.037
G0 X197.524Y242.405
G1 X197.567Y242.834
G1 X197.691Y243.233
G1 X197.887Y243.594
G1 X198.147Y243.908
G1 X198.461Y244.168
G1 X198.822Y244.364
G1 X199.221Y244.487
G1 X199.649Y244.531
G1 X200.077Y244.487
G1 X200.476Y244.364
G1 X200.837Y244.168
G1 X201.152Y243.908
G1 X201.411Y243.594
G1 X201.607Y243.233
G1 X201.731Y242.834
G1 X201.774Y242.405
G1 X201.731Y241.977
G1 X201.607Y241.578
G1 X201.411Y241.217
G1 X201.152Y240.903
G1 X200.837Y240.643
G1 X200.476Y240.447
G1 X200.077Y240.323
G1 X199.649Y240.28
G1 X199.221Y240.323
G1 X198.822Y240.447
G1 X198.461Y240.643
G1 X198.147Y240.903
G1 X197.887Y241.217
G1 X197.691Y241.578
G1 X197.567Y241.977
G1 X197.524Y242.405
G1 X197.567Y242.834
G1 X197.538Y242.474
G0 X161.036Y240.28
G1 X160.608Y240.323
G1 X160.209Y240.447
G1 X159.848Y240.643
G1 X159.534Y240.903
G1 X159.274Y241.217
G1 X159.078Y241.578
G1 X158.954Y241.977
G1 X158.911Y242.405
G1 X158.954Y242.834
G1 X159.078Y243.233
G1 X159.274Y243.594
G1 X159.534Y243.908
G1 X159.848Y244.168
G1 X160.209Y244.364
G1 X160.608Y244.487
G1 X161.036Y244.531
G1 X161.464Y244.487
G1 X161.863Y244.364
G1 X162.224Y244.168
G1 X162.539Y243.908
G1 X162.798Y243.594
G1 X162.994Y243.233
G1 X163.118Y242.834
G1 X163.161Y242.405
G1 X163.118Y241.977
G1 X162.994Y241.578
G1 X162.798Y241.217
G1 X162.539Y240.903
G1 X162.224Y240.643
G1 X161.863Y240.447
G1 X161.464Y240.323
G1 X161.036Y240.28
G1 X160.608Y240.323
G1 X160.968Y240.294
G0 X182.522Y236.925
G1 X182.479Y236.497
G1 X182.355Y236.098
G1 X182.159Y235.737
G1 X181.9Y235.422
G1 X181.585Y235.163
G1 X181.224Y234.967
G1 X180.825Y234.843
G1 X180.397Y234.8
G1 X179.969Y234.843
G1 X179.57Y234.967
G1 X179.209Y235.163
G1 X178.895Y235.422
G1 X178.635Y235.737
G1 X178.439Y236.098
G1 X178.315Y236.497
G1 X178.272Y236.925
G1 X178.315Y237.353
G1 X178.439Y237.752
G1 X178.635Y238.113
G1 X178.895Y238.428
G1 X179.209Y238.687
G1 X179.57Y238.883
G1 X179.969Y239.007
G1 X180.397Y239.05
G1 X180.825Y239.007
G1 X181.224Y238.883
G1 X181.585Y238.687
G1 X181.9Y238.428
G1 X182.159Y238.113
G1 X182.355Y237.752
G1 X182.479Y237.353
G1 X182.522Y236.925
G1 X182.479Y236.497
G1 X182.508Y236.857
G0 X201.774Y230.105
G1 X201.731Y229.677
G1 X201.607Y229.278
G1 X201.411Y228.917
G1 X201.152Y228.602
G1 X200.837Y228.343
G1 X200.476Y228.147
G1 X200.077Y228.023
G1 X199.649Y227.98
G1 X199.221Y228.023
G1 X198.822Y228.147
G1 X198.461Y228.343
G1 X198.147Y228.602
G1 X197.887Y228.917
G1 X197.691Y229.278
G1 X197.567Y229.677
G1 X197.524Y230.105
G1 X197.567Y230.533
G1 X197.691Y230.932
G1 X197.887Y231.293
G1 X198.147Y231.608
G1 X198.461Y231.867
G1 X198.822Y232.063
G1 X199.221Y232.187
G1 X199.649Y232.23
G1 X200.077Y232.187
G1 X200.476Y232.063
G1 X200.837Y231.867
G1 X201.152Y231.608
G1 X201.411Y231.293
G1 X201.607Y230.932
G1 X201.731Y230.533
G1 X201.774Y230.105
G1 X201.731Y229.677
G1 X201.76Y230.037
G0 X199.609Y217.478
G1 X199.181Y217.521
G1 X198.783Y217.645
G1 X198.422Y217.841
G1 X198.107Y218.101
G1 X197.848Y218.415
G1 X197.652Y218.776
G1 X197.528Y219.175
G1 X197.485Y219.603
G1 X197.528Y220.032
G1 X197.652Y220.431
G1 X197.848Y220.792
G1 X198.107Y221.106
G1 X198.422Y221.366
G1 X198.783Y221.561
G1 X199.181Y221.685
G1 X199.609Y221.728
G1 X200.038Y221.685
G1 X200.437Y221.561
G1 X200.798Y221.366
G1 X201.112Y221.106
G1 X201.372Y220.792
G1 X201.568Y220.431
G1 X201.691Y220.032
G1 X201.735Y219.603
G1 X201.691Y219.175
G1 X201.568Y218.776
G1 X201.372Y218.415
G1 X201.112Y218.101
G1 X200.798Y217.841
G1 X200.437Y217.645
G1 X200.038Y217.521
G1 X199.609Y217.478
G1 X199.181Y217.521
G1 X199.541Y217.492
G0 X156.442Y230.105
G1 X156.485Y230.533
G1 X156.609Y230.932
G1 X156.805Y231.293
G1 X157.064Y231.608
G1 X157.379Y231.867
G1 X157.739Y232.063
G1 X158.138Y232.187
G1 X158.566Y232.23
G1 X158.995Y232.187
G1 X159.394Y232.063
G1 X159.755Y231.867
G1 X160.069Y231.608
G1 X160.329Y231.293
G1 X160.525Y230.932
G1 X160.648Y230.533
G1 X160.692Y230.105
G1 X160.648Y229.677
G1 X160.525Y229.278
G1 X160.329Y228.917
G1 X160.069Y228.602
G1 X159.755Y228.343
G1 X159.394Y228.147
G1 X158.995Y228.023
G1 X158.566Y227.98
G1 X158.138Y228.023
G1 X157.739Y228.147
G1 X157.379Y228.343
G1 X157.064Y228.602
G1 X156.805Y228.917
G1 X156.609Y229.278
G1 X156.485Y229.677
G1 X156.442Y230.105
G1 X156.485Y230.533
G1 X156.455Y230.173
G0 X163.122Y219.603
G1 X163.078Y219.175
G1 X162.955Y218.776
G1 X162.759Y218.415
G1 X162.499Y218.101
G1 X162.185Y217.841
G1 X161.824Y217.645
G1 X161.425Y217.521
G1 X160.996Y217.478
G1 X160.568Y217.521
G1 X160.169Y217.645
G1 X159.808Y217.841
G1 X159.494Y218.101
G1 X159.235Y218.415
G1 X159.039Y218.776
G1 X158.915Y219.175
G1 X158.872Y219.603
G1 X158.915Y220.032
G1 X159.039Y220.431
G1 X159.235Y220.792
G1 X159.494Y221.106
G1 X159.808Y221.366
G1 X160.169Y221.561
G1 X160.568Y221.685
G1 X160.996Y221.728
G1 X161.425Y221.685
G1 X161.824Y221.561
G1 X162.185Y221.366
G1 X162.499Y221.106
G1 X162.759Y220.792
G1 X162.955Y220.431
G1 X163.078Y220.032
G1 X163.122Y219.603
G1 X163.078Y219.175
G1 X163.108Y219.535
G0 X182.483Y214.123
G1 X182.439Y213.695
G1 X182.316Y213.296
G1 X182.12Y212.935
G1 X181.86Y212.62
G1 X181.546Y212.361
G1 X181.185Y212.165
G1 X180.786Y212.041
G1 X180.357Y211.998
G1 X179.929Y212.041
G1 X179.53Y212.165
G1 X179.17Y212.361
G1 X178.855Y212.62
G1 X178.596Y212.935
G1 X178.4Y213.296
G1 X178.276Y213.695
G1 X178.233Y214.123
G1 X178.276Y214.551
G1 X178.4Y214.95
G1 X178.596Y215.311
G1 X178.855Y215.626
G1 X179.17Y215.885
G1 X179.53Y216.081
G1 X179.929Y216.205
G1 X180.357Y216.248
G1 X180.786Y216.205
G1 X181.185Y216.081
G1 X181.546Y215.885
G1 X181.86Y215.626
G1 X182.12Y215.311
G1 X182.316Y214.95
G1 X182.439Y214.551
G1 X182.483Y214.123
G1 X182.439Y213.695
G1 X182.469Y214.055
G0 X158.527Y205.178
G1 X158.099Y205.221
G1 X157.7Y205.345
G1 X157.339Y205.541
G1 X157.025Y205.8
G1 X156.765Y206.115
G1 X156.569Y206.476
G1 X156.445Y206.875
G1 X156.402Y207.303
G1 X156.445Y207.731
G1 X156.569Y208.13
G1 X156.765Y208.491
G1 X157.025Y208.806
G1 X157.339Y209.065
G1 X157.7Y209.261
G1 X158.099Y209.385
G1 X158.527Y209.428
G1 X158.955Y209.385
G1 X159.354Y209.261
G1 X159.715Y209.065
G1 X160.03Y208.806
G1 X160.289Y208.491
G1 X160.485Y208.13
G1 X160.609Y207.731
G1 X160.652Y207.303
G1 X160.609Y206.875
G1 X160.485Y206.476
G1 X160.289Y206.115
G1 X160.03Y205.8
G1 X159.715Y205.541
G1 X159.354Y205.345
G1 X158.955Y205.221
G1 X158.527Y205.178
G1 X158.099Y205.221
G1 X158.459Y205.192
G0 X132.319Y236.17
G1 X132.362Y236.598
G1 X132.486Y236.997
G1 X132.682Y237.358
G1 X132.942Y237.672
G1 X133.256Y237.932
G1 X133.617Y238.128
G1 X134.016Y238.252
G1 X134.444Y238.295
G1 X134.873Y238.252
G1 X135.272Y238.128
G1 X135.633Y237.932
G1 X135.947Y237.672
G1 X136.207Y237.358
G1 X136.402Y236.997
G1 X136.526Y236.598
G1 X136.569Y236.17
G1 X136.526Y235.741
G1 X136.402Y235.343
G1 X136.207Y234.982
G1 X135.947Y234.667
G1 X135.633Y234.408
G1 X135.272Y234.212
G1 X134.873Y234.088
G1 X134.444Y234.045
G1 X134.016Y234.088
G1 X133.617Y234.212
G1 X133.256Y234.408
G1 X132.942Y234.667
G1 X132.682Y234.982
G1 X132.486Y235.343
G1 X132.362Y235.741
G1 X132.319Y236.17
G1 X132.362Y236.598
G1 X132.333Y236.238
G0 X147.985Y238.295
G1 X148.414Y238.252
G1 X148.813Y238.128
G1 X149.174Y237.932
G1 X149.488Y237.672
G1 X149.748Y237.358
G1 X149.943Y236.997
G1 X150.067Y236.598
G1 X150.11Y236.17
G1 X150.067Y235.741
G1 X149.943Y235.343
G1 X149.748Y234.982
G1 X149.488Y234.667
G1 X149.174Y234.408
G1 X148.813Y234.212
G1 X148.414Y234.088
G1 X147.985Y234.045
G1 X147.557Y234.088
G1 X147.158Y234.212
G1 X146.797Y234.408
G1 X146.483Y234.667
G1 X146.223Y234.982
G1 X146.027Y235.343
G1 X145.903Y235.741
G1 X145.86Y236.17
G1 X145.903Y236.598
G1 X146.027Y236.997
G1 X146.223Y237.358
G1 X146.483Y237.672
G1 X146.797Y237.932
G1 X147.158Y238.128
G1 X147.557Y238.252
G1 X147.985Y238.295
G1 X148.414Y238.252
G1 X148.053Y238.281
G0 X132.319Y256.515
G1 X132.362Y256.943
G1 X132.486Y257.342
G1 X132.682Y257.703
G1 X132.942Y258.018
G1 X133.256Y258.277
G1 X133.617Y258.473
G1 X134.016Y258.597
G1 X134.444Y258.64
G1 X134.873Y258.597
G1 X135.272Y258.473
G1 X135.633Y258.277
G1 X135.947Y258.018
G1 X136.207Y257.703
G1 X136.402Y257.342
G1 X136.526Y256.943
G1 X136.569Y256.515
G1 X136.526Y256.087
G1 X136.402Y255.688
G1 X136.207Y255.327
G1 X135.947Y255.012
G1 X135.633Y254.753
G1 X135.272Y254.557
G1 X134.873Y254.433
G1 X134.444Y254.39
G1 X134.016Y254.433
G1 X133.617Y254.557
G1 X133.256Y254.753
G1 X132.942Y255.012
G1 X132.682Y255.327
G1 X132.486Y255.688
G1 X132.362Y256.087
G1 X132.319Y256.515
G1 X132.362Y256.943
G1 X132.333Y256.583
G0 X134.444Y269.128
G1 X134.873Y269.085
G1 X135.272Y268.961
G1 X135.633Y268.766
G1 X135.947Y268.506
G1 X136.207Y268.192
G1 X136.402Y267.831
G1 X136.526Y267.432
G1 X136.569Y267.003
G1 X136.526Y266.575
G1 X136.402Y266.176
G1 X136.207Y265.815
G1 X135.947Y265.501
G1 X135.633Y265.242
G1 X135.272Y265.046
G1 X134.873Y264.922
G1 X134.444Y264.879
G1 X134.016Y264.922
G1 X133.617Y265.046
G1 X133.256Y265.242
G1 X132.942Y265.501
G1 X132.682Y265.815
G1 X132.486Y266.176
G1 X132.362Y266.575
G1 X132.319Y267.003
G1 X132.362Y267.432
G1 X132.486Y267.831
G1 X132.682Y268.192
G1 X132.942Y268.506
G1 X133.256Y268.766
G1 X133.617Y268.961
G1 X134.016Y269.085
G1 X134.444Y269.128
G1 X134.873Y269.085
G1 X134.513Y269.115
G0 X150.11Y256.515
G1 X150.067Y256.087
G1 X149.943Y255.688
G1 X149.748Y255.327
G1 X149.488Y255.012
G1 X149.174Y254.753
G1 X148.813Y254.557
G1 X148.414Y254.433
G1 X147.985Y254.39
G1 X147.557Y254.433
G1 X147.158Y254.557
G1 X146.797Y254.753
G1 X146.483Y255.012
G1 X146.223Y255.327
G1 X146.027Y255.688
G1 X145.903Y256.087
G1 X145.86Y256.515
G1 X145.903Y256.943
G1 X146.027Y257.342
G1 X146.223Y257.703
G1 X146.483Y258.018
G1 X146.797Y258.277
G1 X147.158Y258.473
G1 X147.557Y258.597
G1 X147.985Y258.64
G1 X148.414Y258.597
G1 X148.813Y258.473
G1 X149.174Y258.277
G1 X149.488Y258.018
G1 X149.748Y257.703
G1 X149.943Y257.342
G1 X150.067Y256.943
G1 X150.11Y256.515
G1 X150.067Y256.087
G1 X150.097Y256.447
G0 X143.001Y251.328
G1 X142.126Y251.303
G1 X141.277Y251.227
G1 X140.456Y251.104
G1 X139.67Y250.935
G1 X138.922Y250.725
G1 X138.217Y250.475
G1 X137.558Y250.187
G1 X136.951Y249.864
G1 X136.398Y249.509
G1 X135.906Y249.124
G1 X135.477Y248.712
G1 X135.117Y248.275
G1 X134.829Y247.815
G1 X134.618Y247.336
G1 X134.489Y246.84
G1 X134.444Y246.328
G1 X134.489Y245.817
G1 X134.618Y245.321
G1 X134.829Y244.842
G1 X135.117Y244.382
G1 X135.477Y243.945
G1 X135.906Y243.533
G1 X136.398Y243.148
G1 X136.951Y242.793
G1 X137.558Y242.47
G1 X138.217Y242.182
G1 X138.922Y241.932
G1 X139.67Y241.721
G1 X140.456Y241.553
G1 X141.277Y241.43
G1 X142.126Y241.354
G1 X143.001Y241.328
G1 Y231.328
G1 X153.001
G1 Y261.328
G1 X143.001
G1 Y251.328
G1 X142.501Y251.314
G0 X132.319Y287.349
G1 X132.362Y287.777
G1 X132.486Y288.176
G1 X132.682Y288.537
G1 X132.942Y288.851
G1 X133.256Y289.111
G1 X133.617Y289.307
G1 X134.016Y289.431
G1 X134.444Y289.474
G1 X134.873Y289.431
G1 X135.272Y289.307
G1 X135.633Y289.111
G1 X135.947Y288.851
G1 X136.207Y288.537
G1 X136.402Y288.176
G1 X136.526Y287.777
G1 X136.569Y287.349
G1 X136.526Y286.92
G1 X136.402Y286.522
G1 X136.207Y286.161
G1 X135.947Y285.846
G1 X135.633Y285.587
G1 X135.272Y285.391
G1 X134.873Y285.267
G1 X134.444Y285.224
G1 X134.016Y285.267
G1 X133.617Y285.391
G1 X133.256Y285.587
G1 X132.942Y285.846
G1 X132.682Y286.161
G1 X132.486Y286.522
G1 X132.362Y286.92
G1 X132.319Y287.349
G1 X132.362Y287.777
G1 X132.333Y287.417
G0 X221.096Y214.123
G1 X221.053Y213.695
G1 X220.929Y213.296
G1 X220.733Y212.935
G1 X220.473Y212.62
G1 X220.159Y212.361
G1 X219.798Y212.165
G1 X219.399Y212.041
G1 X218.971Y211.998
G1 X218.542Y212.041
G1 X218.144Y212.165
G1 X217.783Y212.361
G1 X217.468Y212.62
G1 X217.209Y212.935
G1 X217.013Y213.296
G1 X216.889Y213.695
G1 X216.846Y214.123
G1 X216.889Y214.551
G1 X217.013Y214.95
G1 X217.209Y215.311
G1 X217.468Y215.626
G1 X217.783Y215.885
G1 X218.144Y216.081
G1 X218.542Y216.205
G1 X218.971Y216.248
G1 X219.399Y216.205
G1 X219.798Y216.081
G1 X220.159Y215.885
G1 X220.473Y215.626
G1 X220.733Y215.311
G1 X220.929Y214.95
G1 X221.053Y214.551
G1 X221.096Y214.123
G1 X221.053Y213.695
G1 X221.082Y214.055
G0 X239.037Y221.728
G1 X239.466Y221.685
G1 X239.864Y221.561
G1 X240.225Y221.366
G1 X240.54Y221.106
G1 X240.799Y220.792
G1 X240.995Y220.431
G1 X241.119Y220.032
G1 X241.162Y219.603
G1 X241.119Y219.175
G1 X240.995Y218.776
G1 X240.799Y218.415
G1 X240.54Y218.101
G1 X240.225Y217.841
G1 X239.864Y217.645
G1 X239.466Y217.521
G1 X239.037Y217.478
G1 X238.609Y217.521
G1 X238.21Y217.645
G1 X237.849Y217.841
G1 X237.535Y218.101
G1 X237.275Y218.415
G1 X237.079Y218.776
G1 X236.956Y219.175
G1 X236.912Y219.603
G1 X236.956Y220.032
G1 X237.079Y220.431
G1 X237.275Y220.792
G1 X237.535Y221.106
G1 X237.849Y221.366
G1 X238.21Y221.561
G1 X238.609Y221.685
G1 X239.037Y221.728
G1 X239.466Y221.685
G1 X239.105Y221.715
G0 X251.812Y238.378
G1 X252.24Y238.335
G1 X252.639Y238.211
G1 X253Y238.015
G1 X253.314Y237.756
G1 X253.574Y237.441
G1 X253.77Y237.08
G1 X253.894Y236.681
G1 X253.937Y236.253
G1 X253.894Y235.825
G1 X253.77Y235.426
G1 X253.574Y235.065
G1 X253.314Y234.75
G1 X253Y234.491
G1 X252.639Y234.295
G1 X252.24Y234.171
G1 X251.812Y234.128
G1 X251.383Y234.171
G1 X250.984Y234.295
G1 X250.623Y234.491
G1 X250.309Y234.75
G1 X250.049Y235.065
G1 X249.854Y235.426
G1 X249.73Y235.825
G1 X249.687Y236.253
G1 X249.73Y236.681
G1 X249.854Y237.08
G1 X250.049Y237.441
G1 X250.309Y237.756
G1 X250.623Y238.015
G1 X250.984Y238.211
G1 X251.383Y238.335
G1 X251.812Y238.378
G1 X252.24Y238.335
G1 X251.88Y238.364
G0 X241.154Y205.178
G1 X240.726Y205.221
G1 X240.327Y205.345
G1 X239.966Y205.541
G1 X239.651Y205.8
G1 X239.392Y206.115
G1 X239.196Y206.476
G1 X239.072Y206.875
G1 X239.029Y207.303
G1 X239.072Y207.731
G1 X239.196Y208.13
G1 X239.392Y208.491
G1 X239.651Y208.806
G1 X239.966Y209.065
G1 X240.327Y209.261
G1 X240.726Y209.385
G1 X241.154Y209.428
G1 X241.582Y209.385
G1 X241.981Y209.261
G1 X242.342Y209.065
G1 X242.657Y208.806
G1 X242.916Y208.491
G1 X243.112Y208.13
G1 X243.236Y207.731
G1 X243.279Y207.303
G1 X243.236Y206.875
G1 X243.112Y206.476
G1 X242.916Y206.115
G1 X242.657Y205.8
G1 X242.342Y205.541
G1 X241.981Y205.345
G1 X241.582Y205.221
G1 X241.154Y205.178
G1 X240.726Y205.221
G1 X241.086Y205.192
G0 X236.607Y194.755
G1 X236.179Y194.798
G1 X235.78Y194.922
G1 X235.419Y195.118
G1 X235.105Y195.377
G1 X234.845Y195.692
G1 X234.65Y196.053
G1 X234.526Y196.452
G1 X234.483Y196.88
G1 X234.526Y197.308
G1 X234.65Y197.707
G1 X234.845Y198.068
G1 X235.105Y198.383
G1 X235.419Y198.642
G1 X235.78Y198.838
G1 X236.179Y198.962
G1 X236.607Y199.005
G1 X237.036Y198.962
G1 X237.435Y198.838
G1 X237.796Y198.642
G1 X238.11Y198.383
G1 X238.37Y198.068
G1 X238.565Y197.707
G1 X238.689Y197.308
G1 X238.732Y196.88
G1 X238.689Y196.452
G1 X238.565Y196.053
G1 X238.37Y195.692
G1 X238.11Y195.377
G1 X237.796Y195.118
G1 X237.435Y194.922
G1 X237.036Y194.798
G1 X236.607Y194.755
G1 X236.179Y194.798
G1 X236.539Y194.769
G0 X197.485Y207.303
G1 X197.528Y207.731
G1 X197.652Y208.13
G1 X197.848Y208.491
G1 X198.107Y208.806
G1 X198.422Y209.065
G1 X198.783Y209.261
G1 X199.181Y209.385
G1 X199.609Y209.428
G1 X200.038Y209.385
G1 X200.437Y209.261
G1 X200.798Y209.065
G1 X201.112Y208.806
G1 X201.372Y208.491
G1 X201.568Y208.13
G1 X201.691Y207.731
G1 X201.735Y207.303
G1 X201.691Y206.875
G1 X201.568Y206.476
G1 X201.372Y206.115
G1 X201.112Y205.8
G1 X200.798Y205.541
G1 X200.437Y205.345
G1 X200.038Y205.221
G1 X199.609Y205.178
G1 X199.181Y205.221
G1 X198.783Y205.345
G1 X198.422Y205.541
G1 X198.107Y205.8
G1 X197.848Y206.115
G1 X197.652Y206.476
G1 X197.528Y206.875
G1 X197.485Y207.303
G1 X197.528Y207.731
G1 X197.498Y207.371
G0 X193.644Y196.88
G1 X193.687Y196.452
G1 X193.811Y196.053
G1 X194.007Y195.692
G1 X194.266Y195.377
G1 X194.581Y195.118
G1 X194.941Y194.922
G1 X195.34Y194.798
G1 X195.768Y194.755
G1 X196.197Y194.798
G1 X196.596Y194.922
G1 X196.957Y195.118
G1 X197.271Y195.377
G1 X197.531Y195.692
G1 X197.727Y196.053
G1 X197.85Y196.452
G1 X197.894Y196.88
G1 X197.85Y197.308
G1 X197.727Y197.707
G1 X197.531Y198.068
G1 X197.271Y198.383
G1 X196.957Y198.642
G1 X196.596Y198.838
G1 X196.197Y198.962
G1 X195.768Y199.005
G1 X195.34Y198.962
G1 X194.941Y198.838
G1 X194.581Y198.642
G1 X194.266Y198.383
G1 X194.007Y198.068
G1 X193.811Y197.707
G1 X193.687Y197.308
G1 X193.644Y196.88
G1 X193.687Y196.452
G1 X193.657Y196.812
G0 X145.86Y287.349
G1 X145.903Y287.777
G1 X146.027Y288.176
G1 X146.223Y288.537
G1 X146.483Y288.851
G1 X146.797Y289.111
G1 X147.158Y289.307
G1 X147.557Y289.431
G1 X147.985Y289.474
G1 X148.414Y289.431
G1 X148.813Y289.307
G1 X149.174Y289.111
G1 X149.488Y288.851
G1 X149.748Y288.537
G1 X149.943Y288.176
G1 X150.067Y287.777
G1 X150.11Y287.349
G1 X150.067Y286.92
G1 X149.943Y286.522
G1 X149.748Y286.161
G1 X149.488Y285.846
G1 X149.174Y285.587
G1 X148.813Y285.391
G1 X148.414Y285.267
G1 X147.985Y285.224
G1 X147.557Y285.267
G1 X147.158Y285.391
G1 X146.797Y285.587
G1 X146.483Y285.846
G1 X146.223Y286.161
G1 X146.027Y286.522
G1 X145.903Y286.92
G1 X145.86Y287.349
G1 X145.903Y287.777
G1 X145.874Y287.417
G0 X142.985Y292.202
G1 X152.985
G1 Y262.202
G1 X142.985
G1 Y292.202
G1 X143.485
G0 X164.219Y196.88
G1 X164.176Y196.452
G1 X164.052Y196.053
G1 X163.856Y195.692
G1 X163.597Y195.377
G1 X163.282Y195.118
G1 X162.921Y194.922
G1 X162.523Y194.798
G1 X162.094Y194.755
G1 X161.666Y194.798
G1 X161.267Y194.922
G1 X160.906Y195.118
G1 X160.592Y195.377
G1 X160.332Y195.692
G1 X160.136Y196.053
G1 X160.013Y196.452
G1 X159.969Y196.88
G1 X160.013Y197.308
G1 X160.136Y197.707
G1 X160.332Y198.068
G1 X160.592Y198.383
G1 X160.906Y198.642
G1 X161.267Y198.838
G1 X161.666Y198.962
G1 X162.094Y199.005
G1 X162.523Y198.962
G1 X162.921Y198.838
G1 X163.282Y198.642
G1 X163.597Y198.383
G1 X163.856Y198.068
G1 X164.052Y197.707
G1 X164.176Y197.308
G1 X164.219Y196.88
G1 X164.176Y196.452
G1 X164.206Y196.812
G0 X162.094Y183.513
G1 X161.666Y183.556
G1 X161.267Y183.68
G1 X160.906Y183.876
G1 X160.592Y184.135
G1 X160.332Y184.45
G1 X160.136Y184.811
G1 X160.013Y185.21
G1 X159.969Y185.638
G1 X160.013Y186.066
G1 X160.136Y186.465
G1 X160.332Y186.826
G1 X160.592Y187.141
G1 X160.906Y187.4
G1 X161.267Y187.596
G1 X161.666Y187.72
G1 X162.094Y187.763
G1 X162.523Y187.72
G1 X162.921Y187.596
G1 X163.282Y187.4
G1 X163.597Y187.141
G1 X163.856Y186.826
G1 X164.052Y186.465
G1 X164.176Y186.066
G1 X164.219Y185.638
G1 X164.176Y185.21
G1 X164.052Y184.811
G1 X163.856Y184.45
G1 X163.597Y184.135
G1 X163.282Y183.876
G1 X162.921Y183.68
G1 X162.523Y183.556
G1 X162.094Y183.513
G1 X161.666Y183.556
G1 X162.026Y183.527
G0 X164.165Y174.298
G1 X164.122Y173.869
G1 X163.998Y173.471
G1 X163.802Y173.11
G1 X163.542Y172.795
G1 X163.228Y172.536
G1 X162.867Y172.34
G1 X162.468Y172.216
G1 X162.04Y172.173
G1 X161.612Y172.216
G1 X161.213Y172.34
G1 X160.852Y172.536
G1 X160.537Y172.795
G1 X160.278Y173.11
G1 X160.082Y173.471
G1 X159.958Y173.869
G1 X159.915Y174.298
G1 X159.958Y174.726
G1 X160.082Y175.125
G1 X160.278Y175.486
G1 X160.537Y175.8
G1 X160.852Y176.06
G1 X161.213Y176.256
G1 X161.612Y176.38
G1 X162.04Y176.423
G1 X162.468Y176.38
G1 X162.867Y176.256
G1 X163.228Y176.06
G1 X163.542Y175.8
G1 X163.802Y175.486
G1 X163.998Y175.125
G1 X164.122Y174.726
G1 X164.165Y174.298
G1 X164.122Y173.869
G1 X164.151Y174.23
G0 X203.53Y187.763
G1 X203.958Y187.72
G1 X204.357Y187.596
G1 X204.718Y187.4
G1 X205.032Y187.141
G1 X205.292Y186.826
G1 X205.488Y186.465
G1 X205.612Y186.066
G1 X205.655Y185.638
G1 X205.612Y185.21
G1 X205.488Y184.811
G1 X205.292Y184.45
G1 X205.032Y184.135
G1 X204.718Y183.876
G1 X204.357Y183.68
G1 X203.958Y183.556
G1 X203.53Y183.513
G1 X203.101Y183.556
G1 X202.703Y183.68
G1 X202.342Y183.876
G1 X202.027Y184.135
G1 X201.768Y184.45
G1 X201.572Y184.811
G1 X201.448Y185.21
G1 X201.405Y185.638
G1 X201.448Y186.066
G1 X201.572Y186.465
G1 X201.768Y186.826
G1 X202.027Y187.141
G1 X202.342Y187.4
G1 X202.703Y187.596
G1 X203.101Y187.72
G1 X203.53Y187.763
G1 X203.958Y187.72
G1 X203.598Y187.749
G0 X238.732Y185.638
G1 X238.689Y185.21
G1 X238.565Y184.811
G1 X238.37Y184.45
G1 X238.11Y184.135
G1 X237.796Y183.876
G1 X237.435Y183.68
G1 X237.036Y183.556
G1 X236.607Y183.513
G1 X236.179Y183.556
G1 X235.78Y183.68
G1 X235.419Y183.876
G1 X235.105Y184.135
G1 X234.845Y184.45
G1 X234.65Y184.811
G1 X234.526Y185.21
G1 X234.483Y185.638
G1 X234.526Y186.066
G1 X234.65Y186.465
G1 X234.845Y186.826
G1 X235.105Y187.141
G1 X235.419Y187.4
G1 X235.78Y187.596
G1 X236.179Y187.72
G1 X236.607Y187.763
G1 X237.036Y187.72
G1 X237.435Y187.596
G1 X237.796Y187.4
G1 X238.11Y187.141
G1 X238.37Y186.826
G1 X238.565Y186.465
G1 X238.689Y186.066
G1 X238.732Y185.638
G1 X238.689Y185.21
G1 X238.719Y185.57
G0 X236.553Y172.173
G1 X236.125Y172.216
G1 X235.726Y172.34
G1 X235.365Y172.536
G1 X235.05Y172.795
G1 X234.791Y173.11
G1 X234.595Y173.471
G1 X234.471Y173.869
G1 X234.428Y174.298
G1 X234.471Y174.726
G1 X234.595Y175.125
G1 X234.791Y175.486
G1 X235.05Y175.8
G1 X235.365Y176.06
G1 X235.726Y176.256
G1 X236.125Y176.38
G1 X236.553Y176.423
G1 X236.981Y176.38
G1 X237.38Y176.256
G1 X237.741Y176.06
G1 X238.056Y175.8
G1 X238.315Y175.486
G1 X238.511Y175.125
G1 X238.635Y174.726
G1 X238.678Y174.298
G1 X238.635Y173.869
G1 X238.511Y173.471
G1 X238.315Y173.11
G1 X238.056Y172.795
G1 X237.741Y172.536
G1 X237.38Y172.34
G1 X236.981Y172.216
G1 X236.553Y172.173
G1 X236.125Y172.216
G1 X236.485Y172.186
G0 X238.678Y163.056
G1 X238.635Y162.627
G1 X238.511Y162.228
G1 X238.315Y161.868
G1 X238.056Y161.553
G1 X237.741Y161.294
G1 X237.38Y161.098
G1 X236.981Y160.974
G1 X236.553Y160.931
G1 X236.125Y160.974
G1 X235.726Y161.098
G1 X235.365Y161.294
G1 X235.05Y161.553
G1 X234.791Y161.868
G1 X234.595Y162.228
G1 X234.471Y162.627
G1 X234.428Y163.056
G1 X234.471Y163.484
G1 X234.595Y163.883
G1 X234.791Y164.244
G1 X235.05Y164.558
G1 X235.365Y164.818
G1 X235.726Y165.014
G1 X236.125Y165.138
G1 X236.553Y165.181
G1 X236.981Y165.138
G1 X237.38Y165.014
G1 X237.741Y164.818
G1 X238.056Y164.558
G1 X238.315Y164.244
G1 X238.511Y163.883
G1 X238.635Y163.484
G1 X238.678Y163.056
G1 X238.635Y162.627
G1 X238.664Y162.988
G0 X193.589Y174.298
G1 X193.632Y174.726
G1 X193.756Y175.125
G1 X193.952Y175.486
G1 X194.212Y175.8
G1 X194.526Y176.06
G1 X194.887Y176.256
G1 X195.286Y176.38
G1 X195.714Y176.423
G1 X196.142Y176.38
G1 X196.541Y176.256
G1 X196.902Y176.06
G1 X197.217Y175.8
G1 X197.476Y175.486
G1 X197.672Y175.125
G1 X197.796Y174.726
G1 X197.839Y174.298
G1 X197.796Y173.869
G1 X197.672Y173.471
G1 X197.476Y173.11
G1 X197.217Y172.795
G1 X196.902Y172.536
G1 X196.541Y172.34
G1 X196.142Y172.216
G1 X195.714Y172.173
G1 X195.286Y172.216
G1 X194.887Y172.34
G1 X194.526Y172.536
G1 X194.212Y172.795
G1 X193.952Y173.11
G1 X193.756Y173.471
G1 X193.632Y173.869
G1 X193.589Y174.298
G1 X193.632Y174.726
G1 X193.603Y174.366
G0 X162.04Y160.931
G1 X161.612Y160.974
G1 X161.213Y161.098
G1 X160.852Y161.294
G1 X160.537Y161.553
G1 X160.278Y161.868
G1 X160.082Y162.228
G1 X159.958Y162.627
G1 X159.915Y163.056
G1 X159.958Y163.484
G1 X160.082Y163.883
G1 X160.278Y164.244
G1 X160.537Y164.558
G1 X160.852Y164.818
G1 X161.213Y165.014
G1 X161.612Y165.138
G1 X162.04Y165.181
G1 X162.468Y165.138
G1 X162.867Y165.014
G1 X163.228Y164.818
G1 X163.542Y164.558
G1 X163.802Y164.244
G1 X163.998Y163.883
G1 X164.122Y163.484
G1 X164.165Y163.056
G1 X164.122Y162.627
G1 X163.998Y162.228
G1 X163.802Y161.868
G1 X163.542Y161.553
G1 X163.228Y161.294
G1 X162.867Y161.098
G1 X162.468Y160.974
G1 X162.04Y160.931
G1 X161.612Y160.974
G1 X161.971Y160.944
G0 X158.504Y151.519
G1 X158.547Y151.09
G1 X158.671Y150.691
G1 X158.867Y150.331
G1 X159.126Y150.016
G1 X159.441Y149.757
G1 X159.802Y149.561
G1 X160.2Y149.437
G1 X160.629Y149.394
G1 X161.057Y149.437
G1 X161.456Y149.561
G1 X161.817Y149.757
G1 X162.131Y150.016
G1 X162.391Y150.331
G1 X162.587Y150.691
G1 X162.711Y151.09
G1 X162.754Y151.519
G1 X162.711Y151.947
G1 X162.587Y152.346
G1 X162.391Y152.707
G1 X162.131Y153.021
G1 X161.817Y153.281
G1 X161.456Y153.477
G1 X161.057Y153.601
G1 X160.629Y153.644
G1 X160.2Y153.601
G1 X159.802Y153.477
G1 X159.441Y153.281
G1 X159.126Y153.021
G1 X158.867Y152.707
G1 X158.671Y152.346
G1 X158.547Y151.947
G1 X158.504Y151.519
G1 X158.547Y151.09
G1 X158.518Y151.451
G0 X155.682Y139.218
G1 X155.725Y138.79
G1 X155.849Y138.391
G1 X156.045Y138.03
G1 X156.304Y137.716
G1 X156.618Y137.456
G1 X156.979Y137.26
G1 X157.378Y137.136
G1 X157.806Y137.093
G1 X158.235Y137.136
G1 X158.634Y137.26
G1 X158.995Y137.456
G1 X159.309Y137.716
G1 X159.569Y138.03
G1 X159.765Y138.391
G1 X159.888Y138.79
G1 X159.932Y139.218
G1 X159.888Y139.647
G1 X159.765Y140.045
G1 X159.569Y140.406
G1 X159.309Y140.721
G1 X158.995Y140.98
G1 X158.634Y141.176
G1 X158.235Y141.3
G1 X157.806Y141.343
G1 X157.378Y141.3
G1 X156.979Y141.176
G1 X156.618Y140.98
G1 X156.304Y140.721
G1 X156.045Y140.406
G1 X155.849Y140.045
G1 X155.725Y139.647
G1 X155.682Y139.218
G1 X155.725Y138.79
G1 X155.695Y139.15
G0 X203.475Y165.181
G1 X203.903Y165.138
G1 X204.302Y165.014
G1 X204.663Y164.818
G1 X204.978Y164.558
G1 X205.237Y164.244
G1 X205.433Y163.883
G1 X205.557Y163.484
G1 X205.6Y163.056
G1 X205.557Y162.627
G1 X205.433Y162.228
G1 X205.237Y161.868
G1 X204.978Y161.553
G1 X204.663Y161.294
G1 X204.302Y161.098
G1 X203.903Y160.974
G1 X203.475Y160.931
G1 X203.047Y160.974
G1 X202.648Y161.098
G1 X202.287Y161.294
G1 X201.973Y161.553
G1 X201.713Y161.868
G1 X201.517Y162.228
G1 X201.394Y162.627
G1 X201.35Y163.056
G1 X201.394Y163.484
G1 X201.517Y163.883
G1 X201.713Y164.244
G1 X201.973Y164.558
G1 X202.287Y164.818
G1 X202.648Y165.014
G1 X203.047Y165.138
G1 X203.475Y165.181
G1 X203.903Y165.138
G1 X203.543Y165.167
G0 X198.889Y149.394
G1 X198.461Y149.437
G1 X198.062Y149.561
G1 X197.701Y149.757
G1 X197.387Y150.016
G1 X197.127Y150.331
G1 X196.931Y150.691
G1 X196.807Y151.09
G1 X196.764Y151.519
G1 X196.807Y151.947
G1 X196.931Y152.346
G1 X197.127Y152.707
G1 X197.387Y153.021
G1 X197.701Y153.281
G1 X198.062Y153.477
G1 X198.461Y153.601
G1 X198.889Y153.644
G1 X199.317Y153.601
G1 X199.716Y153.477
G1 X200.077Y153.281
G1 X200.392Y153.021
G1 X200.651Y152.707
G1 X200.847Y152.346
G1 X200.971Y151.947
G1 X201.014Y151.519
G1 X200.971Y151.09
G1 X200.847Y150.691
G1 X200.651Y150.331
G1 X200.392Y150.016
G1 X200.077Y149.757
G1 X199.716Y149.561
G1 X199.317Y149.437
G1 X198.889Y149.394
G1 X198.461Y149.437
G1 X198.821Y149.407
G0 X238.317Y153.644
G1 X238.745Y153.601
G1 X239.144Y153.477
G1 X239.505Y153.281
G1 X239.819Y153.021
G1 X240.079Y152.707
G1 X240.275Y152.346
G1 X240.399Y151.947
G1 X240.442Y151.519
G1 X240.399Y151.09
G1 X240.275Y150.691
G1 X240.079Y150.331
G1 X239.819Y150.016
G1 X239.505Y149.757
G1 X239.144Y149.561
G1 X238.745Y149.437
G1 X238.317Y149.394
G1 X237.889Y149.437
G1 X237.49Y149.561
G1 X237.129Y149.757
G1 X236.814Y150.016
G1 X236.555Y150.331
G1 X236.359Y150.691
G1 X236.235Y151.09
G1 X236.192Y151.519
G1 X236.235Y151.947
G1 X236.359Y152.346
G1 X236.555Y152.707
G1 X236.814Y153.021
G1 X237.129Y153.281
G1 X237.49Y153.477
G1 X237.889Y153.601
G1 X238.317Y153.644
G1 X238.745Y153.601
G1 X238.385Y153.63
G0 X242.559Y139.218
G1 X242.515Y138.79
G1 X242.392Y138.391
G1 X242.196Y138.03
G1 X241.936Y137.716
G1 X241.622Y137.456
G1 X241.261Y137.26
G1 X240.862Y137.136
G1 X240.433Y137.093
G1 X240.005Y137.136
G1 X239.606Y137.26
G1 X239.245Y137.456
G1 X238.931Y137.716
G1 X238.672Y138.03
G1 X238.476Y138.391
G1 X238.352Y138.79
G1 X238.309Y139.218
G1 X238.352Y139.647
G1 X238.476Y140.045
G1 X238.672Y140.406
G1 X238.931Y140.721
G1 X239.245Y140.98
G1 X239.606Y141.176
G1 X240.005Y141.3
G1 X240.433Y141.343
G1 X240.862Y141.3
G1 X241.261Y141.176
G1 X241.622Y140.98
G1 X241.936Y140.721
G1 X242.196Y140.406
G1 X242.392Y140.045
G1 X242.515Y139.647
G1 X242.559Y139.218
G1 X242.515Y138.79
G1 X242.545Y139.15
G0 X198.889Y137.093
G1 X198.461Y137.136
G1 X198.062Y137.26
G1 X197.701Y137.456
G1 X197.387Y137.716
G1 X197.127Y138.03
G1 X196.931Y138.391
G1 X196.807Y138.79
G1 X196.764Y139.218
G1 X196.807Y139.647
G1 X196.931Y140.045
G1 X197.127Y140.406
G1 X197.387Y140.721
G1 X197.701Y140.98
G1 X198.062Y141.176
G1 X198.461Y141.3
G1 X198.889Y141.343
G1 X199.317Y141.3
G1 X199.716Y141.176
G1 X200.077Y140.98
G1 X200.392Y140.721
G1 X200.651Y140.406
G1 X200.847Y140.045
G1 X200.971Y139.647
G1 X201.014Y139.218
G1 X200.971Y138.79
G1 X200.847Y138.391
G1 X200.651Y138.03
G1 X200.392Y137.716
G1 X200.077Y137.456
G1 X199.716Y137.26
G1 X199.317Y137.136
G1 X198.889Y137.093
G1 X198.461Y137.136
G1 X198.821Y137.107
G0 X177.512Y146.038
G1 X177.555Y146.467
G1 X177.679Y146.866
G1 X177.875Y147.227
G1 X178.135Y147.541
G1 X178.449Y147.801
G1 X178.81Y147.996
G1 X179.209Y148.12
G1 X179.637Y148.163
G1 X180.065Y148.12
G1 X180.464Y147.996
G1 X180.825Y147.801
G1 X181.14Y147.541
G1 X181.399Y147.227
G1 X181.595Y146.866
G1 X181.719Y146.467
G1 X181.762Y146.038
G1 X181.719Y145.61
G1 X181.595Y145.211
G1 X181.399Y144.85
G1 X181.14Y144.536
G1 X180.825Y144.276
G1 X180.464Y144.08
G1 X180.065Y143.956
G1 X179.637Y143.913
G1 X179.209Y143.956
G1 X178.81Y144.08
G1 X178.449Y144.276
G1 X178.135Y144.536
G1 X177.875Y144.85
G1 X177.679Y145.211
G1 X177.555Y145.61
G1 X177.512Y146.038
G1 X177.555Y146.467
G1 X177.526Y146.106
G0 X132.292Y174.468
G1 X132.335Y174.896
G1 X132.459Y175.295
G1 X132.655Y175.656
G1 X132.914Y175.97
G1 X133.229Y176.23
G1 X133.59Y176.426
G1 X133.989Y176.55
G1 X134.417Y176.593
G1 X134.845Y176.55
G1 X135.244Y176.426
G1 X135.605Y176.23
G1 X135.92Y175.97
G1 X136.179Y175.656
G1 X136.375Y175.295
G1 X136.499Y174.896
G1 X136.542Y174.468
G1 X136.499Y174.039
G1 X136.375Y173.641
G1 X136.179Y173.28
G1 X135.92Y172.965
G1 X135.605Y172.706
G1 X135.244Y172.51
G1 X134.845Y172.386
G1 X134.417Y172.343
G1 X133.989Y172.386
G1 X133.59Y172.51
G1 X133.229Y172.706
G1 X132.914Y172.965
G1 X132.655Y173.28
G1 X132.459Y173.641
G1 X132.335Y174.039
G1 X132.292Y174.468
G1 X132.335Y174.896
G1 X132.306Y174.536
G0 X147.958Y176.593
G1 X148.386Y176.55
G1 X148.785Y176.426
G1 X149.146Y176.23
G1 X149.461Y175.97
G1 X149.72Y175.656
G1 X149.916Y175.295
G1 X150.04Y174.896
G1 X150.083Y174.468
G1 X150.04Y174.039
G1 X149.916Y173.641
G1 X149.72Y173.28
G1 X149.461Y172.965
G1 X149.146Y172.706
G1 X148.785Y172.51
G1 X148.386Y172.386
G1 X147.958Y172.343
G1 X147.53Y172.386
G1 X147.131Y172.51
G1 X146.77Y172.706
G1 X146.455Y172.965
G1 X146.196Y173.28
G1 X146Y173.641
G1 X145.876Y174.039
G1 X145.833Y174.468
G1 X145.876Y174.896
G1 X146Y175.295
G1 X146.196Y175.656
G1 X146.455Y175.97
G1 X146.77Y176.23
G1 X147.131Y176.426
G1 X147.53Y176.55
G1 X147.958Y176.593
G1 X148.386Y176.55
G1 X148.026Y176.579
G0 X132.292Y194.813
G1 X132.335Y195.241
G1 X132.459Y195.64
G1 X132.655Y196.001
G1 X132.914Y196.316
G1 X133.229Y196.575
G1 X133.59Y196.771
G1 X133.989Y196.895
G1 X134.417Y196.938
G1 X134.845Y196.895
G1 X135.244Y196.771
G1 X135.605Y196.575
G1 X135.92Y196.316
G1 X136.179Y196.001
G1 X136.375Y195.64
G1 X136.499Y195.241
G1 X136.542Y194.813
G1 X136.499Y194.385
G1 X136.375Y193.986
G1 X136.179Y193.625
G1 X135.92Y193.311
G1 X135.605Y193.051
G1 X135.244Y192.855
G1 X134.845Y192.731
G1 X134.417Y192.688
G1 X133.989Y192.731
G1 X133.59Y192.855
G1 X133.229Y193.051
G1 X132.914Y193.311
G1 X132.655Y193.625
G1 X132.459Y193.986
G1 X132.335Y194.385
G1 X132.292Y194.813
G1 X132.335Y195.241
G1 X132.306Y194.881
G0 X134.417Y227.772
G1 X134.845Y227.729
G1 X135.244Y227.605
G1 X135.605Y227.409
G1 X135.92Y227.149
G1 X136.179Y226.835
G1 X136.375Y226.474
G1 X136.499Y226.075
G1 X136.542Y225.647
G1 X136.499Y225.219
G1 X136.375Y224.82
G1 X136.179Y224.459
G1 X135.92Y224.144
G1 X135.605Y223.885
G1 X135.244Y223.689
G1 X134.845Y223.565
G1 X134.417Y223.522
G1 X133.989Y223.565
G1 X133.59Y223.689
G1 X133.229Y223.885
G1 X132.914Y224.144
G1 X132.655Y224.459
G1 X132.459Y224.82
G1 X132.335Y225.219
G1 X132.292Y225.647
G1 X132.335Y226.075
G1 X132.459Y226.474
G1 X132.655Y226.835
G1 X132.914Y227.149
G1 X133.229Y227.409
G1 X133.59Y227.605
G1 X133.989Y227.729
G1 X134.417Y227.772
G1 X134.845Y227.729
G1 X134.485Y227.758
G0 X139.444Y241.328
G1 X138.57Y241.354
G1 X137.72Y241.43
G1 X136.9Y241.553
G1 X136.114Y241.721
G1 X135.366Y241.932
G1 X134.66Y242.182
G1 X134.001Y242.47
G1 X133.394Y242.793
G1 X132.842Y243.148
G1 X132.349Y243.533
G1 X131.921Y243.945
G1 X131.56Y244.382
G1 X131.272Y244.842
G1 X131.062Y245.321
G1 X130.932Y245.817
G1 X130.888Y246.328
G1 X130.932Y246.84
G1 X131.062Y247.336
G1 X131.272Y247.815
G1 X131.56Y248.275
G1 X131.921Y248.712
G1 X132.349Y249.124
G1 X132.842Y249.509
G1 X133.394Y249.864
G1 X134.001Y250.187
G1 X134.66Y250.475
G1 X135.366Y250.725
G1 X136.114Y250.935
G1 X136.9Y251.104
G1 X137.72Y251.227
G1 X138.57Y251.303
G1 X139.444Y251.328
G1 Y261.328
G1 X129.445
G1 Y231.328
G1 X139.444
G1 Y241.328
G1 X138.945Y241.343
G0 X129.445Y292.202
G1 X139.445
G1 Y262.202
G1 X129.445
G1 Y292.202
G1 X129.945
G0 X150.083Y194.813
G1 X150.04Y194.385
G1 X149.916Y193.986
G1 X149.72Y193.625
G1 X149.461Y193.311
G1 X149.146Y193.051
G1 X148.785Y192.855
G1 X148.386Y192.731
G1 X147.958Y192.688
G1 X147.53Y192.731
G1 X147.131Y192.855
G1 X146.77Y193.051
G1 X146.455Y193.311
G1 X146.196Y193.625
G1 X146Y193.986
G1 X145.876Y194.385
G1 X145.833Y194.813
G1 X145.876Y195.241
G1 X146Y195.64
G1 X146.196Y196.001
G1 X146.455Y196.316
G1 X146.77Y196.575
G1 X147.131Y196.771
G1 X147.53Y196.895
G1 X147.958Y196.938
G1 X148.386Y196.895
G1 X148.785Y196.771
G1 X149.146Y196.575
G1 X149.461Y196.316
G1 X149.72Y196.001
G1 X149.916Y195.64
G1 X150.04Y195.241
G1 X150.083Y194.813
G1 X150.04Y194.385
G1 X150.069Y194.745
G0 X142.974Y189.626
G1 X142.099Y189.601
G1 X141.249Y189.525
G1 X140.429Y189.402
G1 X139.643Y189.234
G1 X138.895Y189.023
G1 X138.19Y188.773
G1 X137.531Y188.485
G1 X136.923Y188.162
G1 X136.371Y187.807
G1 X135.879Y187.422
G1 X135.45Y187.01
G1 X135.09Y186.573
G1 X134.802Y186.113
G1 X134.591Y185.634
G1 X134.461Y185.138
G1 X134.417Y184.626
G1 X134.461Y184.115
G1 X134.591Y183.619
G1 X134.802Y183.14
G1 X135.09Y182.68
G1 X135.45Y182.243
G1 X135.879Y181.831
G1 X136.371Y181.446
G1 X136.923Y181.091
G1 X137.531Y180.768
G1 X138.19Y180.48
G1 X138.895Y180.23
G1 X139.643Y180.019
G1 X140.429Y179.851
G1 X141.249Y179.728
G1 X142.099Y179.652
G1 X142.974Y179.627
G1 Y169.626
G1 X152.974
G1 Y199.626
G1 X142.974
G1 Y189.626
G1 X142.474Y189.612
G0 X132.292Y205.301
G1 X132.335Y205.73
G1 X132.459Y206.129
G1 X132.655Y206.49
G1 X132.914Y206.804
G1 X133.229Y207.064
G1 X133.59Y207.26
G1 X133.989Y207.383
G1 X134.417Y207.427
G1 X134.845Y207.383
G1 X135.244Y207.26
G1 X135.605Y207.064
G1 X135.92Y206.804
G1 X136.179Y206.49
G1 X136.375Y206.129
G1 X136.499Y205.73
G1 X136.542Y205.301
G1 X136.499Y204.873
G1 X136.375Y204.474
G1 X136.179Y204.114
G1 X135.92Y203.799
G1 X135.605Y203.54
G1 X135.244Y203.344
G1 X134.845Y203.22
G1 X134.417Y203.177
G1 X133.989Y203.22
G1 X133.59Y203.344
G1 X133.229Y203.54
G1 X132.914Y203.799
G1 X132.655Y204.114
G1 X132.459Y204.474
G1 X132.335Y204.873
G1 X132.292Y205.301
G1 X132.335Y205.73
G1 X132.306Y205.37
G0 X147.958Y207.427
G1 X148.386Y207.383
G1 X148.785Y207.26
G1 X149.146Y207.064
G1 X149.461Y206.804
G1 X149.72Y206.49
G1 X149.916Y206.129
G1 X150.04Y205.73
G1 X150.083Y205.301
G1 X150.04Y204.873
G1 X149.916Y204.474
G1 X149.72Y204.114
G1 X149.461Y203.799
G1 X149.146Y203.54
G1 X148.785Y203.344
G1 X148.386Y203.22
G1 X147.958Y203.177
G1 X147.53Y203.22
G1 X147.131Y203.344
G1 X146.77Y203.54
G1 X146.455Y203.799
G1 X146.196Y204.114
G1 X146Y204.474
G1 X145.876Y204.873
G1 X145.833Y205.301
G1 X145.876Y205.73
G1 X146Y206.129
G1 X146.196Y206.49
G1 X146.455Y206.804
G1 X146.77Y207.064
G1 X147.131Y207.26
G1 X147.53Y207.383
G1 X147.958Y207.427
G1 X148.386Y207.383
G1 X148.026Y207.413
G0 X145.833Y225.647
G1 X145.876Y226.075
G1 X146Y226.474
G1 X146.196Y226.835
G1 X146.455Y227.149
G1 X146.77Y227.409
G1 X147.131Y227.605
G1 X147.53Y227.729
G1 X147.958Y227.772
G1 X148.386Y227.729
G1 X148.785Y227.605
G1 X149.146Y227.409
G1 X149.461Y227.149
G1 X149.72Y226.835
G1 X149.916Y226.474
G1 X150.04Y226.075
G1 X150.083Y225.647
G1 X150.04Y225.219
G1 X149.916Y224.82
G1 X149.72Y224.459
G1 X149.461Y224.144
G1 X149.146Y223.885
G1 X148.785Y223.689
G1 X148.386Y223.565
G1 X147.958Y223.522
G1 X147.53Y223.565
G1 X147.131Y223.689
G1 X146.77Y223.885
G1 X146.455Y224.144
G1 X146.196Y224.459
G1 X146Y224.82
G1 X145.876Y225.219
G1 X145.833Y225.647
G1 X145.876Y226.075
G1 X145.847Y225.715
G0 X142.958Y230.5
G1 X152.958
G1 Y200.5
G1 X142.958
G1 Y230.5
G1 X143.458
G0 X251.812Y269.212
G1 X252.24Y269.169
G1 X252.639Y269.045
G1 X253Y268.849
G1 X253.314Y268.589
G1 X253.574Y268.275
G1 X253.77Y267.914
G1 X253.894Y267.515
G1 X253.937Y267.087
G1 X253.894Y266.658
G1 X253.77Y266.26
G1 X253.574Y265.899
G1 X253.314Y265.584
G1 X253Y265.325
G1 X252.639Y265.129
G1 X252.24Y265.005
G1 X251.812Y264.962
G1 X251.383Y265.005
G1 X250.984Y265.129
G1 X250.623Y265.325
G1 X250.309Y265.584
G1 X250.049Y265.899
G1 X249.854Y266.26
G1 X249.73Y266.658
G1 X249.687Y267.087
G1 X249.73Y267.515
G1 X249.854Y267.914
G1 X250.049Y268.275
G1 X250.309Y268.589
G1 X250.623Y268.849
G1 X250.984Y269.045
G1 X251.383Y269.169
G1 X251.812Y269.212
G1 X252.24Y269.169
G1 X251.88Y269.198
G0 X267.478Y236.253
G1 X267.435Y235.825
G1 X267.311Y235.426
G1 X267.115Y235.065
G1 X266.855Y234.75
G1 X266.541Y234.491
G1 X266.18Y234.295
G1 X265.781Y234.171
G1 X265.353Y234.128
G1 X264.924Y234.171
G1 X264.525Y234.295
G1 X264.164Y234.491
G1 X263.85Y234.75
G1 X263.59Y235.065
G1 X263.394Y235.426
G1 X263.271Y235.825
G1 X263.227Y236.253
G1 X263.271Y236.681
G1 X263.394Y237.08
G1 X263.59Y237.441
G1 X263.85Y237.756
G1 X264.164Y238.015
G1 X264.525Y238.211
G1 X264.924Y238.335
G1 X265.353Y238.378
G1 X265.781Y238.335
G1 X266.18Y238.211
G1 X266.541Y238.015
G1 X266.855Y237.756
G1 X267.115Y237.441
G1 X267.311Y237.08
G1 X267.435Y236.681
G1 X267.478Y236.253
G1 X267.435Y235.825
G1 X267.464Y236.185
G0 X249.687Y256.598
G1 X249.73Y257.026
G1 X249.854Y257.425
G1 X250.049Y257.786
G1 X250.309Y258.101
G1 X250.623Y258.36
G1 X250.984Y258.556
G1 X251.383Y258.68
G1 X251.812Y258.723
G1 X252.24Y258.68
G1 X252.639Y258.556
G1 X253Y258.36
G1 X253.314Y258.101
G1 X253.574Y257.786
G1 X253.77Y257.425
G1 X253.894Y257.026
G1 X253.937Y256.598
G1 X253.894Y256.17
G1 X253.77Y255.771
G1 X253.574Y255.41
G1 X253.314Y255.096
G1 X253Y254.836
G1 X252.639Y254.64
G1 X252.24Y254.517
G1 X251.812Y254.473
G1 X251.383Y254.517
G1 X250.984Y254.64
G1 X250.623Y254.836
G1 X250.309Y255.096
G1 X250.049Y255.41
G1 X249.854Y255.771
G1 X249.73Y256.17
G1 X249.687Y256.598
G1 X249.73Y257.026
G1 X249.7Y256.666
G0 X265.353Y269.212
G1 X265.781Y269.169
G1 X266.18Y269.045
G1 X266.541Y268.849
G1 X266.855Y268.589
G1 X267.115Y268.275
G1 X267.311Y267.914
G1 X267.435Y267.515
G1 X267.478Y267.087
G1 X267.435Y266.658
G1 X267.311Y266.26
G1 X267.115Y265.899
G1 X266.855Y265.584
G1 X266.541Y265.325
G1 X266.18Y265.129
G1 X265.781Y265.005
G1 X265.353Y264.962
G1 X264.924Y265.005
G1 X264.525Y265.129
G1 X264.164Y265.325
G1 X263.85Y265.584
G1 X263.59Y265.899
G1 X263.394Y266.26
G1 X263.271Y266.658
G1 X263.227Y267.087
G1 X263.271Y267.515
G1 X263.394Y267.914
G1 X263.59Y268.275
G1 X263.85Y268.589
G1 X264.164Y268.849
G1 X264.525Y269.045
G1 X264.924Y269.169
G1 X265.353Y269.212
G1 X265.781Y269.169
G1 X265.421Y269.198
G0 X267.478Y256.598
G1 X267.435Y256.17
G1 X267.311Y255.771
G1 X267.115Y255.41
G1 X266.855Y255.096
G1 X266.541Y254.836
G1 X266.18Y254.64
G1 X265.781Y254.517
G1 X265.353Y254.473
G1 X264.924Y254.517
G1 X264.525Y254.64
G1 X264.164Y254.836
G1 X263.85Y255.096
G1 X263.59Y255.41
G1 X263.394Y255.771
G1 X263.271Y256.17
G1 X263.227Y256.598
G1 X263.271Y257.026
G1 X263.394Y257.425
G1 X263.59Y257.786
G1 X263.85Y258.101
G1 X264.164Y258.36
G1 X264.525Y258.556
G1 X264.924Y258.68
G1 X265.353Y258.723
G1 X265.781Y258.68
G1 X266.18Y258.556
G1 X266.541Y258.36
G1 X266.855Y258.101
G1 X267.115Y257.786
G1 X267.311Y257.425
G1 X267.435Y257.026
G1 X267.478Y256.598
G1 X267.435Y256.17
G1 X267.464Y256.53
G0 X260.368Y251.412
G1 X259.493Y251.386
G1 X258.644Y251.31
G1 X257.824Y251.187
G1 X257.038Y251.019
G1 X256.29Y250.808
G1 X255.584Y250.558
G1 X254.925Y250.27
G1 X254.318Y249.947
G1 X253.766Y249.592
G1 X253.273Y249.207
G1 X252.844Y248.795
G1 X252.484Y248.358
G1 X252.196Y247.899
G1 X251.986Y247.419
G1 X251.856Y246.923
G1 X251.812Y246.412
G1 X251.856Y245.9
G1 X251.986Y245.404
G1 X252.196Y244.925
G1 X252.484Y244.465
G1 X252.844Y244.028
G1 X253.273Y243.616
G1 X253.766Y243.231
G1 X254.318Y242.876
G1 X254.925Y242.553
G1 X255.584Y242.266
G1 X256.29Y242.015
G1 X257.038Y241.805
G1 X257.824Y241.636
G1 X258.644Y241.513
G1 X259.493Y241.438
G1 X260.368Y241.412
G1 Y231.412
G1 X270.368
G1 Y261.411
G1 X260.368
G1 Y251.412
G1 X259.869Y251.397
G0 X249.687Y287.432
G1 X249.73Y287.86
G1 X249.854Y288.259
G1 X250.049Y288.62
G1 X250.309Y288.935
G1 X250.623Y289.194
G1 X250.984Y289.39
G1 X251.383Y289.514
G1 X251.812Y289.557
G1 X252.24Y289.514
G1 X252.639Y289.39
G1 X253Y289.194
G1 X253.314Y288.935
G1 X253.574Y288.62
G1 X253.77Y288.259
G1 X253.894Y287.86
G1 X253.937Y287.432
G1 X253.894Y287.004
G1 X253.77Y286.605
G1 X253.574Y286.244
G1 X253.314Y285.93
G1 X253Y285.67
G1 X252.639Y285.474
G1 X252.24Y285.35
G1 X251.812Y285.307
G1 X251.383Y285.35
G1 X250.984Y285.474
G1 X250.623Y285.67
G1 X250.309Y285.93
G1 X250.049Y286.244
G1 X249.854Y286.605
G1 X249.73Y287.004
G1 X249.687Y287.432
G1 X249.73Y287.86
G1 X249.7Y287.5
G0 X246.812Y292.285
G1 X256.812
G1 Y262.286
G1 X246.812
G1 Y292.285
G1 X247.312
G0 X267.478Y287.432
G1 X267.435Y287.004
G1 X267.311Y286.605
G1 X267.115Y286.244
G1 X266.855Y285.93
G1 X266.541Y285.67
G1 X266.18Y285.474
G1 X265.781Y285.35
G1 X265.353Y285.307
G1 X264.924Y285.35
G1 X264.525Y285.474
G1 X264.164Y285.67
G1 X263.85Y285.93
G1 X263.59Y286.244
G1 X263.394Y286.605
G1 X263.271Y287.004
G1 X263.227Y287.432
G1 X263.271Y287.86
G1 X263.394Y288.259
G1 X263.59Y288.62
G1 X263.85Y288.935
G1 X264.164Y289.194
G1 X264.525Y289.39
G1 X264.924Y289.514
G1 X265.353Y289.557
G1 X265.781Y289.514
G1 X266.18Y289.39
G1 X266.541Y289.194
G1 X266.855Y288.935
G1 X267.115Y288.62
G1 X267.311Y288.259
G1 X267.435Y287.86
G1 X267.478Y287.432
G1 X267.435Y287.004
G1 X267.464Y287.364
G0 X270.353Y292.285
G1 Y262.286
G1 X260.353
G1 Y292.285
G1 X270.353
G1 Y291.785
G0 X251.784Y172.426
G1 X251.356Y172.469
G1 X250.957Y172.593
G1 X250.596Y172.789
G1 X250.282Y173.048
G1 X250.022Y173.363
G1 X249.826Y173.724
G1 X249.702Y174.123
G1 X249.659Y174.551
G1 X249.702Y174.979
G1 X249.826Y175.378
G1 X250.022Y175.739
G1 X250.282Y176.054
G1 X250.596Y176.313
G1 X250.957Y176.509
G1 X251.356Y176.633
G1 X251.784Y176.676
G1 X252.213Y176.633
G1 X252.612Y176.509
G1 X252.973Y176.313
G1 X253.287Y176.054
G1 X253.547Y175.739
G1 X253.743Y175.378
G1 X253.866Y174.979
G1 X253.91Y174.551
G1 X253.866Y174.123
G1 X253.743Y173.724
G1 X253.547Y173.363
G1 X253.287Y173.048
G1 X252.973Y172.789
G1 X252.612Y172.593
G1 X252.213Y172.469
G1 X251.784Y172.426
G1 X251.356Y172.469
G1 X251.716Y172.44
G0 X218.25Y143.913
G1 X217.822Y143.956
G1 X217.423Y144.08
G1 X217.062Y144.276
G1 X216.748Y144.536
G1 X216.488Y144.85
G1 X216.292Y145.211
G1 X216.168Y145.61
G1 X216.125Y146.038
G1 X216.168Y146.467
G1 X216.292Y146.866
G1 X216.488Y147.227
G1 X216.748Y147.541
G1 X217.062Y147.801
G1 X217.423Y147.996
G1 X217.822Y148.12
G1 X218.25Y148.163
G1 X218.678Y148.12
G1 X219.077Y147.996
G1 X219.438Y147.801
G1 X219.753Y147.541
G1 X220.012Y147.227
G1 X220.208Y146.866
G1 X220.332Y146.467
G1 X220.375Y146.038
G1 X220.332Y145.61
G1 X220.208Y145.211
G1 X220.012Y144.85
G1 X219.753Y144.536
G1 X219.438Y144.276
G1 X219.077Y144.08
G1 X218.678Y143.956
G1 X218.25Y143.913
G1 X217.822Y143.956
G1 X218.182Y143.927
G0 X221.041Y123.236
G1 X220.998Y122.808
G1 X220.874Y122.409
G1 X220.678Y122.048
G1 X220.419Y121.734
G1 X220.104Y121.474
G1 X219.743Y121.278
G1 X219.344Y121.154
G1 X218.916Y121.111
G1 X218.488Y121.154
G1 X218.089Y121.278
G1 X217.728Y121.474
G1 X217.414Y121.734
G1 X217.154Y122.048
G1 X216.958Y122.409
G1 X216.834Y122.808
G1 X216.791Y123.236
G1 X216.834Y123.665
G1 X216.958Y124.063
G1 X217.154Y124.424
G1 X217.414Y124.739
G1 X217.728Y124.998
G1 X218.089Y125.194
G1 X218.488Y125.318
G1 X218.916Y125.361
G1 X219.344Y125.318
G1 X219.743Y125.194
G1 X220.104Y124.998
G1 X220.419Y124.739
G1 X220.678Y124.424
G1 X220.874Y124.063
G1 X220.998Y123.665
G1 X221.041Y123.236
G1 X220.998Y122.808
G1 X221.027Y123.168
G0 X238.983Y130.842
G1 X239.411Y130.799
G1 X239.81Y130.675
G1 X240.171Y130.479
G1 X240.485Y130.219
G1 X240.745Y129.905
G1 X240.941Y129.544
G1 X241.065Y129.145
G1 X241.108Y128.717
G1 X241.065Y128.288
G1 X240.941Y127.889
G1 X240.745Y127.528
G1 X240.485Y127.214
G1 X240.171Y126.954
G1 X239.81Y126.759
G1 X239.411Y126.635
G1 X238.983Y126.592
G1 X238.555Y126.635
G1 X238.156Y126.759
G1 X237.795Y126.954
G1 X237.48Y127.214
G1 X237.221Y127.528
G1 X237.025Y127.889
G1 X236.901Y128.288
G1 X236.858Y128.717
G1 X236.901Y129.145
G1 X237.025Y129.544
G1 X237.221Y129.905
G1 X237.48Y130.219
G1 X237.795Y130.479
G1 X238.156Y130.675
G1 X238.555Y130.799
G1 X238.983Y130.842
G1 X239.411Y130.799
G1 X239.051Y130.828
G0 X243.225Y116.416
G1 X243.181Y115.988
G1 X243.058Y115.589
G1 X242.862Y115.228
G1 X242.602Y114.914
G1 X242.288Y114.654
G1 X241.927Y114.458
G1 X241.528Y114.334
G1 X241.099Y114.291
G1 X240.671Y114.334
G1 X240.272Y114.458
G1 X239.911Y114.654
G1 X239.597Y114.914
G1 X239.338Y115.228
G1 X239.142Y115.589
G1 X239.018Y115.988
G1 X238.975Y116.416
G1 X239.018Y116.845
G1 X239.142Y117.243
G1 X239.338Y117.604
G1 X239.597Y117.919
G1 X239.911Y118.178
G1 X240.272Y118.374
G1 X240.671Y118.498
G1 X241.099Y118.541
G1 X241.528Y118.498
G1 X241.927Y118.374
G1 X242.288Y118.178
G1 X242.602Y117.919
G1 X242.862Y117.604
G1 X243.058Y117.243
G1 X243.181Y116.845
G1 X243.225Y116.416
G1 X243.181Y115.988
G1 X243.211Y116.348
G0 X158.817Y128.717
G1 X158.86Y129.145
G1 X158.984Y129.544
G1 X159.18Y129.905
G1 X159.439Y130.219
G1 X159.754Y130.479
G1 X160.115Y130.675
G1 X160.514Y130.799
G1 X160.942Y130.842
G1 X161.37Y130.799
G1 X161.769Y130.675
G1 X162.13Y130.479
G1 X162.445Y130.219
G1 X162.704Y129.905
G1 X162.9Y129.544
G1 X163.024Y129.145
G1 X163.067Y128.717
G1 X163.024Y128.288
G1 X162.9Y127.889
G1 X162.704Y127.528
G1 X162.445Y127.214
G1 X162.13Y126.954
G1 X161.769Y126.759
G1 X161.37Y126.635
G1 X160.942Y126.592
G1 X160.514Y126.635
G1 X160.115Y126.759
G1 X159.754Y126.954
G1 X159.439Y127.214
G1 X159.18Y127.528
G1 X158.984Y127.889
G1 X158.86Y128.288
G1 X158.817Y128.717
G1 X158.86Y129.145
G1 X158.831Y128.785
G0 X156.348Y116.416
G1 X156.391Y115.988
G1 X156.515Y115.589
G1 X156.711Y115.228
G1 X156.97Y114.914
G1 X157.285Y114.654
G1 X157.645Y114.458
G1 X158.044Y114.334
G1 X158.472Y114.291
G1 X158.901Y114.334
G1 X159.3Y114.458
G1 X159.661Y114.654
G1 X159.975Y114.914
G1 X160.235Y115.228
G1 X160.431Y115.589
G1 X160.554Y115.988
G1 X160.598Y116.416
G1 X160.554Y116.845
G1 X160.431Y117.243
G1 X160.235Y117.604
G1 X159.975Y117.919
G1 X159.661Y118.178
G1 X159.3Y118.374
G1 X158.901Y118.498
G1 X158.472Y118.541
G1 X158.044Y118.498
G1 X157.645Y118.374
G1 X157.285Y118.178
G1 X156.97Y117.919
G1 X156.711Y117.604
G1 X156.515Y117.243
G1 X156.391Y116.845
G1 X156.348Y116.416
G1 X156.391Y115.988
G1 X156.361Y116.348
G0 X199.555Y130.842
G1 X199.983Y130.799
G1 X200.382Y130.675
G1 X200.743Y130.479
G1 X201.058Y130.219
G1 X201.317Y129.905
G1 X201.513Y129.544
G1 X201.637Y129.145
G1 X201.68Y128.717
G1 X201.637Y128.288
G1 X201.513Y127.889
G1 X201.317Y127.528
G1 X201.058Y127.214
G1 X200.743Y126.954
G1 X200.382Y126.759
G1 X199.983Y126.635
G1 X199.555Y126.592
G1 X199.127Y126.635
G1 X198.728Y126.759
G1 X198.367Y126.954
G1 X198.053Y127.214
G1 X197.793Y127.528
G1 X197.597Y127.889
G1 X197.473Y128.288
G1 X197.43Y128.717
G1 X197.473Y129.145
G1 X197.597Y129.544
G1 X197.793Y129.905
G1 X198.053Y130.219
G1 X198.367Y130.479
G1 X198.728Y130.675
G1 X199.127Y130.799
G1 X199.555Y130.842
G1 X199.983Y130.799
G1 X199.623Y130.828
G0 X201.68Y116.416
G1 X201.637Y115.988
G1 X201.513Y115.589
G1 X201.317Y115.228
G1 X201.058Y114.914
G1 X200.743Y114.654
G1 X200.382Y114.458
G1 X199.983Y114.334
G1 X199.555Y114.291
G1 X199.127Y114.334
G1 X198.728Y114.458
G1 X198.367Y114.654
G1 X198.053Y114.914
G1 X197.793Y115.228
G1 X197.597Y115.589
G1 X197.473Y115.988
G1 X197.43Y116.416
G1 X197.473Y116.845
G1 X197.597Y117.243
G1 X197.793Y117.604
G1 X198.053Y117.919
G1 X198.367Y118.178
G1 X198.728Y118.374
G1 X199.127Y118.498
G1 X199.555Y118.541
G1 X199.983Y118.498
G1 X200.382Y118.374
G1 X200.743Y118.178
G1 X201.058Y117.919
G1 X201.317Y117.604
G1 X201.513Y117.243
G1 X201.637Y116.845
G1 X201.68Y116.416
G1 X201.637Y115.988
G1 X201.666Y116.348
G0 X178.178Y123.236
G1 X178.221Y123.665
G1 X178.345Y124.063
G1 X178.541Y124.424
G1 X178.801Y124.739
G1 X179.115Y124.998
G1 X179.476Y125.194
G1 X179.875Y125.318
G1 X180.303Y125.361
G1 X180.731Y125.318
G1 X181.13Y125.194
G1 X181.491Y124.998
G1 X181.806Y124.739
G1 X182.065Y124.424
G1 X182.261Y124.063
G1 X182.385Y123.665
G1 X182.428Y123.236
G1 X182.385Y122.808
G1 X182.261Y122.409
G1 X182.065Y122.048
G1 X181.806Y121.734
G1 X181.491Y121.474
G1 X181.13Y121.278
G1 X180.731Y121.154
G1 X180.303Y121.111
G1 X179.875Y121.154
G1 X179.476Y121.278
G1 X179.115Y121.474
G1 X178.801Y121.734
G1 X178.541Y122.048
G1 X178.345Y122.409
G1 X178.221Y122.808
G1 X178.178Y123.236
G1 X178.221Y123.665
G1 X178.192Y123.304
G0 X148.2Y110.431
G1 X147.772Y110.474
G1 X147.373Y110.598
G1 X147.012Y110.794
G1 X146.697Y111.053
G1 X146.438Y111.368
G1 X146.242Y111.729
G1 X146.118Y112.128
G1 X146.075Y112.556
G1 X146.118Y112.984
G1 X146.242Y113.383
G1 X146.438Y113.744
G1 X146.697Y114.058
G1 X147.012Y114.318
G1 X147.373Y114.514
G1 X147.772Y114.638
G1 X148.2Y114.681
G1 X148.628Y114.638
G1 X149.027Y114.514
G1 X149.388Y114.318
G1 X149.703Y114.058
G1 X149.962Y113.744
G1 X150.158Y113.383
G1 X150.282Y112.984
G1 X150.325Y112.556
G1 X150.282Y112.128
G1 X150.158Y111.729
G1 X149.962Y111.368
G1 X149.703Y111.053
G1 X149.388Y110.794
G1 X149.027Y110.598
G1 X148.628Y110.474
G1 X148.2Y110.431
G1 X147.772Y110.474
G1 X148.132Y110.445
G0 X132.534Y112.556
G1 X132.577Y112.984
G1 X132.701Y113.383
G1 X132.897Y113.744
G1 X133.156Y114.058
G1 X133.471Y114.318
G1 X133.832Y114.514
G1 X134.231Y114.638
G1 X134.659Y114.681
G1 X135.087Y114.638
G1 X135.486Y114.514
G1 X135.847Y114.318
G1 X136.162Y114.058
G1 X136.421Y113.744
G1 X136.617Y113.383
G1 X136.741Y112.984
G1 X136.784Y112.556
G1 X136.741Y112.128
G1 X136.617Y111.729
G1 X136.421Y111.368
G1 X136.162Y111.053
G1 X135.847Y110.794
G1 X135.486Y110.598
G1 X135.087Y110.474
G1 X134.659Y110.431
G1 X134.231Y110.474
G1 X133.832Y110.598
G1 X133.471Y110.794
G1 X133.156Y111.053
G1 X132.897Y111.368
G1 X132.701Y111.729
G1 X132.577Y112.128
G1 X132.534Y112.556
G1 X132.577Y112.984
G1 X132.548Y112.624
G0 X134.659Y135.026
G1 X135.087Y134.983
G1 X135.486Y134.859
G1 X135.847Y134.663
G1 X136.162Y134.404
G1 X136.421Y134.089
G1 X136.617Y133.728
G1 X136.741Y133.329
G1 X136.784Y132.901
G1 X136.741Y132.473
G1 X136.617Y132.074
G1 X136.421Y131.713
G1 X136.162Y131.399
G1 X135.847Y131.139
G1 X135.486Y130.943
G1 X135.087Y130.819
G1 X134.659Y130.776
G1 X134.231Y130.819
G1 X133.832Y130.943
G1 X133.471Y131.139
G1 X133.156Y131.399
G1 X132.897Y131.713
G1 X132.701Y132.074
G1 X132.577Y132.473
G1 X132.534Y132.901
G1 X132.577Y133.329
G1 X132.701Y133.728
G1 X132.897Y134.089
G1 X133.156Y134.404
G1 X133.471Y134.663
G1 X133.832Y134.859
G1 X134.231Y134.983
G1 X134.659Y135.026
G1 X135.087Y134.983
G1 X134.727Y135.012
G0 X139.659Y137.714
G1 Y127.715
G1 X138.784Y127.689
G1 X137.935Y127.613
G1 X137.115Y127.49
G1 X136.328Y127.322
G1 X135.58Y127.111
G1 X134.875Y126.861
G1 X134.216Y126.573
G1 X133.609Y126.25
G1 X133.056Y125.895
G1 X132.564Y125.51
G1 X132.135Y125.098
G1 X131.775Y124.661
G1 X131.487Y124.201
G1 X131.276Y123.722
G1 X131.147Y123.226
G1 X131.102Y122.715
G1 X131.147Y122.203
G1 X131.276Y121.707
G1 X131.487Y121.228
G1 X131.775Y120.768
G1 X132.135Y120.331
G1 X132.564Y119.919
G1 X133.056Y119.534
G1 X133.609Y119.179
G1 X134.216Y118.856
G1 X134.875Y118.569
G1 X135.58Y118.318
G1 X136.328Y118.108
G1 X137.115Y117.939
G1 X137.935Y117.816
G1 X138.784Y117.741
G1 X139.659Y117.715
G1 Y107.715
G1 X129.659
G1 Y137.714
G1 X139.659
G1 Y137.214
G0 X150.325Y132.901
G1 X150.282Y132.473
G1 X150.158Y132.074
G1 X149.962Y131.713
G1 X149.703Y131.399
G1 X149.388Y131.139
G1 X149.027Y130.943
G1 X148.628Y130.819
G1 X148.2Y130.776
G1 X147.772Y130.819
G1 X147.373Y130.943
G1 X147.012Y131.139
G1 X146.697Y131.399
G1 X146.438Y131.713
G1 X146.242Y132.074
G1 X146.118Y132.473
G1 X146.075Y132.901
G1 X146.118Y133.329
G1 X146.242Y133.728
G1 X146.438Y134.089
G1 X146.697Y134.404
G1 X147.012Y134.663
G1 X147.373Y134.859
G1 X147.772Y134.983
G1 X148.2Y135.026
G1 X148.628Y134.983
G1 X149.027Y134.859
G1 X149.388Y134.663
G1 X149.703Y134.404
G1 X149.962Y134.089
G1 X150.158Y133.728
G1 X150.282Y133.329
G1 X150.325Y132.901
G1 X150.282Y132.473
G1 X150.311Y132.833
G0 X132.534Y143.39
G1 X132.577Y143.818
G1 X132.701Y144.217
G1 X132.897Y144.578
G1 X133.156Y144.892
G1 X133.471Y145.152
G1 X133.832Y145.348
G1 X134.231Y145.471
G1 X134.659Y145.515
G1 X135.087Y145.471
G1 X135.486Y145.348
G1 X135.847Y145.152
G1 X136.162Y144.892
G1 X136.421Y144.578
G1 X136.617Y144.217
G1 X136.741Y143.818
G1 X136.784Y143.39
G1 X136.741Y142.961
G1 X136.617Y142.563
G1 X136.421Y142.202
G1 X136.162Y141.887
G1 X135.847Y141.628
G1 X135.486Y141.432
G1 X135.087Y141.308
G1 X134.659Y141.265
G1 X134.231Y141.308
G1 X133.832Y141.432
G1 X133.471Y141.628
G1 X133.156Y141.887
G1 X132.897Y142.202
G1 X132.701Y142.563
G1 X132.577Y142.961
G1 X132.534Y143.39
G1 X132.577Y143.818
G1 X132.548Y143.458
G0 X148.2Y145.515
G1 X148.628Y145.471
G1 X149.027Y145.348
G1 X149.388Y145.152
G1 X149.703Y144.892
G1 X149.962Y144.578
G1 X150.158Y144.217
G1 X150.282Y143.818
G1 X150.325Y143.39
G1 X150.282Y142.961
G1 X150.158Y142.563
G1 X149.962Y142.202
G1 X149.703Y141.887
G1 X149.388Y141.628
G1 X149.027Y141.432
G1 X148.628Y141.308
G1 X148.2Y141.265
G1 X147.772Y141.308
G1 X147.373Y141.432
G1 X147.012Y141.628
G1 X146.697Y141.887
G1 X146.438Y142.202
G1 X146.242Y142.563
G1 X146.118Y142.961
G1 X146.075Y143.39
G1 X146.118Y143.818
G1 X146.242Y144.217
G1 X146.438Y144.578
G1 X146.697Y144.892
G1 X147.012Y145.152
G1 X147.373Y145.348
G1 X147.772Y145.471
G1 X148.2Y145.515
G1 X148.628Y145.471
G1 X148.268Y145.501
G0 X132.534Y163.735
G1 X132.577Y164.163
G1 X132.701Y164.562
G1 X132.897Y164.923
G1 X133.156Y165.238
G1 X133.471Y165.497
G1 X133.832Y165.693
G1 X134.231Y165.817
G1 X134.659Y165.86
G1 X135.087Y165.817
G1 X135.486Y165.693
G1 X135.847Y165.497
G1 X136.162Y165.238
G1 X136.421Y164.923
G1 X136.617Y164.562
G1 X136.741Y164.163
G1 X136.784Y163.735
G1 X136.741Y163.307
G1 X136.617Y162.908
G1 X136.421Y162.547
G1 X136.162Y162.232
G1 X135.847Y161.973
G1 X135.486Y161.777
G1 X135.087Y161.653
G1 X134.659Y161.61
G1 X134.231Y161.653
G1 X133.832Y161.777
G1 X133.471Y161.973
G1 X133.156Y162.232
G1 X132.897Y162.547
G1 X132.701Y162.908
G1 X132.577Y163.307
G1 X132.534Y163.735
G1 X132.577Y164.163
G1 X132.548Y163.803
G0 X129.659Y168.589
G1 X139.659
G1 Y138.589
G1 X129.659
G1 Y168.589
G1 X130.159
G0 X138.542Y179.652
G1 X137.693Y179.728
G1 X136.873Y179.851
G1 X136.086Y180.019
G1 X135.338Y180.23
G1 X134.633Y180.48
G1 X133.974Y180.768
G1 X133.367Y181.091
G1 X132.814Y181.446
G1 X132.322Y181.831
G1 X131.893Y182.243
G1 X131.533Y182.68
G1 X131.245Y183.14
G1 X131.034Y183.619
G1 X130.905Y184.115
G1 X130.86Y184.626
G1 X130.905Y185.138
G1 X131.034Y185.634
G1 X131.245Y186.113
G1 X131.533Y186.573
G1 X131.893Y187.01
G1 X132.322Y187.422
G1 X132.814Y187.807
G1 X133.367Y188.162
G1 X133.974Y188.485
G1 X134.633Y188.773
G1 X135.338Y189.023
G1 X136.086Y189.234
G1 X136.873Y189.402
G1 X137.693Y189.525
G1 X138.542Y189.601
G1 X139.417Y189.626
G1 Y199.626
G1 X129.417
G1 Y169.626
G1 X139.417
G1 Y179.627
G1 X138.542Y179.652
G1 X138.044Y179.697
G0 X150.325Y163.735
G1 X150.282Y163.307
G1 X150.158Y162.908
G1 X149.962Y162.547
G1 X149.703Y162.232
G1 X149.388Y161.973
G1 X149.027Y161.777
G1 X148.628Y161.653
G1 X148.2Y161.61
G1 X147.772Y161.653
G1 X147.373Y161.777
G1 X147.012Y161.973
G1 X146.697Y162.232
G1 X146.438Y162.547
G1 X146.242Y162.908
G1 X146.118Y163.307
G1 X146.075Y163.735
G1 X146.118Y164.163
G1 X146.242Y164.562
G1 X146.438Y164.923
G1 X146.697Y165.238
G1 X147.012Y165.497
G1 X147.373Y165.693
G1 X147.772Y165.817
G1 X148.2Y165.86
G1 X148.628Y165.817
G1 X149.027Y165.693
G1 X149.388Y165.497
G1 X149.703Y165.238
G1 X149.962Y164.923
G1 X150.158Y164.562
G1 X150.282Y164.163
G1 X150.325Y163.735
G1 X150.282Y163.307
G1 X150.311Y163.667
G0 X153.2Y168.589
G1 Y138.589
G1 X143.2
G1 Y168.589
G1 X153.2
G1 Y168.089
G0 X244.627Y178.677
G1 Y158.677
G1 X154.676
G1 Y178.677
G1 X244.627
G1 Y178.177
G0 X267.45Y174.551
G1 X267.407Y174.123
G1 X267.283Y173.724
G1 X267.087Y173.363
G1 X266.828Y173.048
G1 X266.513Y172.789
G1 X266.153Y172.593
G1 X265.754Y172.469
G1 X265.325Y172.426
G1 X264.897Y172.469
G1 X264.498Y172.593
G1 X264.137Y172.789
G1 X263.823Y173.048
G1 X263.563Y173.363
G1 X263.367Y173.724
G1 X263.243Y174.123
G1 X263.2Y174.551
G1 X263.243Y174.979
G1 X263.367Y175.378
G1 X263.563Y175.739
G1 X263.823Y176.054
G1 X264.137Y176.313
G1 X264.498Y176.509
G1 X264.897Y176.633
G1 X265.325Y176.676
G1 X265.754Y176.633
G1 X266.153Y176.509
G1 X266.513Y176.313
G1 X266.828Y176.054
G1 X267.087Y175.739
G1 X267.283Y175.378
G1 X267.407Y174.979
G1 X267.45Y174.551
G1 X267.407Y174.123
G1 X267.437Y174.483
G0 X249.659Y194.896
G1 X249.702Y195.325
G1 X249.826Y195.723
G1 X250.022Y196.084
G1 X250.282Y196.399
G1 X250.596Y196.658
G1 X250.957Y196.854
G1 X251.356Y196.978
G1 X251.784Y197.021
G1 X252.213Y196.978
G1 X252.612Y196.854
G1 X252.973Y196.658
G1 X253.287Y196.399
G1 X253.547Y196.084
G1 X253.743Y195.723
G1 X253.866Y195.325
G1 X253.91Y194.896
G1 X253.866Y194.468
G1 X253.743Y194.069
G1 X253.547Y193.708
G1 X253.287Y193.394
G1 X252.973Y193.134
G1 X252.612Y192.938
G1 X252.213Y192.815
G1 X251.784Y192.771
G1 X251.356Y192.815
G1 X250.957Y192.938
G1 X250.596Y193.134
G1 X250.282Y193.394
G1 X250.022Y193.708
G1 X249.826Y194.069
G1 X249.702Y194.468
G1 X249.659Y194.896
G1 X249.702Y195.325
G1 X249.673Y194.964
G0 X251.784Y227.855
G1 X252.213Y227.812
G1 X252.612Y227.688
G1 X252.973Y227.492
G1 X253.287Y227.233
G1 X253.547Y226.918
G1 X253.743Y226.557
G1 X253.866Y226.158
G1 X253.91Y225.73
G1 X253.866Y225.302
G1 X253.743Y224.903
G1 X253.547Y224.542
G1 X253.287Y224.228
G1 X252.973Y223.968
G1 X252.612Y223.772
G1 X252.213Y223.648
G1 X251.784Y223.605
G1 X251.356Y223.648
G1 X250.957Y223.772
G1 X250.596Y223.968
G1 X250.282Y224.228
G1 X250.022Y224.542
G1 X249.826Y224.903
G1 X249.702Y225.302
G1 X249.659Y225.73
G1 X249.702Y226.158
G1 X249.826Y226.557
G1 X250.022Y226.918
G1 X250.282Y227.233
G1 X250.596Y227.492
G1 X250.957Y227.688
G1 X251.356Y227.812
G1 X251.784Y227.855
G1 X252.213Y227.812
G1 X251.853Y227.841
G0 X256.812Y241.412
G1 X255.937Y241.438
G1 X255.087Y241.513
G1 X254.267Y241.636
G1 X253.481Y241.805
G1 X252.733Y242.015
G1 X252.027Y242.266
G1 X251.369Y242.553
G1 X250.761Y242.876
G1 X250.209Y243.231
G1 X249.716Y243.616
G1 X249.288Y244.028
G1 X248.927Y244.465
G1 X248.64Y244.925
G1 X248.429Y245.404
G1 X248.299Y245.9
G1 X248.255Y246.412
G1 X248.299Y246.923
G1 X248.429Y247.419
G1 X248.64Y247.899
G1 X248.927Y248.358
G1 X249.288Y248.795
G1 X249.716Y249.207
G1 X250.209Y249.592
G1 X250.761Y249.947
G1 X251.369Y250.27
G1 X252.027Y250.558
G1 X252.733Y250.808
G1 X253.481Y251.019
G1 X254.267Y251.187
G1 X255.087Y251.31
G1 X255.937Y251.386
G1 X256.812Y251.412
G1 Y261.411
G1 X246.812
G1 Y231.412
G1 X256.812
G1 Y241.412
G1 X256.312Y241.426
G0 X267.45Y194.896
G1 X267.407Y194.468
G1 X267.283Y194.069
G1 X267.087Y193.708
G1 X266.828Y193.394
G1 X266.513Y193.134
G1 X266.153Y192.938
G1 X265.754Y192.815
G1 X265.325Y192.771
G1 X264.897Y192.815
G1 X264.498Y192.938
G1 X264.137Y193.134
G1 X263.823Y193.394
G1 X263.563Y193.708
G1 X263.367Y194.069
G1 X263.243Y194.468
G1 X263.2Y194.896
G1 X263.243Y195.325
G1 X263.367Y195.723
G1 X263.563Y196.084
G1 X263.823Y196.399
G1 X264.137Y196.658
G1 X264.498Y196.854
G1 X264.897Y196.978
G1 X265.325Y197.021
G1 X265.754Y196.978
G1 X266.153Y196.854
G1 X266.513Y196.658
G1 X266.828Y196.399
G1 X267.087Y196.084
G1 X267.283Y195.723
G1 X267.407Y195.325
G1 X267.45Y194.896
G1 X267.407Y194.468
G1 X267.437Y194.828
G0 X260.341Y189.71
G1 X259.466Y189.684
G1 X258.617Y189.608
G1 X257.797Y189.485
G1 X257.01Y189.317
G1 X256.262Y189.106
G1 X255.557Y188.856
G1 X254.898Y188.568
G1 X254.291Y188.245
G1 X253.738Y187.89
G1 X253.246Y187.505
G1 X252.817Y187.093
G1 X252.457Y186.656
G1 X252.169Y186.197
G1 X251.958Y185.717
G1 X251.829Y185.221
G1 X251.784Y184.71
G1 X251.829Y184.199
G1 X251.958Y183.702
G1 X252.169Y183.223
G1 X252.457Y182.764
G1 X252.817Y182.326
G1 X253.246Y181.914
G1 X253.738Y181.529
G1 X254.291Y181.174
G1 X254.898Y180.852
G1 X255.557Y180.564
G1 X256.262Y180.313
G1 X257.01Y180.103
G1 X257.797Y179.935
G1 X258.617Y179.811
G1 X259.466Y179.736
G1 X260.341Y179.71
G1 Y169.71
G1 X270.341
G1 Y199.71
G1 X260.341
G1 Y189.71
G1 X259.841Y189.695
G0 X249.659Y205.385
G1 X249.702Y205.813
G1 X249.826Y206.212
G1 X250.022Y206.573
G1 X250.282Y206.887
G1 X250.596Y207.147
G1 X250.957Y207.343
G1 X251.356Y207.467
G1 X251.784Y207.51
G1 X252.213Y207.467
G1 X252.612Y207.343
G1 X252.973Y207.147
G1 X253.287Y206.887
G1 X253.547Y206.573
G1 X253.743Y206.212
G1 X253.866Y205.813
G1 X253.91Y205.385
G1 X253.866Y204.957
G1 X253.743Y204.558
G1 X253.547Y204.197
G1 X253.287Y203.882
G1 X252.973Y203.623
G1 X252.612Y203.427
G1 X252.213Y203.303
G1 X251.784Y203.26
G1 X251.356Y203.303
G1 X250.957Y203.427
G1 X250.596Y203.623
G1 X250.282Y203.882
G1 X250.022Y204.197
G1 X249.826Y204.558
G1 X249.702Y204.957
G1 X249.659Y205.385
G1 X249.702Y205.813
G1 X249.673Y205.453
G0 X265.325Y207.51
G1 X265.754Y207.467
G1 X266.153Y207.343
G1 X266.513Y207.147
G1 X266.828Y206.887
G1 X267.087Y206.573
G1 X267.283Y206.212
G1 X267.407Y205.813
G1 X267.45Y205.385
G1 X267.407Y204.957
G1 X267.283Y204.558
G1 X267.087Y204.197
G1 X266.828Y203.882
G1 X266.513Y203.623
G1 X266.153Y203.427
G1 X265.754Y203.303
G1 X265.325Y203.26
G1 X264.897Y203.303
G1 X264.498Y203.427
G1 X264.137Y203.623
G1 X263.823Y203.882
G1 X263.563Y204.197
G1 X263.367Y204.558
G1 X263.243Y204.957
G1 X263.2Y205.385
G1 X263.243Y205.813
G1 X263.367Y206.212
G1 X263.563Y206.573
G1 X263.823Y206.887
G1 X264.137Y207.147
G1 X264.498Y207.343
G1 X264.897Y207.467
G1 X265.325Y207.51
G1 X265.754Y207.467
G1 X265.393Y207.496
G0 X263.2Y225.73
G1 X263.243Y226.158
G1 X263.367Y226.557
G1 X263.563Y226.918
G1 X263.823Y227.233
G1 X264.137Y227.492
G1 X264.498Y227.688
G1 X264.897Y227.812
G1 X265.325Y227.855
G1 X265.754Y227.812
G1 X266.153Y227.688
G1 X266.513Y227.492
G1 X266.828Y227.233
G1 X267.087Y226.918
G1 X267.283Y226.557
G1 X267.407Y226.158
G1 X267.45Y225.73
G1 X267.407Y225.302
G1 X267.283Y224.903
G1 X267.087Y224.542
G1 X266.828Y224.228
G1 X266.513Y223.968
G1 X266.153Y223.772
G1 X265.754Y223.648
G1 X265.325Y223.605
G1 X264.897Y223.648
G1 X264.498Y223.772
G1 X264.137Y223.968
G1 X263.823Y224.228
G1 X263.563Y224.542
G1 X263.367Y224.903
G1 X263.243Y225.302
G1 X263.2Y225.73
G1 X263.243Y226.158
G1 X263.214Y225.798
G0 X260.326Y230.584
G1 X270.325
G1 Y200.584
G1 X260.326
G1 Y230.584
G1 X260.826
G0 X154.725Y269.563
G1 X244.676
G1 Y249.563
G1 X154.725
G1 Y269.563
G1 X155.225
G0 X254.151Y163.818
G1 X254.108Y163.39
G1 X253.984Y162.991
G1 X253.788Y162.63
G1 X253.529Y162.316
G1 X253.214Y162.056
G1 X252.854Y161.86
G1 X252.455Y161.736
G1 X252.026Y161.693
G1 X251.598Y161.736
G1 X251.199Y161.86
G1 X250.838Y162.056
G1 X250.524Y162.316
G1 X250.264Y162.63
G1 X250.068Y162.991
G1 X249.944Y163.39
G1 X249.901Y163.818
G1 X249.944Y164.246
G1 X250.068Y164.645
G1 X250.264Y165.006
G1 X250.524Y165.321
G1 X250.838Y165.58
G1 X251.199Y165.776
G1 X251.598Y165.9
G1 X252.026Y165.943
G1 X252.455Y165.9
G1 X252.854Y165.776
G1 X253.214Y165.58
G1 X253.529Y165.321
G1 X253.788Y165.006
G1 X253.984Y164.645
G1 X254.108Y164.246
G1 X254.151Y163.818
G1 X254.108Y163.39
G1 X254.138Y163.75
G0 X265.567Y165.943
G1 X265.996Y165.9
G1 X266.394Y165.776
G1 X266.755Y165.58
G1 X267.07Y165.321
G1 X267.329Y165.006
G1 X267.525Y164.645
G1 X267.649Y164.246
G1 X267.692Y163.818
G1 X267.649Y163.39
G1 X267.525Y162.991
G1 X267.329Y162.63
G1 X267.07Y162.316
G1 X266.755Y162.056
G1 X266.394Y161.86
G1 X265.996Y161.736
G1 X265.567Y161.693
G1 X265.139Y161.736
G1 X264.74Y161.86
G1 X264.379Y162.056
G1 X264.065Y162.316
G1 X263.805Y162.63
G1 X263.609Y162.991
G1 X263.485Y163.39
G1 X263.442Y163.818
G1 X263.485Y164.246
G1 X263.609Y164.645
G1 X263.805Y165.006
G1 X264.065Y165.321
G1 X264.379Y165.58
G1 X264.74Y165.776
G1 X265.139Y165.9
G1 X265.567Y165.943
G1 X265.996Y165.9
G1 X265.635Y165.929
G0 X246.785Y199.71
G1 X256.784
G1 Y189.71
G1 X255.91Y189.684
G1 X255.06Y189.608
G1 X254.24Y189.485
G1 X253.454Y189.317
G1 X252.706Y189.106
G1 X252Y188.856
G1 X251.342Y188.568
G1 X250.734Y188.245
G1 X250.182Y187.89
G1 X249.689Y187.505
G1 X249.261Y187.093
G1 X248.9Y186.656
G1 X248.612Y186.197
G1 X248.402Y185.717
G1 X248.272Y185.221
G1 X248.228Y184.71
G1 X248.272Y184.199
G1 X248.402Y183.702
G1 X248.612Y183.223
G1 X248.9Y182.764
G1 X249.261Y182.326
G1 X249.689Y181.914
G1 X250.182Y181.529
G1 X250.734Y181.174
G1 X251.342Y180.852
G1 X252Y180.564
G1 X252.706Y180.313
G1 X253.454Y180.103
G1 X254.24Y179.935
G1 X255.06Y179.811
G1 X255.91Y179.736
G1 X256.784Y179.71
G1 Y169.71
G1 X246.785
G1 Y199.71
G1 X247.285
G0 X256.784Y230.584
G1 Y200.584
G1 X246.785
G1 Y230.584
G1 X256.784
G1 Y230.084
G0 X252.026Y141.348
G1 X251.598Y141.391
G1 X251.199Y141.515
G1 X250.838Y141.711
G1 X250.524Y141.97
G1 X250.264Y142.285
G1 X250.068Y142.646
G1 X249.944Y143.045
G1 X249.901Y143.473
G1 X249.944Y143.901
G1 X250.068Y144.3
G1 X250.264Y144.661
G1 X250.524Y144.975
G1 X250.838Y145.235
G1 X251.199Y145.431
G1 X251.598Y145.555
G1 X252.026Y145.598
G1 X252.455Y145.555
G1 X252.854Y145.431
G1 X253.214Y145.235
G1 X253.529Y144.975
G1 X253.788Y144.661
G1 X253.984Y144.3
G1 X254.108Y143.901
G1 X254.151Y143.473
G1 X254.108Y143.045
G1 X253.984Y142.646
G1 X253.788Y142.285
G1 X253.529Y141.97
G1 X253.214Y141.711
G1 X252.854Y141.515
G1 X252.455Y141.391
G1 X252.026Y141.348
G1 X251.598Y141.391
G1 X251.958Y141.362
G0 X247.027Y138.672
G1 Y168.672
G1 X257.026
G1 Y138.672
G1 X247.027
G1 Y139.172
G0 X254.151Y132.984
G1 X254.108Y132.556
G1 X253.984Y132.157
G1 X253.788Y131.796
G1 X253.529Y131.482
G1 X253.214Y131.223
G1 X252.854Y131.027
G1 X252.455Y130.903
G1 X252.026Y130.86
G1 X251.598Y130.903
G1 X251.199Y131.027
G1 X250.838Y131.223
G1 X250.524Y131.482
G1 X250.264Y131.796
G1 X250.068Y132.157
G1 X249.944Y132.556
G1 X249.901Y132.984
G1 X249.944Y133.413
G1 X250.068Y133.812
G1 X250.264Y134.173
G1 X250.524Y134.487
G1 X250.838Y134.747
G1 X251.199Y134.942
G1 X251.598Y135.066
G1 X252.026Y135.109
G1 X252.455Y135.066
G1 X252.854Y134.942
G1 X253.214Y134.747
G1 X253.529Y134.487
G1 X253.788Y134.173
G1 X253.984Y133.812
G1 X254.108Y133.413
G1 X254.151Y132.984
G1 X254.108Y132.556
G1 X254.138Y132.916
G0 X252.026Y110.514
G1 X251.598Y110.557
G1 X251.199Y110.681
G1 X250.838Y110.877
G1 X250.524Y111.137
G1 X250.264Y111.451
G1 X250.068Y111.812
G1 X249.944Y112.211
G1 X249.901Y112.639
G1 X249.944Y113.067
G1 X250.068Y113.466
G1 X250.264Y113.827
G1 X250.524Y114.142
G1 X250.838Y114.401
G1 X251.199Y114.597
G1 X251.598Y114.721
G1 X252.026Y114.764
G1 X252.455Y114.721
G1 X252.854Y114.597
G1 X253.214Y114.401
G1 X253.529Y114.142
G1 X253.788Y113.827
G1 X253.984Y113.466
G1 X254.108Y113.067
G1 X254.151Y112.639
G1 X254.108Y112.211
G1 X253.984Y111.812
G1 X253.788Y111.451
G1 X253.529Y111.137
G1 X253.214Y110.877
G1 X252.854Y110.681
G1 X252.455Y110.557
G1 X252.026Y110.514
G1 X251.598Y110.557
G1 X251.958Y110.528
G0 X265.567Y135.109
G1 X265.996Y135.066
G1 X266.394Y134.942
G1 X266.755Y134.747
G1 X267.07Y134.487
G1 X267.329Y134.173
G1 X267.525Y133.812
G1 X267.649Y133.413
G1 X267.692Y132.984
G1 X267.649Y132.556
G1 X267.525Y132.157
G1 X267.329Y131.796
G1 X267.07Y131.482
G1 X266.755Y131.223
G1 X266.394Y131.027
G1 X265.996Y130.903
G1 X265.567Y130.86
G1 X265.139Y130.903
G1 X264.74Y131.027
G1 X264.379Y131.223
G1 X264.065Y131.482
G1 X263.805Y131.796
G1 X263.609Y132.157
G1 X263.485Y132.556
G1 X263.442Y132.984
G1 X263.485Y133.413
G1 X263.609Y133.812
G1 X263.805Y134.173
G1 X264.065Y134.487
G1 X264.379Y134.747
G1 X264.74Y134.942
G1 X265.139Y135.066
G1 X265.567Y135.109
G1 X265.996Y135.066
G1 X265.635Y135.096
G0 X263.442Y143.473
G1 X263.485Y143.901
G1 X263.609Y144.3
G1 X263.805Y144.661
G1 X264.065Y144.975
G1 X264.379Y145.235
G1 X264.74Y145.431
G1 X265.139Y145.555
G1 X265.567Y145.598
G1 X265.996Y145.555
G1 X266.394Y145.431
G1 X266.755Y145.235
G1 X267.07Y144.975
G1 X267.329Y144.661
G1 X267.525Y144.3
G1 X267.649Y143.901
G1 X267.692Y143.473
G1 X267.649Y143.045
G1 X267.525Y142.646
G1 X267.329Y142.285
G1 X267.07Y141.97
G1 X266.755Y141.711
G1 X266.394Y141.515
G1 X265.996Y141.391
G1 X265.567Y141.348
G1 X265.139Y141.391
G1 X264.74Y141.515
G1 X264.379Y141.711
G1 X264.065Y141.97
G1 X263.805Y142.285
G1 X263.609Y142.646
G1 X263.485Y143.045
G1 X263.442Y143.473
G1 X263.485Y143.901
G1 X263.456Y143.541
G0 X267.692Y112.639
G1 X267.649Y112.211
G1 X267.525Y111.812
G1 X267.329Y111.451
G1 X267.07Y111.137
G1 X266.755Y110.877
G1 X266.394Y110.681
G1 X265.996Y110.557
G1 X265.567Y110.514
G1 X265.139Y110.557
G1 X264.74Y110.681
G1 X264.379Y110.877
G1 X264.065Y111.137
G1 X263.805Y111.451
G1 X263.609Y111.812
G1 X263.485Y112.211
G1 X263.442Y112.639
G1 X263.485Y113.067
G1 X263.609Y113.466
G1 X263.805Y113.827
G1 X264.065Y114.142
G1 X264.379Y114.401
G1 X264.74Y114.597
G1 X265.139Y114.721
G1 X265.567Y114.764
G1 X265.996Y114.721
G1 X266.394Y114.597
G1 X266.755Y114.401
G1 X267.07Y114.142
G1 X267.329Y113.827
G1 X267.525Y113.466
G1 X267.649Y113.067
G1 X267.692Y112.639
G1 X267.649Y112.211
G1 X267.679Y112.571
G0 X270.583Y107.798
G1 Y137.798
G1 X260.583
G1 Y127.798
G1 X259.708Y127.772
G1 X258.858Y127.696
G1 X258.038Y127.573
G1 X257.252Y127.405
G1 X256.504Y127.194
G1 X255.799Y126.944
G1 X255.14Y126.656
G1 X254.532Y126.333
G1 X253.98Y125.978
G1 X253.488Y125.593
G1 X253.059Y125.181
G1 X252.699Y124.744
G1 X252.411Y124.285
G1 X252.2Y123.806
G1 X252.071Y123.309
G1 X252.026Y122.798
G1 X252.071Y122.287
G1 X252.2Y121.79
G1 X252.411Y121.311
G1 X252.699Y120.852
G1 X253.059Y120.415
G1 X253.488Y120.002
G1 X253.98Y119.617
G1 X254.532Y119.262
G1 X255.14Y118.94
G1 X255.799Y118.652
G1 X256.504Y118.401
G1 X257.252Y118.191
G1 X258.038Y118.023
G1 X258.858Y117.9
G1 X259.708Y117.824
G1 X260.583Y117.798
G1 Y107.798
G1 X270.583
G1 Y108.298
G0 X260.567Y168.672
G1 X270.567
G1 Y138.672
G1 X260.567
G1 Y168.672
G1 X261.067
G0 X154.676Y201.23
G1 X244.627
G1 Y181.23
G1 X154.676
G1 Y201.23
G1 X155.176
G0 X156.779Y243.286
G1 X157.36Y243.996
G1 X157.999Y244.642
G1 X158.691Y245.217
G1 X159.433Y245.718
G1 X160.219Y246.139
G1 X161.046Y246.475
G1 X161.908Y246.722
G1 X162.351Y246.81
G1 X162.801Y246.873
G1 X163.258Y246.912
G1 X163.721Y246.925
G1 X235.681
G1 X236.144Y246.912
G1 X236.601Y246.873
G1 X237.051Y246.81
G1 X237.494Y246.722
G1 X238.356Y246.475
G1 X239.183Y246.139
G1 X239.969Y245.718
G1 X240.711Y245.217
G1 X241.403Y244.642
G1 X242.042Y243.996
G1 X242.622Y243.286
G1 X243.14Y242.516
G1 X243.591Y241.692
G1 X243.969Y240.818
G1 X244.272Y239.899
G1 X244.494Y238.94
G1 X244.63Y237.948
G1 X244.676Y236.925
G1 Y226.925
G1 X154.725
G1 Y236.925
G1 X154.772Y237.948
G1 X154.908Y238.94
G1 X155.13Y239.899
G1 X155.432Y240.818
G1 X155.811Y241.692
G1 X156.262Y242.516
G1 X156.779Y243.286
G1 X157.096Y243.673
G0 X257.026Y117.798
G1 Y107.798
G1 X247.026
G1 Y137.798
G1 X257.026
G1 Y127.798
G1 X256.151Y127.772
G1 X255.302Y127.696
G1 X254.482Y127.573
G1 X253.696Y127.405
G1 X252.948Y127.194
G1 X252.242Y126.944
G1 X251.583Y126.656
G1 X250.976Y126.333
G1 X250.424Y125.978
G1 X249.931Y125.593
G1 X249.502Y125.181
G1 X249.142Y124.744
G1 X248.854Y124.285
G1 X248.644Y123.806
G1 X248.514Y123.309
G1 X248.47Y122.798
G1 X248.514Y122.287
G1 X248.644Y121.79
G1 X248.854Y121.311
G1 X249.142Y120.852
G1 X249.502Y120.415
G1 X249.931Y120.002
G1 X250.424Y119.617
G1 X250.976Y119.262
G1 X251.583Y118.94
G1 X252.242Y118.652
G1 X252.948Y118.401
G1 X253.696Y118.191
G1 X254.482Y118.023
G1 X255.302Y117.9
G1 X256.151Y117.824
G1 X257.026Y117.798
G1 Y117.298
G0 X143.216Y137.714
G1 Y127.715
G1 X142.341Y127.689
G1 X141.491Y127.613
G1 X140.671Y127.49
G1 X139.885Y127.322
G1 X139.137Y127.111
G1 X138.432Y126.861
G1 X137.773Y126.573
G1 X137.165Y126.25
G1 X136.613Y125.895
G1 X136.12Y125.51
G1 X135.692Y125.098
G1 X135.332Y124.661
G1 X135.044Y124.201
G1 X134.833Y123.722
G1 X134.703Y123.226
G1 X134.659Y122.715
G1 X134.703Y122.203
G1 X134.833Y121.707
G1 X135.044Y121.228
G1 X135.332Y120.768
G1 X135.692Y120.331
G1 X136.12Y119.919
G1 X136.613Y119.534
G1 X137.165Y119.179
G1 X137.773Y118.856
G1 X138.432Y118.569
G1 X139.137Y118.318
G1 X139.885Y118.108
G1 X140.671Y117.939
G1 X141.491Y117.816
G1 X142.341Y117.741
G1 X143.216Y117.715
G1 Y107.715
G1 X153.216
G1 Y137.714
G1 X143.216
G1 Y137.214
G0 X129.417Y230.5
G1 X139.417
G1 Y200.5
G1 X129.417
G1 Y230.5
G1 X129.917
G0 X244.676Y204.077
G1 X154.725
G1 Y214.078
G1 X154.772Y215.1
G1 X154.908Y216.093
G1 X155.13Y217.051
G1 X155.432Y217.97
G1 X155.811Y218.844
G1 X156.262Y219.669
G1 X156.779Y220.438
G1 X157.36Y221.149
G1 X157.999Y221.794
G1 X158.691Y222.37
G1 X159.433Y222.87
G1 X160.219Y223.292
G1 X161.046Y223.628
G1 X161.908Y223.874
G1 X162.351Y223.962
G1 X162.801Y224.026
G1 X163.258Y224.064
G1 X163.721Y224.077
G1 X235.681
G1 X236.144Y224.064
G1 X236.601Y224.026
G1 X237.051Y223.962
G1 X237.494Y223.874
G1 X238.356Y223.628
G1 X239.183Y223.292
G1 X239.969Y222.87
G1 X240.711Y222.37
G1 X241.403Y221.794
G1 X242.042Y221.149
G1 X242.622Y220.438
G1 X243.14Y219.669
G1 X243.591Y218.844
G1 X243.969Y217.97
G1 X244.272Y217.051
G1 X244.494Y216.093
G1 X244.63Y215.1
G1 X244.676Y214.078
G1 Y204.077
G1 X244.176
G0 X154.676Y136.038
G1 Y146.038
G1 X154.723Y147.061
G1 X154.859Y148.054
G1 X155.081Y149.012
G1 X155.383Y149.931
G1 X155.762Y150.805
G1 X156.213Y151.629
G1 X156.73Y152.399
G1 X157.311Y153.11
G1 X157.95Y153.755
G1 X158.642Y154.331
G1 X159.384Y154.831
G1 X160.17Y155.252
G1 X160.997Y155.589
G1 X161.859Y155.835
G1 X162.302Y155.923
G1 X162.752Y155.987
G1 X163.209Y156.025
G1 X163.672Y156.038
G1 X235.632
G1 X236.095Y156.025
G1 X236.552Y155.987
G1 X237.002Y155.923
G1 X237.445Y155.835
G1 X238.307Y155.589
G1 X239.134Y155.252
G1 X239.92Y154.831
G1 X240.662Y154.331
G1 X241.354Y153.755
G1 X241.993Y153.11
G1 X242.573Y152.399
G1 X243.091Y151.629
G1 X243.542Y150.805
G1 X243.92Y149.931
G1 X244.223Y149.012
G1 X244.445Y148.054
G1 X244.581Y147.061
G1 X244.627Y146.038
G1 Y136.038
G1 X154.676
G1 Y136.538
G0 X244.627Y113.191
G1 X154.676
G1 Y123.191
G1 X154.723Y124.213
G1 X154.859Y125.206
G1 X155.081Y126.164
G1 X155.383Y127.083
G1 X155.762Y127.957
G1 X156.213Y128.782
G1 X156.73Y129.552
G1 X157.311Y130.262
G1 X157.95Y130.907
G1 X158.642Y131.483
G1 X159.384Y131.984
G1 X160.17Y132.405
G1 X160.997Y132.741
G1 X161.859Y132.987
G1 X162.302Y133.075
G1 X162.752Y133.139
G1 X163.209Y133.178
G1 X163.672Y133.191
G1 X235.632
G1 X236.095Y133.178
G1 X236.552Y133.139
G1 X237.002Y133.075
G1 X237.445Y132.987
G1 X238.307Y132.741
G1 X239.134Y132.405
G1 X239.92Y131.984
G1 X240.662Y131.483
G1 X241.354Y130.907
G1 X241.993Y130.262
G1 X242.573Y129.552
G1 X243.091Y128.782
G1 X243.542Y127.957
G1 X243.92Y127.083
G1 X244.223Y126.164
G1 X244.445Y125.206
G1 X244.581Y124.213
G1 X244.627Y123.191
G1 Y113.191
G1 X244.127
M9
G1 S0
M5
G90
; return to user-defined finish pos
G0 X0Y0
M2
