; LightBurn 1.4.00
; GRBL device profile, absolute coords
; Bounds: X161.11 Y157.65 to X239.21 Y257.3
G00 G17 G40 G21 G54
G90
M4
; Image @ 3000 mm/min, 40% power
M9
G0 X216.406Y157.799
; Layer C00
G91
G0 X1.25
G1 X2.9F3000S400
G0 X1.25
G0 X0.7Y0.1
G0 X-1.25
G1 X-4.3
G0 X-1.25
G0 X-0.5Y0.1
G0 X1.25
G1 X5.4
G0 X1.25
G0 X0.4Y0.1
G0 X-1.25
G1 X-6.2
G0 X-1.25
G0 X-0.3Y0.1
G0 X1.25
G1 X6.8
G0 X1.25
G0 X0.4Y0.1
G0 X-1.25
G1 X-7.5
G0 X-1.25
G0 X-0.3Y0.1
G0 X1.25
G1 X8.1
G0 X1.25
G0 X0.3Y0.1
G0 X-1.25
G1 X-3.1
G1 X-2.7F6000S0
G1 X-2.9F3000S400
G0 X-1.25
G0 X-0.2Y0.1
G0 X1.25
G1 X2.4
G1 X4.1F6000S0
G1 X2.6F3000S400
G0 X1.25
G0 X0.2Y0.1
G0 X-1.25
G1 X-2.3
G1 X-5.1F6000S0
G1 X-2.1F3000S400
G0 X-1.25
G0 X-0.2Y0.1
G0 X1.25
G1 X1.9
G1 X6F6000S0
G1 X1.9F3000S400
G0 X1.25
G0 X0.4Y0.1
G0 X-1.25
G1 X-2
G1 X-6.6F6000S0
G1 X-1.8F3000S400
G0 X-1.25
G0 X-0.2Y0.1
G0 X1.25
G1 X1.7
G1 X7.3F6000S0
G1 X1.7F3000S400
G0 X1.25
G0 X0.2Y0.1
G0 X-1.25
G1 X-1.7
G1 X-7.8F6000S0
G1 X-1.5F3000S400
G0 X-1.25
G0 X-0.2Y0.1
G0 X1.25
G1 X1.5
G1 X8.3F6000S0
G1 X1.6F3000S400
G0 X1.25
G0 X0.1Y0.1
G0 X-1.25
G1 X-1.4
G1 X-8.8F6000S0
G1 X-1.4F3000S400
G0 X-1.25
G0 X-0.2Y0.1
G0 X1.25
G1 X1.4
G1 X9.2F6000S0
G1 X1.4F3000S400
G0 X1.25
G0 X0.2Y0.1
G0 X-1.25
G1 X-1.4
G1 X-9.6F6000S0
G1 X-1.4F3000S400
G0 X-1.25
G0 X-0.1Y0.1
G0 X1.25
G1 X1.3
G1 X10F6000S0
G1 X1.2F3000S400
G0 X1.25
G0 X0.1Y0.1
G0 X-1.25
G1 X-1.2
G1 X-10.2F6000S0
G1 X-1.3F3000S400
G0 X-1.25
G0 X-0.2Y0.1
G0 X1.25
G1 X1.3
G1 X10.6F6000S0
G1 X1.3F3000S400
G0 X1.25
G0 X0.1Y0.1
G0 X-1.25
G1 X-1.2
G1 X-11F6000S0
G1 X-1.3F3000S400
G0 X-1.25
G0 X-0.1Y0.1
G0 X1.25
G1 X1.3
G1 X11.2F6000S0
G1 X1.1F3000S400
G0 X1.25
G0 X0.1Y0.1
G0 X-1.25
G1 X-1
G1 X-11.6F6000S0
G1 X-1.2F3000S400
G0 X-1.25
G0 X-0.2Y0.1
G0 X1.25
G1 X1.3
G1 X11.8F6000S0
G1 X1.1F3000S400
G0 X1.25
G0 X0.1Y0.1
G0 X-1.25
G1 X-1
G1 X-12.2F6000S0
G1 X-1.2F3000S400
G0 X-1.25
G0 X-0.2Y0.1
G0 X1.25
G1 X1.3
G1 X12.4F6000S0
G1 X1F3000S400
G0 X1.25
G0 Y0.1
G0 X-1.25
G1 X-0.9
G1 X-12.7F6000S0
G1 X-1.2F3000S400
G0 X-1.25
G0 X-0.1Y0.1
G0 X1.25
G1 X1.2
G1 X12.9F6000S0
G1 X0.9F3000S400
G0 X1.25
G0 X0.2Y0.1
G0 X-1.25
G1 X-1
G1 X-13.1F6000S0
G1 X-1.3F3000S400
G0 X-1.25
G0 X-0.1Y0.1
G0 X1.25
G1 X1.2
G1 X13.4F6000S0
G1 X0.9F3000S400
G0 X1.25
G0 X0.1Y0.1
G0 X-1.25
G1 X-0.9
G1 X-13.6F6000S0
G1 X-1.2F3000S400
G0 X-1.25
G0 X-0.2Y0.1
G0 X1.25
G1 X1.1
G1 X14F6000S0
G1 X0.9F3000S400
G0 X1.25
G0 Y0.1
G0 X-1.25
G1 X-0.8
G1 X-14.1F6000S0
G1 X-1.2F3000S400
G0 X-1.25
G0 X-0.1Y0.1
G0 X1.25
G1 X1.2
G1 X14.2F6000S0
G1 X0.8F3000S400
G0 X1.25
G0 X0.1Y0.1
G0 X-1.25
G1 X-0.8
G1 X-14.5F6000S0
G1 X-1.1F3000S400
G0 X-1.25
G0 X-0.2Y0.1
G0 X1.25
G1 X1.1
G1 X14.8F6000S0
G1 X0.7F3000S400
G0 X1.25
G0 X0.2Y0.1
G0 X-1.25
G1 X-0.8
G1 X-14.9F6000S0
G1 X-1.2F3000S400
G0 X-1.25
G0 X-0.1Y0.1
G0 X1.25
G1 X1.1
G1 X15.1F6000S0
G1 X0.8F3000S400
G0 X1.25
G0 X0.1Y0.1
G0 X-1.25
G1 X-0.8
G1 X-15.3F6000S0
G1 X-1.1F3000S400
G0 X-1.25
G0 X-0.2Y0.1
G0 X1.25
G1 X1.1
G1 X15.5F6000S0
G1 X0.8F3000S400
G0 X1.25
G0 X0.1Y0.1
G0 X-1.25
G1 X-0.8
G1 X-15.7F6000S0
G1 X-1.1F3000S400
G0 X-1.25
G0 X-0.1Y0.1
G0 X1.25
G1 X1.1
G1 X15.9F6000S0
G1 X0.7F3000S400
G0 X1.25
G0 Y0.1
G0 X-1.25
G1 X-0.7
G1 X-16F6000S0
G1 X-1.1F3000S400
G0 X-1.25
G0 X-0.1Y0.1
G0 X1.25
G1 X1
G1 X16.2F6000S0
G1 X0.7F3000S400
G0 X1.25
G0 Y0.1
G0 X-1.25
G1 X-0.6
G1 X-16.3F6000S0
G1 X-1.1F3000S400
G0 X-1.25
G0 X-0.2Y0.1
G0 X1.25
G1 X1.1
G1 X16.5F6000S0
G1 X0.7F3000S400
G0 X1.25
G0 Y0.1
G0 X-1.25
G1 X-0.7
G1 X-16.6F6000S0
G1 X-1.1F3000S400
G0 X-1.25
G0 X-0.1Y0.1
G0 X1.25
G1 X1
G1 X16.9F6000S0
G1 X0.6F3000S400
G0 X1.25
G0 Y0.1
G0 X-1.25
G1 X-0.6
G1 X-16.9F6000S0
G1 X-1.1F3000S400
G0 X-1.25
G0 X-0.1Y0.1
G0 X1.25
G1 X1.1
G1 X17F6000S0
G1 X0.8F3000S400
G0 X1.25
G0 Y0.1
G0 X-1.25
G1 X-0.7
G1 X-17.3F6000S0
G1 X-1F3000S400
G0 X-1.25
G0 X-0.1Y0.1
G0 X1.25
G1 X0.9
G1 X17.5F6000S0
G1 X0.7F3000S400
G0 X1.25
G0 Y0.1
G0 X-1.25
G1 X-0.7
G1 X-17.5F6000S0
G1 X-1F3000S400
G0 X-1.25
G0 X-0.1Y0.1
G0 X1.25
G1 X1
G1 X17.6F6000S0
G1 X0.7F3000S400
G0 X1.25
G0 Y0.1
G0 X-1.25
G1 X-0.7
G1 X-17.7F6000S0
G1 X-1.1F3000S400
G0 X-1.25
G0 X-0.1Y0.1
G0 X1.25
G1 X1.1
G1 X17.8F6000S0
G1 X0.7F3000S400
G0 X1.25
G0 Y0.1
G0 X-1.25
G1 X-0.7
G1 X-18F6000S0
G1 X-1F3000S400
G0 X-1.25
G0 X-0.1Y0.1
G0 X1.25
G1 X1.1
G1 X18F6000S0
G1 X0.7F3000S400
G0 X1.25
G0 Y0.1
G0 X-1.25
G1 X-0.6
G1 X-18.2F6000S0
G1 X-1.1F3000S400
G0 X-1.25
G0 X-0.1Y0.1
G0 X1.25
G1 X1.1
G1 X18.2F6000S0
G1 X0.7F3000S400
G0 X1.25
G0 Y0.1
G0 X-1.25
G1 X-0.7
G1 X-18.5F6000S0
G1 X-0.9F3000S400
G0 X-1.25
G0 X-0.1Y0.1
G0 X1.25
G1 X1
G1 X18.5F6000S0
G1 X0.7F3000S400
G0 X1.25
G0 Y0.1
G0 X-1.25
G1 X-0.6
G1 X-18.7F6000S0
G1 X-1F3000S400
G0 X-1.25
G0 X-0.1Y0.1
G0 X1.25
G1 X1
G1 X18.7F6000S0
G1 X0.7F3000S400
G0 X1.25
G0 Y0.1
G0 X-1.25
G1 X-0.7
G1 X-18.8F6000S0
G1 X-1F3000S400
G0 X-1.25
G0 X-0.1Y0.1
G0 X1.25
G1 X0.9
G1 X19F6000S0
G1 X0.7F3000S400
G0 X1.25
G0 Y0.1
G0 X-1.25
G1 X-0.7
G1 X-19F6000S0
G1 X-1F3000S400
G0 X-1.25
G0 X-0.1Y0.1
G0 X1.25
G1 X1
G1 X19.1F6000S0
G1 X0.7F3000S400
G0 X1.25
G0 Y0.1
G0 X-1.25
G1 X-0.7
G1 X-19.2F6000S0
G1 X-1F3000S400
G0 X-1.25
G0 X-0.1Y0.1
G0 X1.25
G1 X1
G1 X19.3F6000S0
G1 X0.7F3000S400
G0 X1.25
G0 Y0.1
G0 X-1.25
G1 X-0.8
G1 X-19.4F6000S0
G1 X-0.9F3000S400
G0 X-1.25
G0 X-0.1Y0.1
G0 X1.25
G1 X1
G1 X19.4F6000S0
G1 X0.6F3000S400
G0 X1.25
G0 Y0.1
G0 X-1.25
G1 X-0.6
G1 X-19.5F6000S0
G1 X-1F3000S400
G0 X-1.25
G0 X-0.1Y0.1
G0 X1.25
G1 X1
G1 X19.6F6000S0
G1 X0.6F3000S400
G0 X1.25
G0 Y0.1
G0 X-1.25
G1 X-0.6
G1 X-19.7F6000S0
G1 X-0.9F3000S400
G0 X-1.25
G0 X-22.5Y0.1
G0 X1.25
G1 X2.2
G1 X20.2F6000S0
G1 X0.8F3000S400
G1 X19.8F6000S0
G1 X0.7F3000S400
G0 X1.25
G0 X-0.1Y0.1
G0 X-1.25
G1 X-0.6
G1 X-19.8F6000S0
G1 X-0.9F3000S400
G1 X-18.7F6000S0
G1 X-4.7F3000S400
G0 X-1.25
G0 X-0.6Y0.1
G0 X1.25
G1 X5.8
G1 X18.1F6000S0
G1 X0.9F3000S400
G1 X19.9F6000S0
G1 X0.6F3000S400
G0 X1.25
G0 Y0.1
G0 X-1.25
G1 X-0.7
G1 X-19.8F6000S0
G1 X-1F3000S400
G1 X-17.7F6000S0
G1 X-6.5F3000S400
G0 X-1.25
G0 X-0.4Y0.1
G0 X1.25
G1 X7.2
G1 X17.3F6000S0
G1 X1F3000S400
G1 X19.9F6000S0
G1 X0.7F3000S400
G0 X1.25
G0 Y0.1
G0 X-1.25
G1 X-0.7
G1 X-20F6000S0
G1 X-1F3000S400
G1 X-16.8F6000S0
G1 X-8F3000S400
G0 X-1.25
G0 X-0.3Y0.1
G0 X1.25
G1 X8.4
G1 X16.6F6000S0
G1 X0.9F3000S400
G1 X20.1F6000S0
G1 X0.8F3000S400
G0 X1.25
G0 X-0.1Y0.1
G0 X-1.25
G1 X-0.7
G1 X-20.1F6000S0
G1 X-1F3000S400
G1 X-16.3F6000S0
G1 X-3.1F3000S400
G1 X-0.1S0
G1 X-0.2S400
G1 X-1.8F6000S0
G1 X-0.1F3000S400
G1 X-0.1S0
G1 X-3.4S400
G0 X-1.25
G0 X-0.2Y0.1
G0 X1.25
G1 X2.6
G1 X4.4F6000S0
G1 X2.3F3000S400
G1 X15.9F6000S0
G1 X1F3000S400
G1 X20.2F6000S0
G1 X0.7F3000S400
G0 X1.25
G0 Y0.1
G0 X-1.25
G1 X-0.8
G1 X-20.2F6000S0
G1 X-1F3000S400
G1 X-15.6F6000S0
G1 X-1.9F3000S400
G1 X-5.6F6000S0
G1 X-2.3F3000S400
G0 X-1.25
G0 X-0.2Y0.1
G0 X1.25
G1 X2
G1 X6.5F6000S0
G1 X1.7F3000S400
G1 X15.4F6000S0
G1 X0.9F3000S400
G1 X20.3F6000S0
G1 X0.7F3000S400
G0 X1.25
G0 Y0.1
G0 X-1.25
G1 X-0.8
G1 X-20.4F6000S0
G1 X-0.8F3000S400
G1 X-15.2F6000S0
G1 X-1.5F3000S400
G1 X-7.1F6000S0
G1 X-1.9F3000S400
G0 X-1.25
G0 X-0.1Y0.1
G0 X1.25
G1 X1.7
G1 X7.6F6000S0
G1 X1.5F3000S400
G1 X14.9F6000S0
G1 X1F3000S400
G1 X20.3F6000S0
G1 X0.8F3000S400
G0 X1.25
G0 X-0.2Y0.1
G0 X-1.25
G1 X-0.7
G1 X-20.3F6000S0
G1 X-1F3000S400
G1 X-14.8F6000S0
G1 X-1.2F3000S400
G1 X-8.2F6000S0
G1 X-1.6F3000S400
G0 X-1.25
G0 X-0.1Y0.1
G0 X1.25
G1 X1.4
G1 X8.7F6000S0
G1 X1.2F3000S400
G1 X14.5F6000S0
G1 X0.9F3000S400
G1 X20.5F6000S0
G1 X0.7F3000S400
G0 X1.25
G0 X-0.1Y0.1
G0 X-1.25
G1 X-0.7
G1 X-20.4F6000S0
G1 X-1F3000S400
G1 X-14.3F6000S0
G1 X-1.2F3000S400
G1 X-9F6000S0
G1 X-1.4F3000S400
G0 X-1.25
G0 X-0.1Y0.1
G0 X1.25
G1 X1.3
G1 X9.4F6000S0
G1 X1F3000S400
G1 X14.2F6000S0
G1 X1F3000S400
G1 X20.5F6000S0
G1 X0.7F3000S400
G0 X1.25
G0 Y0.1
G0 X-1.25
G1 X-0.8
G1 X-20.5F6000S0
G1 X-1F3000S400
G1 X-13.9F6000S0
G1 X-1F3000S400
G1 X-9.8F6000S0
G1 X-1.2F3000S400
G0 X-1.25
G0 X-0.2Y0.1
G0 X1.25
G1 X1.2
G1 X10.1F6000S0
G1 X0.9F3000S400
G1 X13.8F6000S0
G1 X1F3000S400
G1 X20.6F6000S0
G1 X0.8F3000S400
G0 X1.25
G0 X-0.1Y0.1
G0 X-1.25
G1 X-0.8
G1 X-20.6F6000S0
G1 X-0.9F3000S400
G1 X-13.6F6000S0
G1 X-1F3000S400
G1 X-10.3F6000S0
G1 X-1.2F3000S400
G0 X-1.25
G0 X-0.1Y0.1
G0 X1.25
G1 X1.1
G1 X10.6F6000S0
G1 X1F3000S400
G1 X13.4F6000S0
G1 X0.9F3000S400
G1 X20.7F6000S0
G1 X0.8F3000S400
G0 X1.25
G0 X-0.1Y0.1
G0 X-1.25
G1 X-0.8
G1 X-20.7F6000S0
G1 X-0.9F3000S400
G1 X-13.3F6000S0
G1 X-0.9F3000S400
G1 X-10.8F6000S0
G1 X-1.1F3000S400
G0 X-1.25
G0 X-0.1Y0.1
G0 X1.25
G1 X1.1
G1 X11F6000S0
G1 X1F3000S400
G1 X13F6000S0
G1 X0.9F3000S400
G1 X20.8F6000S0
G1 X0.8F3000S400
G0 X1.25
G0 X-0.2Y0.1
G0 X-1.25
G1 X-0.7
G1 X-20.7F6000S0
G1 X-1F3000S400
G1 X-12.9F6000S0
G1 X-0.8F3000S400
G1 X-11.4F6000S0
G1 X-1F3000S400
G0 X-1.25
G0 X-0.1Y0.1
G0 X1.25
G1 X1
G1 X11.5F6000S0
G1 X0.8F3000S400
G1 X12.8F6000S0
G1 X1F3000S400
G1 X20.7F6000S0
G1 X0.8F3000S400
G0 X1.25
G0 X-0.1Y0.1
G0 X-1.25
G1 X-0.7
G1 X-20.8F6000S0
G1 X-0.9F3000S400
G1 X-12.6F6000S0
G1 X-0.9F3000S400
G1 X-11.7F6000S0
G1 X-1F3000S400
G0 X-1.25
G0 X-0.1Y0.1
G0 X1.25
G1 X1
G1 X11.9F6000S0
G1 X0.9F3000S400
G1 X12.4F6000S0
G1 X0.9F3000S400
G1 X20.8F6000S0
G1 X0.8F3000S400
G0 X1.25
G0 Y0.1
G0 X-1.25
G1 X-0.9
G1 X-20.8F6000S0
G1 X-0.9F3000S400
G1 X-12.3F6000S0
G1 X-0.8F3000S400
G1 X-12.1F6000S0
G1 X-0.9F3000S400
G0 X-1.25
G0 X-0.1Y0.1
G0 X1.25
G1 X0.9
G1 X12.2F6000S0
G1 X0.8F3000S400
G1 X12.2F6000S0
G1 X0.9F3000S400
G1 X20.9F6000S0
G1 X0.8F3000S400
G0 X1.25
G0 Y0.1
G0 X-1.25
G1 X-0.9
G1 X-20.9F6000S0
G1 X-0.9F3000S400
G1 X-11.9F6000S0
G1 X-0.9F3000S400
G1 X-12.4F6000S0
G1 X-0.9F3000S400
G0 X-1.25
G0 X-0.1Y0.1
G0 X1.25
G1 X0.9
G1 X12.6F6000S0
G1 X0.8F3000S400
G1 X11.8F6000S0
G1 X1F3000S400
G1 X20.8F6000S0
G1 X0.9F3000S400
G0 X1.25
G0 X-0.2Y0.1
G0 X-1.25
G1 X-0.7
G1 X-20.9F6000S0
G1 X-0.9F3000S400
G1 X-11.8F6000S0
G1 X-0.7F3000S400
G1 X-12.8F6000S0
G1 X-0.8F3000S400
G0 X-1.25
G0 X-0.1Y0.1
G0 X1.25
G1 X0.9
G1 X12.8F6000S0
G1 X0.7F3000S400
G1 X11.7F6000S0
G1 X0.9F3000S400
G1 X20.9F6000S0
G1 X0.8F3000S400
G0 X1.25
G0 X-0.1Y0.1
G0 X-1.25
G1 X-0.8
G1 X-20.9F6000S0
G1 X-0.9F3000S400
G1 X-11.4F6000S0
G1 X-0.8F3000S400
G1 X-13F6000S0
G1 X-0.8F3000S400
G0 X-1.25
G0 X-0.1Y0.1
G0 X1.25
G1 X0.8
G1 X13.1F6000S0
G1 X0.8F3000S400
G1 X11.3F6000S0
G1 X0.9F3000S400
G1 X21F6000S0
G1 X0.8F3000S400
G0 X1.25
G0 Y0.1
G0 X-1.25
G1 X-0.9
G1 X-20.9F6000S0
G1 X-1F3000S400
G1 X-11.1F6000S0
G1 X-0.8F3000S400
G1 X-13.2F6000S0
G1 X-0.9F3000S400
G0 X-1.25
G0 Y0.1
G0 X1.25
G1 X0.8
G1 X13.3F6000S0
G1 X0.8F3000S400
G1 X11.1F6000S0
G1 X0.9F3000S400
G1 X20.9F6000S0
G1 X0.9F3000S400
G0 X1.25
G0 X-0.1Y0.1
G0 X-1.25
G1 X-0.9
G1 X-20.9F6000S0
G1 X-0.9F3000S400
G1 X-11F6000S0
G1 X-0.7F3000S400
G1 X-13.5F6000S0
G1 X-0.8F3000S400
G0 X-1.25
G0 Y0.1
G0 X1.25
G1 X0.8
G1 X13.5F6000S0
G1 X0.7F3000S400
G1 X10.9F6000S0
G1 X0.9F3000S400
G1 X20.9F6000S0
G1 X0.8F3000S400
G0 X1.25
G0 Y0.1
G0 X-1.25
G1 X-0.8
G1 X-21F6000S0
G1 X-0.9F3000S400
G1 X-10.8F6000S0
G1 X-0.6F3000S400
G1 X-13.7F6000S0
G1 X-0.8F3000S400
G0 X-1.25
G0 Y0.1
G0 X1.25
G1 X0.8
G1 X13.7F6000S0
G1 X0.8F3000S400
G1 X10.5F6000S0
G1 X0.9F3000S400
G1 X21F6000S0
G1 X0.8F3000S400
G0 X1.25
G0 Y0.1
G0 X-1.25
G1 X-0.9
G1 X-20.9F6000S0
G1 X-0.9F3000S400
G1 X-10.5F6000S0
G1 X-0.7F3000S400
G1 X-13.9F6000S0
G1 X-0.8F3000S400
G0 X-1.25
G0 Y0.1
G0 X1.25
G1 X0.8
G1 X13.9F6000S0
G1 X0.7F3000S400
G1 X10.4F6000S0
G1 X0.9F3000S400
G1 X20.9F6000S0
G1 X0.9F3000S400
G0 X1.25
G0 X-0.1Y0.1
G0 X-1.25
G1 X-0.9
G1 X-20.9F6000S0
G1 X-0.9F3000S400
G1 X-10.3F6000S0
G1 X-0.7F3000S400
G1 X-14F6000S0
G1 X-0.7F3000S400
G0 X-1.25
G0 X-0.1Y0.1
G0 X1.25
G1 X0.8
G1 X14.1F6000S0
G1 X0.6F3000S400
G1 X10.2F6000S0
G1 X0.9F3000S400
G1 X20.9F6000S0
G1 X1F3000S400
G0 X1.25
G0 X-0.2Y0.1
G0 X-1.25
G1 X-0.8
G1 X-21F6000S0
G1 X-0.9F3000S400
G1 X-9.9F6000S0
G1 X-0.8F3000S400
G1 X-14.2F6000S0
G1 X-0.7F3000S400
G0 X-1.25
G0 X-0.1Y0.1
G0 X1.25
G1 X0.8
G1 X14.3F6000S0
G1 X0.7F3000S400
G1 X6.8F6000S0
G1 X4F3000S400
G1 X20.9F6000S0
G1 X0.9F3000S400
G0 X1.25
G0 X-0.1Y0.1
G0 X-1.25
G1 X-0.9
G1 X-20.9F6000S0
G1 X-5.8F3000S400
G1 X-4.9F6000S0
G1 X-0.7F3000S400
G1 X-14.4F6000S0
G1 X-0.7F3000S400
G0 X-1.25
G0 Y0.1
G0 X1.25
G1 X0.7
G1 X14.4F6000S0
G1 X0.8F3000S400
G1 X3.6F6000S0
G1 X6.9F3000S400
G1 X20.9F6000S0
G1 X0.9F3000S400
G0 X1.25
G0 X-0.1Y0.1
G0 X-1.25
G1 X-0.9
G1 X-20.9F6000S0
G1 X-7.8F3000S400
G1 X-2.6F6000S0
G1 X-0.7F3000S400
G1 X-14.5F6000S0
G1 X-0.8F3000S400
G0 X-1.25
G0 Y0.1
G0 X1.25
G1 X0.7
G1 X14.6F6000S0
G1 X0.7F3000S400
G1 X1.9F6000S0
G1 X8.4F3000S400
G1 X20.9F6000S0
G1 X0.8F3000S400
G0 X1.25
G0 Y0.1
G0 X-1.25
G1 X-0.9
G1 X-20.8F6000S0
G1 X-9F3000S400
G1 X-1.3F6000S0
G1 X-0.7F3000S400
G1 X-14.6F6000S0
G1 X-0.7F3000S400
G0 X-1.25
G0 X-0.1Y0.1
G0 X1.25
G1 X0.8
G1 X14.7F6000S0
G1 X0.6F3000S400
G1 X0.7S0
G1 X9.5S400
G1 X20.8F6000S0
G1 X1F3000S400
G0 X1.25
G0 X-0.1Y0.1
G0 X-1.25
G1 X-1
G1 X-20.8F6000S0
G1 X-0.9F3000S400
G1 X-2.3F6000S0
G1 X-0.1F3000S400
G1 X-0.2S0
G1 X-6.4S400
G1 X-0.2S0
G1 X-0.6S400
G1 X-14.7F6000S0
G1 X-0.8F3000S400
G0 X-1.25
G0 Y0.1
G0 X1.25
G1 X0.7
G1 X14.8F6000S0
G1 X5.2F3000S400
G1 X0.1S0
G1 X0.1S400
G1 X4.3F6000S0
G1 X0.9F3000S400
G1 X20.8F6000S0
G1 X1F3000S400
G0 X1.25
G0 X-0.1Y0.1
G0 X-1.25
G1 X-1
G1 X-20.8F6000S0
G1 X-0.8F3000S400
G1 X-5.4F6000S0
G1 X-0.1F3000S400
G1 X-0.1S0
G1 X-4.2S400
G1 X-14.7F6000S0
G1 X-0.7F3000S400
G0 X-1.25
G0 X-0.1Y0.1
G0 X1.25
G1 X0.8
G1 X14.3F6000S0
G1 X3.8F3000S400
G1 X6.5F6000S0
G1 X0.7F3000S400
G1 X20.7F6000S0
G1 X0.9F3000S400
G0 X1.25
G0 Y0.1
G0 X-1.25
G1 X-1
G1 X-20.7F6000S0
G1 X-0.5F3000S400
G1 X-7.3F6000S0
G1 X-3.4F3000S400
G1 X-14.1F6000S0
G1 X-0.7F3000S400
G0 X-1.25
G0 Y0.1
G0 X1.25
G1 X0.7
G1 X13.7F6000S0
G1 X3.1F3000S400
G1 X8.2F6000S0
G1 X0.2F3000S400
G1 X20.7F6000S0
G1 X1F3000S400
G0 X1.25
G0 X-0.1Y0.1
G0 X-1.25
G1 X-1
G1 X-29.5F6000S0
G1 X-2.9F3000S400
G1 X-13.4F6000S0
G1 X-0.7F3000S400
G0 X-1.25
G0 Y0.1
G0 X1.25
G1 X0.7
G1 X13.1F6000S0
G1 X2.7F3000S400
G1 X29.9F6000S0
G1 X1F3000S400
G0 X1.25
G0 X-0.2Y0.1
G0 X-1.25
G1 X-0.9
G1 X-30.3F6000S0
G1 X-2.5F3000S400
G1 X-12.8F6000S0
G1 X-0.8F3000S400
G0 X-1.25
G0 Y0.1
G0 X1.25
G1 X0.7
G1 X12.6F6000S0
G1 X2.4F3000S400
G1 X30.6F6000S0
G1 X1F3000S400
G0 X1.25
G0 X-0.1Y0.1
G0 X-1.25
G1 X-1.1
G1 X-30.8F6000S0
G1 X-2.2F3000S400
G1 X-12.4F6000S0
G1 X-0.7F3000S400
G0 X-1.25
G0 Y0.1
G0 X1.25
G1 X0.7
G1 X12.1F6000S0
G1 X2.2F3000S400
G1 X31.1F6000S0
G1 X1F3000S400
G0 X1.25
G0 X-0.1Y0.1
G0 X-1.25
G1 X-1.1
G1 X-31.3F6000S0
G1 X-2F3000S400
G1 X-11.9F6000S0
G1 X-0.7F3000S400
G0 X-1.25
G0 Y0.1
G0 X1.25
G1 X0.7
G1 X11.6F6000S0
G1 X2F3000S400
G1 X31.5F6000S0
G1 X1F3000S400
G0 X1.25
G0 Y0.1
G0 X-1.25
G1 X-1.1
G1 X-31.7F6000S0
G1 X-1.9F3000S400
G1 X-11.4F6000S0
G1 X-0.7F3000S400
G0 X-1.25
G0 X-0.1Y0.1
G0 X1.25
G1 X0.7
G1 X11.3F6000S0
G1 X1.8F3000S400
G1 X31.9F6000S0
G1 X1.1F3000S400
G0 X1.25
G0 X-0.2Y0.1
G0 X-1.25
G1 X-1
G1 X-32.1F6000S0
G1 X-1.7F3000S400
G1 X-11.1F6000S0
G1 X-0.7F3000S400
G0 X-1.25
G0 Y0.1
G0 X1.25
G1 X0.7
G1 X10.9F6000S0
G1 X1.7F3000S400
G1 X32.2F6000S0
G1 X0.9F3000S400
G0 X1.25
G0 Y0.1
G0 X-1.25
G1 X-1.1
G1 X-32.3F6000S0
G1 X-1.6F3000S400
G1 X-10.7F6000S0
G1 X-0.7F3000S400
G0 X-1.25
G0 Y0.1
G0 X1.25
G1 X0.7
G1 X10.6F6000S0
G1 X1.5F3000S400
G1 X32.4F6000S0
G1 X1.1F3000S400
G0 X1.25
G0 X1.1Y0.1
G0 X-1.25
G1 X-2.3
G1 X-32.5F6000S0
G1 X-1.5F3000S400
G1 X-10.4F6000S0
G1 X-0.7F3000S400
G0 X-1.25
G0 Y0.1
G0 X1.25
G1 X0.7
G1 X10.2F6000S0
G1 X1.5F3000S400
G1 X32.6F6000S0
G1 X3.9F3000S400
G0 X1.25
G0 X1.2Y0.1
G0 X-1.25
G1 X-5.3
G1 X-32.6F6000S0
G1 X-1.5F3000S400
G1 X-10F6000S0
G1 X-0.7F3000S400
G0 X-1.25
G0 Y0.1
G0 X1.25
G1 X0.7
G1 X9.9F6000S0
G1 X1.4F3000S400
G1 X32.7F6000S0
G1 X6.4F3000S400
G0 X1.25
G0 X0.7Y0.1
G0 X-1.25
G1 X-7.2
G1 X-32.8F6000S0
G1 X-1.4F3000S400
G1 X-9.7F6000S0
G1 X-0.7F3000S400
G0 X-1.25
G0 Y0.1
G0 X1.25
G1 X0.7
G1 X9.6F6000S0
G1 X1.3F3000S400
G1 X32.9F6000S0
G1 X7.9F3000S400
G0 X1.25
G0 X0.8Y0.1
G0 X-1.25
G1 X-8.9
G1 X-32.8F6000S0
G1 X-1.4F3000S400
G1 X-9.4F6000S0
G1 X-0.7F3000S400
G0 X-1.25
G0 Y0.1
G0 X1.25
G1 X0.7
G1 X9.3F6000S0
G1 X1.3F3000S400
G1 X32.9F6000S0
G1 X1.2F3000S400
G1 X0.3S0
G1 X0.1S400
G1 X0.2S0
G1 X0.1S400
G1 X0.2S0
G1 X0.1S400
G1 X0.2S0
G1 X0.1S400
G1 X0.2S0
G1 X0.2S400
G1 X0.1S0
G1 X0.2S400
G1 X0.1S0
G1 X6.3S400
G0 X1.25
G0 X0.6Y0.1
G0 X-1.25
G1 X-5.8
G1 X-0.1S0
G1 X-0.1S400
G1 X-0.2S0
G1 X-0.1S400
G1 X-1.3F6000S0
G1 X-0.1F3000S400
G1 X-0.1S0
G1 X-0.1S400
G1 X-0.2S0
G1 X-0.1S400
G1 X-0.2S0
G1 X-0.1S400
G1 X-0.2S0
G1 X-0.1S400
G1 X-0.1S0
G1 X-0.1S400
G1 X-0.2S0
G1 X-1.1S400
G1 X-33F6000S0
G1 X-1.2F3000S400
G1 X-9.2F6000S0
G1 X-0.7F3000S400
G0 X-1.25
G0 Y0.1
G0 X1.25
G1 X0.7
G1 X9F6000S0
G1 X1.3F3000S400
G1 X32.9F6000S0
G1 X1.2F3000S400
G1 X0.1S0
G1 X0.1S400
G1 X0.1S0
G1 X0.2S400
G1 X0.1S0
G1 X0.1S400
G1 X0.1S0
G1 X0.1S400
G1 X0.1S0
G1 X0.2S400
G1 X0.1S0
G1 X0.1S400
G1 X0.1S0
G1 X0.1S400
G1 X0.1S0
G1 X0.2S400
G1 X0.1S0
G1 X0.2S400
G1 X0.1S0
G1 X0.2S400
G1 X0.1S0
G1 X0.1S400
G1 X0.1S0
G1 X0.1S400
G1 X0.2S0
G1 X0.1S400
G1 X0.2S0
G1 X0.1S400
G1 X1S0
G1 X0.1S400
G1 X0.1S0
G1 X5.3S400
G0 X1.25
G0 X0.5Y0.1
G0 X-1.25
G1 X-4.8
G1 X-0.1S0
G1 X-0.1S400
G1 X-1S0
G1 X-0.1S400
G1 X-0.1S0
G1 X-0.2S400
G1 X-0.1S0
G1 X-0.1S400
G1 X-0.2S0
G1 X-0.1S400
G1 X-0.2S0
G1 X-0.1S400
G1 X-0.1S0
G1 X-0.2S400
G1 X-0.1S0
G1 X-0.2S400
G1 X-0.1S0
G1 X-0.1S400
G1 X-0.1S0
G1 X-0.1S400
G1 X-0.2S0
G1 X-0.1S400
G1 X-0.1S0
G1 X-0.1S400
G1 X-0.2S0
G1 X-0.1S400
G1 X-0.2S0
G1 X-0.1S400
G1 X-0.2S0
G1 X-0.1S400
G1 X-0.2S0
G1 X-0.1S400
G1 X-0.4S0
G1 X-0.1S400
G1 X-0.2S0
G1 X-1.2S400
G1 X-33F6000S0
G1 X-1.2F3000S400
G1 X-8.9F6000S0
G1 X-0.7F3000S400
G0 X-1.25
G0 Y0.1
G0 X1.25
G1 X0.7
G1 X8.8F6000S0
G1 X1.2F3000S400
G1 X33F6000S0
G1 X1.2F3000S400
G1 X0.2S0
G1 X0.1S400
G1 X0.1S0
G1 X0.2S400
G1 X0.1S0
G1 X0.1S400
G1 X0.1S0
G1 X0.1S400
G1 X0.1S0
G1 X0.1S400
G1 X0.2S0
G1 X0.1S400
G1 X0.1S0
G1 X0.1S400
G1 X0.2S0
G1 X0.1S400
G1 X0.2S0
G1 X0.1S400
G1 X0.2S0
G1 X0.1S400
G1 X0.5S0
G1 X0.1S400
G1 X0.2S0
G1 X0.1S400
G1 X0.1S0
G1 X0.1S400
G1 X0.1S0
G1 X0.2S400
G1 X0.1S0
G1 X0.1S400
G1 X0.2S0
G1 X0.1S400
G1 X0.1S0
G1 X0.2S400
G1 X0.1S0
G1 X0.1S400
G1 X0.1S0
G1 X0.1S400
G1 X0.1S0
G1 X0.2S400
G1 X0.1S0
G1 X0.1S400
G1 X0.8S0
G1 X0.1S400
G1 X0.2S0
G1 X4.5S400
G0 X1.25
G0 X0.5Y0.1
G0 X-1.25
G1 X-4.4
G1 X-0.1S0
G1 X-0.1S400
G1 X-0.5S0
G1 X-0.1S400
G1 X-0.1S0
G1 X-0.1S400
G1 X-0.1S0
G1 X-0.2S400
G1 X-0.1S0
G1 X-0.1S400
G1 X-0.1S0
G1 X-0.2S400
G1 X-0.2S0
G1 X-0.1S400
G1 X-0.2S0
G1 X-0.2S400
G1 X-0.1S0
G1 X-0.1S400
G1 X-0.3S0
G1 X-0.1S400
G1 X-0.2S0
G1 X-0.1S400
G1 X-0.3S0
G1 X-0.1S400
G1 X-0.2S0
G1 X-0.1S400
G1 X-0.2S0
G1 X-0.1S400
G1 X-0.1S0
G1 X-0.3S400
G1 X-0.1S0
G1 X-0.2S400
G1 X-0.1S0
G1 X-0.1S400
G1 X-0.2S0
G1 X-0.2S400
G1 X-0.1S0
G1 X-0.1S400
G1 X-0.2S0
G1 X-0.1S400
G1 X-0.1S0
G1 X-0.1S400
G1 X-0.2S0
G1 X-0.1S400
G1 X-0.2S0
G1 X-0.1S400
G1 X-0.2S0
G1 X-0.2S400
G1 X-0.2S0
G1 X-1.2S400
G1 X-33F6000S0
G1 X-1.1F3000S400
G1 X-8.7F6000S0
G1 X-0.7F3000S400
G0 X-1.25
G0 Y0.1
G0 X1.25
G1 X0.7
G1 X8.6F6000S0
G1 X1.1F3000S400
G1 X33F6000S0
G1 X1.2F3000S400
G1 X0.2S0
G1 X0.1S400
G1 X0.2S0
G1 X0.1S400
G1 X0.2S0
G1 X0.1S400
G1 X0.1S0
G1 X0.1S400
G1 X0.1S0
G1 X0.1S400
G1 X0.2S0
G1 X0.2S400
G1 X0.2S0
G1 X0.1S400
G1 X0.2S0
G1 X0.2S400
G1 X0.2S0
G1 X0.1S400
G1 X0.3S0
G1 X0.1S400
G1 X0.2S0
G1 X0.1S400
G1 X0.1S0
G1 X0.2S400
G1 X0.2S0
G1 X0.2S400
G1 X0.2S0
G1 X0.1S400
G1 X0.1S0
G1 X0.2S400
G1 X0.1S0
G1 X0.1S400
G1 X0.4S0
G1 X0.1S400
G1 X0.2S0
G1 X0.1S400
G1 X0.2S0
G1 X0.1S400
G1 X0.2S0
G1 X0.1S400
G1 X0.2S0
G1 X0.1S400
G1 X0.2S0
G1 X0.1S400
G1 X0.1S0
G1 X0.2S400
G1 X0.1S0
G1 X0.1S400
G1 X0.2S0
G1 X0.1S400
G1 X0.6S0
G1 X0.1S400
G1 X0.1S0
G1 X4S400
G0 X1.25
G0 X0.5Y0.1
G0 X-1.25
G1 X-3.8
G1 X-0.1S0
G1 X-0.1S400
G1 X-0.5S0
G1 X-0.1S400
G1 X-0.2S0
G1 X-0.1S400
G1 X-0.1S0
G1 X-0.1S400
G1 X-0.2S0
G1 X-0.1S400
G1 X-0.2S0
G1 X-0.2S400
G1 X-0.1S0
G1 X-0.1S400
G1 X-0.2S0
G1 X-0.1S400
G1 X-0.1S0
G1 X-0.1S400
G1 X-0.2S0
G1 X-0.1S400
G1 X-0.1S0
G1 X-0.1S400
G1 X-0.2S0
G1 X-0.1S400
G1 X-0.1S0
G1 X-0.2S400
G1 X-0.2S0
G1 X-0.1S400
G1 X-0.1S0
G1 X-0.2S400
G1 X-0.2S0
G1 X-0.1S400
G1 X-0.2S0
G1 X-0.1S400
G1 X-0.1S0
G1 X-0.1S400
G1 X-0.2S0
G1 X-0.1S400
G1 X-0.2S0
G1 X-0.1S400
G1 X-0.2S0
G1 X-0.1S400
G1 X-0.2S0
G1 X-0.1S400
G1 X-0.2S0
G1 X-0.1S400
G1 X-0.2S0
G1 X-0.1S400
G1 X-0.3S0
G1 X-0.1S400
G1 X-0.1S0
G1 X-0.1S400
G1 X-0.2S0
G1 X-0.1S400
G1 X-0.1S0
G1 X-0.1S400
G1 X-0.1S0
G1 X-0.1S400
G1 X-0.1S0
G1 X-0.1S400
G1 X-0.1S0
G1 X-0.2S400
G1 X-0.2S0
G1 X-0.2S400
G1 X-0.1S0
G1 X-1.2S400
G1 X-33.1F6000S0
G1 X-1.1F3000S400
G1 X-8.4F6000S0
G1 X-0.7F3000S400
G0 X-1.25
G0 Y0.1
G0 X1.25
G1 X0.7
G1 X8.3F6000S0
G1 X1.1F3000S400
G1 X33F6000S0
G1 X1.2F3000S400
G1 X0.4S0
G1 X0.1S400
G1 X0.2S0
G1 X0.1S400
G1 X0.2S0
G1 X0.1S400
G1 X0.2S0
G1 X0.1S400
G1 X0.2S0
G1 X0.2S400
G1 X0.2S0
G1 X0.1S400
G1 X0.1S0
G1 X0.2S400
G1 X0.2S0
G1 X0.1S400
G1 X0.1S0
G1 X0.1S400
G1 X0.1S0
G1 X0.2S400
G1 X0.1S0
G1 X0.2S400
G1 X0.1S0
G1 X0.1S400
G1 X0.2S0
G1 X0.1S400
G1 X0.1S0
G1 X0.1S400
G1 X0.2S0
G1 X0.1S400
G1 X0.1S0
G1 X0.1S400
G1 X0.2S0
G1 X0.1S400
G1 X0.2S0
G1 X0.1S400
G1 X0.1S0
G1 X0.2S400
G1 X0.2S0
G1 X0.1S400
G1 X0.2S0
G1 X0.2S400
G1 X0.1S0
G1 X0.1S400
G1 X0.1S0
G1 X0.2S400
G1 X0.1S0
G1 X0.1S400
G1 X0.1S0
G1 X0.1S400
G1 X0.4S0
G1 X0.1S400
G1 X0.1S0
G1 X0.1S400
G1 X0.1S0
G1 X0.2S400
G1 X0.1S0
G1 X0.2S400
G1 X0.2S0
G1 X0.1S400
G1 X0.1S0
G1 X0.2S400
G1 X0.1S0
G1 X0.1S400
G1 X0.6S0
G1 X0.1S400
G1 X0.1S0
G1 X3.7S400
G0 X1.25
G0 X0.5Y0.1
G0 X-1.25
G1 X-3.7
G1 X-0.1S0
G1 X-0.1S400
G1 X-0.5S0
G1 X-0.1S400
G1 X-0.1S0
G1 X-0.2S400
G1 X-0.1S0
G1 X-0.2S400
G1 X-0.2S0
G1 X-0.1S400
G1 X-0.2S0
G1 X-0.1S400
G1 X-0.1S0
G1 X-0.1S400
G1 X-0.4S0
G1 X-0.1S400
G1 X-0.2S0
G1 X-0.1S400
G1 X-0.2S0
G1 X-0.2S400
G1 X-0.1S0
G1 X-0.1S400
G1 X-0.4S0
G1 X-0.1S400
G1 X-0.3S0
G1 X-0.1S400
G1 X-0.2S0
G1 X-0.1S400
G1 X-0.2S0
G1 X-0.1S400
G1 X-0.2S0
G1 X-0.1S400
G1 X-0.2S0
G1 X-0.1S400
G1 X-0.1S0
G1 X-0.1S400
G1 X-0.1S0
G1 X-0.1S400
G1 X-0.2S0
G1 X-0.2S400
G1 X-0.1S0
G1 X-0.1S400
G1 X-0.1S0
G1 X-0.1S400
G1 X-0.1S0
G1 X-0.1S400
G1 X-0.4S0
G1 X-0.1S400
G1 X-0.2S0
G1 X-0.1S400
G1 X-0.1S0
G1 X-0.2S400
G1 X-0.1S0
G1 X-0.1S400
G1 X-0.2S0
G1 X-0.1S400
G1 X-0.2S0
G1 X-0.1S400
G1 X-0.2S0
G1 X-0.1S400
G1 X-0.1S0
G1 X-0.1S400
G1 X-0.2S0
G1 X-0.1S400
G1 X-0.2S0
G1 X-0.1S400
G1 X-0.1S0
G1 X-0.1S400
G1 X-0.1S0
G1 X-0.2S400
G1 X-0.1S0
G1 X-1.2S400
G1 X-33F6000S0
G1 X-1.1F3000S400
G1 X-8.2F6000S0
G1 X-0.7F3000S400
G1 X-5.2F6000S0
G1 X-0.3F3000S400
G0 X-1.25
G0 Y0.1
G0 X1.25
G1 X0.8
G1 X4.7F6000S0
G1 X0.7F3000S400
G1 X8.1F6000S0
G1 X1.1F3000S400
G1 X32.9F6000S0
G1 X1.3F3000S400
G1 X0.2S0
G1 X0.1S400
G1 X0.2S0
G1 X0.1S400
G1 X0.1S0
G1 X0.2S400
G1 X0.1S0
G1 X0.2S400
G1 X0.2S0
G1 X0.1S400
G1 X0.1S0
G1 X0.1S400
G1 X0.2S0
G1 X0.1S400
G1 X0.1S0
G1 X0.1S400
G1 X0.1S0
G1 X0.1S400
G1 X0.4S0
G1 X0.1S400
G1 X0.2S0
G1 X0.1S400
G1 X0.2S0
G1 X0.2S400
G1 X0.2S0
G1 X0.1S400
G1 X0.1S0
G1 X0.1S400
G1 X0.3S0
G1 X0.1S400
G1 X0.1S0
G1 X0.1S400
G1 X0.2S0
G1 X0.1S400
G1 X0.1S0
G1 X0.2S400
G1 X0.1S0
G1 X0.1S400
G1 X0.2S0
G1 X0.1S400
G1 X0.1S0
G1 X0.2S400
G1 X0.1S0
G1 X0.1S400
G1 X0.1S0
G1 X0.1S400
G1 X0.1S0
G1 X0.1S400
G1 X0.2S0
G1 X0.2S400
G1 X0.2S0
G1 X0.1S400
G1 X0.1S0
G1 X0.2S400
G1 X0.1S0
G1 X0.1S400
G1 X0.2S0
G1 X0.1S400
G1 X0.1S0
G1 X0.2S400
G1 X0.2S0
G1 X0.1S400
G1 X0.1S0
G1 X0.1S400
G1 X0.2S0
G1 X0.1S400
G1 X0.2S0
G1 X0.1S400
G1 X0.1S0
G1 X0.1S400
G1 X0.1S0
G1 X0.1S400
G1 X0.1S0
G1 X0.2S400
G1 X0.1S0
G1 X0.2S400
G1 X0.6S0
G1 X3.6S400
G0 X1.25
G0 X0.2Y0.1
G0 X-1.25
G1 X-3.2
G1 X-0.7S0
G1 X-0.1S400
G1 X-0.1S0
G1 X-0.2S400
G1 X-0.2S0
G1 X-0.1S400
G1 X-0.2S0
G1 X-0.1S400
G1 X-0.2S0
G1 X-0.1S400
G1 X-0.2S0
G1 X-0.1S400
G1 X-0.2S0
G1 X-0.1S400
G1 X-0.1S0
G1 X-0.2S400
G1 X-0.2S0
G1 X-0.1S400
G1 X-0.2S0
G1 X-0.1S400
G1 X-0.2S0
G1 X-0.2S400
G1 X-0.1S0
G1 X-0.1S400
G1 X-0.4S0
G1 X-0.1S400
G1 X-0.1S0
G1 X-0.2S400
G1 X-0.1S0
G1 X-0.1S400
G1 X-0.1S0
G1 X-0.2S400
G1 X-0.2S0
G1 X-0.1S400
G1 X-0.4S0
G1 X-0.2S400
G1 X-0.2S0
G1 X-0.1S400
G1 X-0.3S0
G1 X-0.1S400
G1 X-0.1S0
G1 X-0.1S400
G1 X-0.2S0
G1 X-0.1S400
G1 X-0.1S0
G1 X-0.1S400
G1 X-0.2S0
G1 X-0.1S400
G1 X-0.2S0
G1 X-0.2S400
G1 X-0.2S0
G1 X-0.2S400
G1 X-0.1S0
G1 X-0.1S400
G1 X-0.2S0
G1 X-0.2S400
G1 X-0.1S0
G1 X-0.1S400
G1 X-0.2S0
G1 X-0.1S400
G1 X-0.1S0
G1 X-0.2S400
G1 X-0.2S0
G1 X-0.1S400
G1 X-0.1S0
G1 X-0.1S400
G1 X-0.4S0
G1 X-0.1S400
G1 X-0.2S0
G1 X-0.1S400
G1 X-0.2S0
G1 X-0.1S400
G1 X-0.2S0
G1 X-1.2S400
G1 X-32.9F6000S0
G1 X-1.1F3000S400
G1 X-8F6000S0
G1 X-0.7F3000S400
G1 X-4.2F6000S0
G1 X-1.3F3000S400
G0 X-1.25
G0 X0.1Y0.1
G0 X1.25
G1 X1.7
G1 X3.7F6000S0
G1 X0.7F3000S400
G1 X7.9F6000S0
G1 X1F3000S400
G1 X32.9F6000S0
G1 X1.3F3000S400
G1 X0.2S0
G1 X0.1S400
G1 X0.1S0
G1 X0.1S400
G1 X0.1S0
G1 X0.2S400
G1 X0.2S0
G1 X0.1S400
G1 X0.1S0
G1 X0.1S400
G1 X0.2S0
G1 X0.1S400
G1 X0.1S0
G1 X0.1S400
G1 X0.2S0
G1 X0.1S400
G1 X0.2S0
G1 X0.1S400
G1 X0.1S0
G1 X0.1S400
G1 X0.2S0
G1 X0.2S400
G1 X0.1S0
G1 X0.1S400
G1 X0.2S0
G1 X0.1S400
G1 X0.2S0
G1 X0.1S400
G1 X0.2S0
G1 X0.1S400
G1 X0.1S0
G1 X0.1S400
G1 X0.1S0
G1 X0.1S400
G1 X0.1S0
G1 X0.1S400
G1 X0.1S0
G1 X0.1S400
G1 X0.1S0
G1 X0.1S400
G1 X0.1S0
G1 X0.1S400
G1 X0.1S0
G1 X0.1S400
G1 X0.2S0
G1 X0.1S400
G1 X0.2S0
G1 X0.2S400
G1 X0.1S0
G1 X0.1S400
G1 X0.2S0
G1 X0.1S400
G1 X0.3S0
G1 X0.1S400
G1 X0.4S0
G1 X0.2S400
G1 X0.1S0
G1 X0.1S400
G1 X0.2S0
G1 X0.1S400
G1 X0.2S0
G1 X0.1S400
G1 X0.2S0
G1 X0.1S400
G1 X0.1S0
G1 X0.1S400
G1 X0.2S0
G1 X0.1S400
G1 X0.2S0
G1 X0.2S400
G1 X0.1S0
G1 X0.1S400
G1 X0.2S0
G1 X0.1S400
G1 X0.2S0
G1 X0.1S400
G1 X0.2S0
G1 X0.1S400
G1 X0.1S0
G1 X0.1S400
G1 X0.2S0
G1 X0.2S400
G1 X0.1S0
G1 X0.1S400
G1 X0.2S0
G1 X0.1S400
G1 X0.7S0
G1 X2.7S400
G0 X1.25
G0 X-0.2Y0.1
G0 X-1.25
G1 X-2
G1 X-0.7S0
G1 X-0.2S400
G1 X-0.1S0
G1 X-0.4S400
G1 X-0.1S0
G1 X-0.2S400
G1 X-0.3S0
G1 X-0.1S400
G1 X-0.1S0
G1 X-0.1S400
G1 X-0.2S0
G1 X-0.2S400
G1 X-0.1S0
G1 X-0.2S400
G1 X-0.1S0
G1 X-0.1S400
G1 X-0.1S0
G1 X-0.1S400
G1 X-0.2S0
G1 X-0.1S400
G1 X-0.2S0
G1 X-0.2S400
G1 X-0.1S0
G1 X-0.1S400
G1 X-0.1S0
G1 X-0.1S400
G1 X-0.1S0
G1 X-0.1S400
G1 X-0.1S0
G1 X-0.1S400
G1 X-0.2S0
G1 X-0.2S400
G1 X-0.1S0
G1 X-0.1S400
G1 X-0.2S0
G1 X-0.1S400
G1 X-0.1S0
G1 X-0.1S400
G1 X-0.1S0
G1 X-0.1S400
G1 X-0.1S0
G1 X-0.1S400
G1 X-0.1S0
G1 X-0.2S400
G1 X-0.1S0
G1 X-0.1S400
G1 X-0.1S0
G1 X-0.1S400
G1 X-0.2S0
G1 X-0.1S400
G1 X-0.1S0
G1 X-0.1S400
G1 X-0.1S0
G1 X-0.2S400
G1 X-0.2S0
G1 X-0.1S400
G1 X-0.2S0
G1 X-0.1S400
G1 X-0.2S0
G1 X-0.1S400
G1 X-0.2S0
G1 X-0.1S400
G1 X-0.1S0
G1 X-0.1S400
G1 X-0.2S0
G1 X-0.1S400
G1 X-0.1S0
G1 X-0.1S400
G1 X-0.2S0
G1 X-0.1S400
G1 X-0.3S0
G1 X-0.1S400
G1 X-0.2S0
G1 X-0.1S400
G1 X-0.1S0
G1 X-0.1S400
G1 X-0.2S0
G1 X-0.1S400
G1 X-0.1S0
G1 X-0.1S400
G1 X-0.2S0
G1 X-0.1S400
G1 X-0.1S0
G1 X-0.2S400
G1 X-0.1S0
G1 X-0.1S400
G1 X-0.2S0
G1 X-0.1S400
G1 X-0.2S0
G1 X-0.2S400
G1 X-0.2S0
G1 X-1.3S400
G1 X-32.9F6000S0
G1 X-1F3000S400
G1 X-7.8F6000S0
G1 X-0.7F3000S400
G1 X-3.1F6000S0
G1 X-2.3F3000S400
G0 X-1.25
G0 Y0.1
G0 X1.25
G1 X2.8
G1 X2.6F6000S0
G1 X0.7F3000S400
G1 X7.7F6000S0
G1 X1F3000S400
G1 X32.8F6000S0
G1 X1.3F3000S400
G1 X0.2S0
G1 X0.1S400
G1 X0.2S0
G1 X0.1S400
G1 X0.2S0
G1 X0.1S400
G1 X0.2S0
G1 X0.1S400
G1 X0.3S0
G1 X0.1S400
G1 X0.1S0
G1 X0.2S400
G1 X0.2S0
G1 X0.2S400
G1 X0.2S0
G1 X0.1S400
G1 X0.1S0
G1 X0.1S400
G1 X0.1S0
G1 X0.2S400
G1 X0.2S0
G1 X0.1S400
G1 X0.1S0
G1 X0.1S400
G1 X0.2S0
G1 X0.2S400
G1 X0.1S0
G1 X0.1S400
G1 X0.2S0
G1 X0.1S400
G1 X0.1S0
G1 X0.1S400
G1 X0.1S0
G1 X0.1S400
G1 X0.1S0
G1 X0.1S400
G1 X0.1S0
G1 X0.1S400
G1 X0.2S0
G1 X0.1S400
G1 X0.2S0
G1 X0.1S400
G1 X0.2S0
G1 X0.2S400
G1 X0.3S0
G1 X0.1S400
G1 X0.3S0
G1 X0.1S400
G1 X0.2S0
G1 X0.1S400
G1 X0.1S0
G1 X0.2S400
G1 X0.5S0
G1 X0.1S400
G1 X0.1S0
G1 X0.1S400
G1 X0.2S0
G1 X0.1S400
G1 X0.2S0
G1 X0.1S400
G1 X0.2S0
G1 X0.1S400
G1 X0.2S0
G1 X0.1S400
G1 X0.2S0
G1 X0.1S400
G1 X0.2S0
G1 X0.1S400
G1 X0.5S0
G1 X0.1S400
G1 X0.1S0
G1 X0.1S400
G1 X0.2S0
G1 X0.2S400
G1 X0.4S0
G1 X0.1S400
G1 X0.3S0
G1 X0.1S400
G1 X0.2S0
G1 X0.3S400
G1 X0.1S0
G1 X0.2S400
G1 X0.6S0
G1 X1.6S400
G0 X1.25
G0 X-0.1Y0.1
G0 X-1.25
G1 X-1
G1 X-0.7S0
G1 X-0.1S400
G1 X-0.1S0
G1 X-0.3S400
G1 X-0.2S0
G1 X-0.1S400
G1 X-0.5S0
G1 X-0.1S400
G1 X-0.2S0
G1 X-0.1S400
G1 X-0.2S0
G1 X-0.3S400
G1 X-0.2S0
G1 X-0.1S400
G1 X-0.1S0
G1 X-0.1S400
G1 X-0.2S0
G1 X-0.2S400
G1 X-0.1S0
G1 X-0.2S400
G1 X-0.2S0
G1 X-0.2S400
G1 X-0.1S0
G1 X-0.2S400
G1 X-0.2S0
G1 X-0.1S400
G1 X-0.2S0
G1 X-0.1S400
G1 X-0.1S0
G1 X-0.1S400
G1 X-0.1S0
G1 X-0.1S400
G1 X-0.1S0
G1 X-0.1S400
G1 X-0.2S0
G1 X-0.2S400
G1 X-0.1S0
G1 X-0.2S400
G1 X-0.4S0
G1 X-0.1S400
G1 X-0.1S0
G1 X-0.1S400
G1 X-0.1S0
G1 X-0.1S400
G1 X-0.2S0
G1 X-0.1S400
G1 X-0.1S0
G1 X-0.1S400
G1 X-0.2S0
G1 X-0.1S400
G1 X-0.2S0
G1 X-0.1S400
G1 X-0.2S0
G1 X-0.1S400
G1 X-0.2S0
G1 X-0.1S400
G1 X-0.2S0
G1 X-0.1S400
G1 X-0.1S0
G1 X-0.1S400
G1 X-0.1S0
G1 X-0.2S400
G1 X-0.2S0
G1 X-0.1S400
G1 X-0.2S0
G1 X-0.1S400
G1 X-0.1S0
G1 X-0.1S400
G1 X-0.1S0
G1 X-0.1S400
G1 X-0.1S0
G1 X-0.1S400
G1 X-0.2S0
G1 X-0.1S400
G1 X-0.2S0
G1 X-0.1S400
G1 X-0.2S0
G1 X-0.1S400
G1 X-0.2S0
G1 X-0.1S400
G1 X-0.2S0
G1 X-0.1S400
G1 X-0.2S0
G1 X-0.1S400
G1 X-0.1S0
G1 X-0.1S400
G1 X-0.1S0
G1 X-0.2S400
G1 X-0.1S0
G1 X-0.1S400
G1 X-0.2S0
G1 X-0.2S400
G1 X-0.2S0
G1 X-1.3S400
G1 X-32.8F6000S0
G1 X-0.9F3000S400
G1 X-7.7F6000S0
G1 X-0.7F3000S400
G1 X-2.1F6000S0
G1 X-3.3F3000S400
G0 X-1.25
G0 X0.1Y0.1
G0 X1.25
G1 X3.7
G1 X1.6F6000S0
G1 X0.7F3000S400
G1 X7.6F6000S0
G1 X0.9F3000S400
G1 X32.7F6000S0
G1 X1.3F3000S400
G1 X0.2S0
G1 X0.1S400
G1 X0.2S0
G1 X0.1S400
G1 X0.1S0
G1 X0.1S400
G1 X0.2S0
G1 X0.1S400
G1 X0.2S0
G1 X0.1S400
G1 X0.1S0
G1 X0.2S400
G1 X0.1S0
G1 X0.1S400
G1 X0.2S0
G1 X0.1S400
G1 X0.1S0
G1 X0.1S400
G1 X0.2S0
G1 X0.2S400
G1 X0.1S0
G1 X0.1S400
G1 X0.2S0
G1 X0.1S400
G1 X0.2S0
G1 X0.1S400
G1 X0.2S0
G1 X0.1S400
G1 X0.1S0
G1 X0.1S400
G1 X0.2S0
G1 X0.1S400
G1 X0.2S0
G1 X0.1S400
G1 X0.2S0
G1 X0.1S400
G1 X0.2S0
G1 X0.1S400
G1 X0.1S0
G1 X0.1S400
G1 X0.1S0
G1 X0.2S400
G1 X0.1S0
G1 X0.1S400
G1 X0.1S0
G1 X0.2S400
G1 X0.2S0
G1 X0.1S400
G1 X0.1S0
G1 X0.2S400
G1 X0.1S0
G1 X0.2S400
G1 X0.2S0
G1 X0.2S400
G1 X0.1S0
G1 X0.1S400
G1 X0.2S0
G1 X0.1S400
G1 X0.1S0
G1 X0.2S400
G1 X0.2S0
G1 X0.1S400
G1 X0.2S0
G1 X0.1S400
G1 X0.1S0
G1 X0.1S400
G1 X0.1S0
G1 X0.2S400
G1 X0.1S0
G1 X0.1S400
G1 X0.2S0
G1 X0.1S400
G1 X0.2S0
G1 X0.1S400
G1 X0.2S0
G1 X0.1S400
G1 X0.2S0
G1 X0.1S400
G1 X0.1S0
G1 X0.1S400
G1 X0.2S0
G1 X0.1S400
G1 X0.1S0
G1 X0.1S400
G1 X0.3S0
G1 X0.2S400
G1 X0.1S0
G1 X0.2S400
G1 X0.1S0
G1 X0.4S400
G1 X0.2S0
G1 X0.1S400
G1 X0.4S0
G1 X0.1S400
G1 X0.1S0
G1 X0.3S400
G1 X0.1S0
G1 X0.1S400
G1 X0.2S0
G1 X0.1S400
G1 X0.3S0
G1 X0.7S400
G0 X1.25
G0 Y0.1
G0 X-1.25
G1 X-0.9
G1 X-0.2S0
G1 X-0.1S400
G1 X-0.1S0
G1 X-0.2S400
G1 X-0.3S0
G1 X-0.1S400
G1 X-0.2S0
G1 X-0.1S400
G1 X-0.1S0
G1 X-0.2S400
G1 X-0.1S0
G1 X-0.2S400
G1 X-0.4S0
G1 X-0.1S400
G1 X-0.6S0
G1 X-0.1S400
G1 X-0.1S0
G1 X-0.1S400
G1 X-0.2S0
G1 X-0.1S400
G1 X-0.1S0
G1 X-0.1S400
G1 X-0.2S0
G1 X-0.1S400
G1 X-0.2S0
G1 X-0.1S400
G1 X-0.2S0
G1 X-0.1S400
G1 X-0.2S0
G1 X-0.2S400
G1 X-0.2S0
G1 X-0.1S400
G1 X-0.2S0
G1 X-0.1S400
G1 X-0.2S0
G1 X-0.1S400
G1 X-0.1S0
G1 X-0.2S400
G1 X-0.5S0
G1 X-0.2S400
G1 X-0.1S0
G1 X-0.1S400
G1 X-0.2S0
G1 X-0.1S400
G1 X-0.3S0
G1 X-0.1S400
G1 X-0.3S0
G1 X-0.2S400
G1 X-0.2S0
G1 X-0.1S400
G1 X-0.2S0
G1 X-0.1S400
G1 X-0.2S0
G1 X-0.1S400
G1 X-0.2S0
G1 X-0.2S400
G1 X-0.2S0
G1 X-0.1S400
G1 X-0.2S0
G1 X-0.2S400
G1 X-0.1S0
G1 X-0.1S400
G1 X-0.1S0
G1 X-0.1S400
G1 X-0.2S0
G1 X-0.1S400
G1 X-0.1S0
G1 X-0.1S400
G1 X-0.1S0
G1 X-0.2S400
G1 X-0.1S0
G1 X-0.1S400
G1 X-0.1S0
G1 X-0.1S400
G1 X-0.2S0
G1 X-0.2S400
G1 X-0.2S0
G1 X-0.2S400
G1 X-0.1S0
G1 X-0.1S400
G1 X-0.3S0
G1 X-0.1S400
G1 X-0.2S0
G1 X-0.1S400
G1 X-0.2S0
G1 X-0.1S400
G1 X-0.1S0
G1 X-0.1S400
G1 X-0.2S0
G1 X-0.1S400
G1 X-0.1S0
G1 X-1.5S400
G1 X-32.7F6000S0
G1 X-0.9F3000S400
G1 X-7.5F6000S0
G1 X-0.7F3000S400
G1 X-0.9S0
G1 X-4.4S400
G0 X-1.25
G0 Y0.1
G0 X1.25
G1 X0.8
G1 X0.1S0
G1 X4S400
G1 X0.4S0
G1 X0.7S400
G1 X7.4F6000S0
G1 X0.9F3000S400
G1 X32.7F6000S0
G1 X1.6F3000S400
G1 X0.1S0
G1 X0.2S400
G1 X0.2S0
G1 X0.1S400
G1 X0.1S0
G1 X0.2S400
G1 X0.1S0
G1 X0.1S400
G1 X0.1S0
G1 X0.1S400
G1 X0.2S0
G1 X0.1S400
G1 X0.3S0
G1 X0.1S400
G1 X0.2S0
G1 X0.1S400
G1 X0.2S0
G1 X0.1S400
G1 X0.2S0
G1 X0.1S400
G1 X0.3S0
G1 X0.1S400
G1 X0.2S0
G1 X0.2S400
G1 X0.2S0
G1 X0.1S400
G1 X0.3S0
G1 X0.1S400
G1 X0.1S0
G1 X0.2S400
G1 X0.2S0
G1 X0.1S400
G1 X0.2S0
G1 X0.1S400
G1 X0.1S0
G1 X0.1S400
G1 X0.2S0
G1 X0.1S400
G1 X0.1S0
G1 X0.1S400
G1 X0.2S0
G1 X0.1S400
G1 X0.2S0
G1 X0.1S400
G1 X0.2S0
G1 X0.1S400
G1 X0.2S0
G1 X0.1S400
G1 X0.2S0
G1 X0.1S400
G1 X0.2S0
G1 X0.1S400
G1 X0.1S0
G1 X0.2S400
G1 X0.2S0
G1 X0.1S400
G1 X0.2S0
G1 X0.2S400
G1 X0.1S0
G1 X0.1S400
G1 X0.2S0
G1 X0.1S400
G1 X0.2S0
G1 X0.1S400
G1 X0.2S0
G1 X0.2S400
G1 X0.1S0
G1 X0.2S400
G1 X0.1S0
G1 X0.2S400
G1 X0.2S0
G1 X0.1S400
G1 X0.1S0
G1 X0.2S400
G1 X0.2S0
G1 X0.1S400
G1 X0.1S0
G1 X0.3S400
G1 X0.1S0
G1 X0.1S400
G1 X0.2S0
G1 X0.1S400
G1 X0.6S0
G1 X0.1S400
G1 X0.2S0
G1 X0.2S400
G1 X0.2S0
G1 X0.1S400
G1 X0.2S0
G1 X0.1S400
G1 X0.2S0
G1 X0.1S400
G1 X0.1S0
G1 X0.1S400
G1 X0.1S0
G1 X0.8S400
G0 X1.25
G0 X-0.1Y0.1
G0 X-1.25
G1 X-0.8
G1 X-0.1S0
G1 X-0.1S400
G1 X-0.2S0
G1 X-0.1S400
G1 X-0.2S0
G1 X-0.2S400
G1 X-0.1S0
G1 X-0.1S400
G1 X-0.2S0
G1 X-0.1S400
G1 X-0.2S0
G1 X-0.1S400
G1 X-0.1S0
G1 X-0.6S400
G1 X-0.1S0
G1 X-0.2S400
G1 X-0.1S0
G1 X-0.1S400
G1 X-0.3S0
G1 X-0.1S400
G1 X-0.1S0
G1 X-0.1S400
G1 X-0.3S0
G1 X-0.2S400
G1 X-0.2S0
G1 X-0.1S400
G1 X-0.5S0
G1 X-0.1S400
G1 X-0.2S0
G1 X-0.1S400
G1 X-0.1S0
G1 X-0.1S400
G1 X-0.1S0
G1 X-0.1S400
G1 X-0.1S0
G1 X-0.1S400
G1 X-0.3S0
G1 X-0.1S400
G1 X-0.2S0
G1 X-0.2S400
G1 X-0.2S0
G1 X-0.1S400
G1 X-0.2S0
G1 X-0.1S400
G1 X-0.1S0
G1 X-0.2S400
G1 X-0.1S0
G1 X-0.2S400
G1 X-0.1S0
G1 X-0.1S400
G1 X-0.1S0
G1 X-0.2S400
G1 X-0.2S0
G1 X-0.1S400
G1 X-0.2S0
G1 X-0.1S400
G1 X-0.1S0
G1 X-0.1S400
G1 X-0.1S0
G1 X-0.1S400
G1 X-0.1S0
G1 X-0.1S400
G1 X-0.1S0
G1 X-0.1S400
G1 X-0.1S0
G1 X-0.1S400
G1 X-0.2S0
G1 X-0.1S400
G1 X-0.2S0
G1 X-0.1S400
G1 X-0.1S0
G1 X-0.2S400
G1 X-0.2S0
G1 X-0.1S400
G1 X-0.2S0
G1 X-0.1S400
G1 X-0.2S0
G1 X-0.2S400
G1 X-0.2S0
G1 X-0.2S400
G1 X-0.2S0
G1 X-0.1S400
G1 X-0.1S0
G1 X-0.1S400
G1 X-0.2S0
G1 X-0.2S400
G1 X-0.1S0
G1 X-0.2S400
G1 X-0.2S0
G1 X-0.1S400
G1 X-0.2S0
G1 X-0.1S400
G1 X-0.2S0
G1 X-0.1S400
G1 X-0.2S0
G1 X-1.7S400
G1 X-32.8F6000S0
G1 X-0.9F3000S400
G1 X-7.2F6000S0
G1 X-4.8F3000S400
G1 X-0.5S0
G1 X-0.8S400
G0 X-1.25
G0 X0.1Y0.1
G0 X1.25
G1 X0.7
G1 X0.1S0
G1 X0.2S400
G1 X0.8S0
G1 X4.2S400
G1 X7.1F6000S0
G1 X0.9F3000S400
G1 X33F6000S0
G1 X0.8F3000S400
G1 X0.1S0
G1 X0.8S400
G1 X0.1S0
G1 X0.2S400
G1 X0.2S0
G1 X0.1S400
G1 X0.2S0
G1 X0.1S400
G1 X0.2S0
G1 X0.1S400
G1 X0.2S0
G1 X0.1S400
G1 X0.1S0
G1 X0.1S400
G1 X0.1S0
G1 X0.1S400
G1 X0.1S0
G1 X0.1S400
G1 X0.2S0
G1 X0.1S400
G1 X0.2S0
G1 X0.1S400
G1 X0.1S0
G1 X0.2S400
G1 X0.1S0
G1 X0.1S400
G1 X0.1S0
G1 X0.1S400
G1 X0.2S0
G1 X0.1S400
G1 X0.2S0
G1 X0.2S400
G1 X0.2S0
G1 X0.1S400
G1 X0.2S0
G1 X0.1S400
G1 X0.1S0
G1 X0.1S400
G1 X0.2S0
G1 X0.1S400
G1 X0.2S0
G1 X0.1S400
G1 X0.1S0
G1 X0.1S400
G1 X0.1S0
G1 X0.2S400
G1 X0.2S0
G1 X0.1S400
G1 X0.2S0
G1 X0.1S400
G1 X0.3S0
G1 X0.1S400
G1 X0.2S0
G1 X0.1S400
G1 X0.1S0
G1 X0.1S400
G1 X0.2S0
G1 X0.1S400
G1 X0.2S0
G1 X0.1S400
G1 X0.1S0
G1 X0.2S400
G1 X0.2S0
G1 X0.1S400
G1 X0.2S0
G1 X0.1S400
G1 X0.2S0
G1 X0.1S400
G1 X0.1S0
G1 X0.2S400
G1 X0.1S0
G1 X0.2S400
G1 X0.2S0
G1 X0.1S400
G1 X0.2S0
G1 X0.1S400
G1 X0.2S0
G1 X0.1S400
G1 X0.2S0
G1 X0.1S400
G1 X0.1S0
G1 X0.2S400
G1 X1.1F6000S0
G1 X0.1F3000S400
G1 X0.1S0
G1 X0.1S400
G1 X0.1S0
G1 X0.2S400
G1 X0.2S0
G1 X0.1S400
G1 X0.2S0
G1 X0.1S400
G1 X0.1S0
G1 X0.2S400
G1 X0.1S0
G1 X0.1S400
G1 X0.2S0
G1 X0.8S400
G0 X1.25
G0 X-0.1Y0.1
G0 X-1.25
G1 X-0.9
G1 X-0.1S0
G1 X-0.1S400
G1 X-0.2S0
G1 X-0.1S400
G1 X-0.2S0
G1 X-0.1S400
G1 X-0.1S0
G1 X-0.1S400
G1 X-0.1S0
G1 X-0.1S400
G1 X-0.3S0
G1 X-0.1S400
G1 X-0.3S0
G1 X-0.1S400
G1 X-0.1S0
G1 X-0.2S400
G1 X-0.1S0
G1 X-0.2S400
G1 X-0.1S0
G1 X-0.2S400
G1 X-0.1S0
G1 X-0.1S400
G1 X-0.2S0
G1 X-0.1S400
G1 X-0.1S0
G1 X-0.2S400
G1 X-0.2S0
G1 X-0.1S400
G1 X-0.1S0
G1 X-0.2S400
G1 X-0.1S0
G1 X-0.1S400
G1 X-0.2S0
G1 X-0.1S400
G1 X-0.2S0
G1 X-0.1S400
G1 X-0.1S0
G1 X-0.1S400
G1 X-0.1S0
G1 X-0.1S400
G1 X-0.1S0
G1 X-0.1S400
G1 X-0.1S0
G1 X-0.1S400
G1 X-0.3S0
G1 X-0.1S400
G1 X-0.2S0
G1 X-0.2S400
G1 X-0.1S0
G1 X-0.1S400
G1 X-0.1S0
G1 X-0.1S400
G1 X-0.2S0
G1 X-0.1S400
G1 X-0.1S0
G1 X-0.1S400
G1 X-0.1S0
G1 X-0.1S400
G1 X-0.2S0
G1 X-0.1S400
G1 X-0.2S0
G1 X-0.1S400
G1 X-0.2S0
G1 X-0.1S400
G1 X-0.2S0
G1 X-0.1S400
G1 X-0.1S0
G1 X-0.1S400
G1 X-0.2S0
G1 X-0.1S400
G1 X-0.2S0
G1 X-0.2S400
G1 X-0.1S0
G1 X-0.1S400
G1 X-0.2S0
G1 X-0.1S400
G1 X-0.2S0
G1 X-0.2S400
G1 X-0.1S0
G1 X-0.1S400
G1 X-0.1S0
G1 X-0.1S400
G1 X-0.4S0
G1 X-0.2S400
G1 X-0.2S0
G1 X-0.2S400
G1 X-0.2S0
G1 X-0.1S400
G1 X-0.2S0
G1 X-0.1S400
G1 X-0.2S0
G1 X-0.1S400
G1 X-0.2S0
G1 X-0.1S400
G1 X-0.1S0
G1 X-0.2S400
G1 X-0.1S0
G1 X-0.1S400
G1 X-0.2S0
G1 X-0.9S400
G1 X-0.3S0
G1 X-0.5S400
G1 X-33.2F6000S0
G1 X-0.9F3000S400
G1 X-7F6000S0
G1 X-3.5F3000S400
G1 X-0.1S0
G1 X-0.1S400
G1 X-0.7S0
G1 X-0.1S400
G1 X-0.1S0
G1 X-0.1S400
G1 X-0.1S0
G1 X-0.2S400
G1 X-0.1S0
G1 X-0.1S400
G1 X-0.1S0
G1 X-0.7S400
G0 X-1.25
G0 Y0.1
G0 X1.25
G1 X0.8
G1 X0.3S0
G1 X0.1S400
G1 X0.1S0
G1 X0.2S400
G1 X0.1S0
G1 X0.3S400
G1 X0.1S0
G1 X0.1S400
G1 X0.1S0
G1 X0.1S400
G1 X0.3S0
G1 X0.1S400
G1 X0.2S0
G1 X3.1S400
G1 X7F6000S0
G1 X0.9F3000S400
G1 X33.2F6000S0
G1 X0.4F3000S400
G1 X0.4S0
G1 X0.9S400
G1 X0.2S0
G1 X0.1S400
G1 X0.3S0
G1 X0.1S400
G1 X0.1S0
G1 X0.2S400
G1 X0.1S0
G1 X0.1S400
G1 X0.1S0
G1 X0.1S400
G1 X0.1S0
G1 X0.2S400
G1 X0.2S0
G1 X0.1S400
G1 X0.2S0
G1 X0.1S400
G1 X0.2S0
G1 X0.2S400
G1 X0.2S0
G1 X0.1S400
G1 X0.3S0
G1 X0.1S400
G1 X0.2S0
G1 X0.2S400
G1 X0.2S0
G1 X0.1S400
G1 X0.2S0
G1 X0.1S400
G1 X0.2S0
G1 X0.1S400
G1 X0.1S0
G1 X0.1S400
G1 X0.1S0
G1 X0.1S400
G1 X0.1S0
G1 X0.1S400
G1 X0.1S0
G1 X0.1S400
G1 X0.2S0
G1 X0.1S400
G1 X0.1S0
G1 X0.2S400
G1 X0.1S0
G1 X0.1S400
G1 X0.1S0
G1 X0.1S400
G1 X0.1S0
G1 X0.1S400
G1 X0.1S0
G1 X0.1S400
G1 X0.1S0
G1 X0.1S400
G1 X0.2S0
G1 X0.1S400
G1 X0.2S0
G1 X0.1S400
G1 X0.1S0
G1 X0.2S400
G1 X0.1S0
G1 X0.1S400
G1 X0.2S0
G1 X0.1S400
G1 X0.2S0
G1 X0.1S400
G1 X0.1S0
G1 X0.1S400
G1 X0.1S0
G1 X0.1S400
G1 X0.2S0
G1 X0.1S400
G1 X0.4S0
G1 X0.1S400
G1 X0.2S0
G1 X0.1S400
G1 X0.2S0
G1 X0.1S400
G1 X0.1S0
G1 X0.2S400
G1 X0.5S0
G1 X0.1S400
G1 X0.1S0
G1 X0.1S400
G1 X0.1S0
G1 X0.1S400
G1 X0.1S0
G1 X0.2S400
G1 X0.1S0
G1 X0.2S400
G1 X0.1S0
G1 X0.1S400
G1 X0.1S0
G1 X0.1S400
G1 X0.2S0
G1 X0.1S400
G1 X0.2S0
G1 X0.1S400
G1 X0.2S0
G1 X0.1S400
G1 X0.2S0
G1 X0.1S400
G1 X0.1S0
G1 X0.8S400
G0 X1.25
G0 X-0.2Y0.1
G0 X-1.25
G1 X-0.7
G1 X-0.2S0
G1 X-0.1S400
G1 X-0.1S0
G1 X-0.1S400
G1 X-0.1S0
G1 X-0.2S400
G1 X-0.1S0
G1 X-0.1S400
G1 X-0.1S0
G1 X-0.1S400
G1 X-0.1S0
G1 X-0.1S400
G1 X-0.1S0
G1 X-0.1S400
G1 X-0.2S0
G1 X-0.1S400
G1 X-0.6S0
G1 X-0.1S400
G1 X-0.2S0
G1 X-0.2S400
G1 X-0.1S0
G1 X-0.2S400
G1 X-0.4S0
G1 X-0.2S400
G1 X-0.1S0
G1 X-0.1S400
G1 X-0.2S0
G1 X-0.1S400
G1 X-0.1S0
G1 X-0.2S400
G1 X-0.1S0
G1 X-0.2S400
G1 X-0.2S0
G1 X-0.1S400
G1 X-0.2S0
G1 X-0.1S400
G1 X-0.1S0
G1 X-0.1S400
G1 X-0.1S0
G1 X-0.1S400
G1 X-0.1S0
G1 X-0.1S400
G1 X-0.3S0
G1 X-0.1S400
G1 X-0.2S0
G1 X-0.1S400
G1 X-0.2S0
G1 X-0.1S400
G1 X-0.1S0
G1 X-0.1S400
G1 X-0.2S0
G1 X-0.1S400
G1 X-0.2S0
G1 X-0.1S400
G1 X-0.4S0
G1 X-0.2S400
G1 X-0.1S0
G1 X-0.1S400
G1 X-0.2S0
G1 X-0.1S400
G1 X-0.2S0
G1 X-0.1S400
G1 X-0.1S0
G1 X-0.2S400
G1 X-0.1S0
G1 X-0.1S400
G1 X-0.2S0
G1 X-0.2S400
G1 X-0.2S0
G1 X-0.1S400
G1 X-0.2S0
G1 X-0.1S400
G1 X-0.1S0
G1 X-0.1S400
G1 X-0.1S0
G1 X-0.2S400
G1 X-0.1S0
G1 X-0.1S400
G1 X-0.2S0
G1 X-0.1S400
G1 X-0.1S0
G1 X-0.1S400
G1 X-0.2S0
G1 X-0.1S400
G1 X-0.2S0
G1 X-0.1S400
G1 X-0.2S0
G1 X-0.1S400
G1 X-0.2S0
G1 X-0.1S400
G1 X-0.2S0
G1 X-0.1S400
G1 X-0.1S0
G1 X-0.1S400
G1 X-0.1S0
G1 X-1S400
G1 X-0.7S0
G1 X-0.1S400
G1 X-33.4F6000S0
G1 X-0.9F3000S400
G1 X-6.9F6000S0
G1 X-2.6F3000S400
G1 X-0.6S0
G1 X-0.1S400
G1 X-0.2S0
G1 X-0.2S400
G1 X-0.1S0
G1 X-0.1S400
G1 X-0.1S0
G1 X-0.1S400
G1 X-0.1S0
G1 X-0.1S400
G1 X-0.7S0
G1 X-0.1S400
G1 X-0.1S0
G1 X-0.8S400
G0 X-1.25
G0 X0.1Y0.1
G0 X1.25
G1 X0.8
G1 X0.1S0
G1 X0.3S400
G1 X0.1S0
G1 X0.2S400
G1 X0.4S0
G1 X0.1S400
G1 X0.2S0
G1 X0.1S400
G1 X0.1S0
G1 X0.1S400
G1 X0.1S0
G1 X0.2S400
G1 X0.1S0
G1 X0.2S400
G1 X0.8S0
G1 X2S400
G1 X6.8F6000S0
G1 X0.9F3000S400
G1 X34.4F6000S0
G1 X0.8F3000S400
G1 X0.2S0
G1 X0.2S400
G1 X0.2S0
G1 X0.1S400
G1 X0.2S0
G1 X0.1S400
G1 X0.1S0
G1 X0.1S400
G1 X0.2S0
G1 X0.1S400
G1 X0.1S0
G1 X0.2S400
G1 X0.1S0
G1 X0.1S400
G1 X0.1S0
G1 X0.2S400
G1 X0.4S0
G1 X0.1S400
G1 X0.2S0
G1 X0.1S400
G1 X0.1S0
G1 X0.2S400
G1 X0.2S0
G1 X0.1S400
G1 X0.2S0
G1 X0.2S400
G1 X0.3S0
G1 X0.1S400
G1 X0.2S0
G1 X0.1S400
G1 X0.1S0
G1 X0.1S400
G1 X0.1S0
G1 X0.1S400
G1 X0.2S0
G1 X0.1S400
G1 X0.2S0
G1 X0.2S400
G1 X0.2S0
G1 X0.1S400
G1 X0.2S0
G1 X0.1S400
G1 X0.2S0
G1 X0.1S400
G1 X0.2S0
G1 X0.2S400
G1 X0.1S0
G1 X0.2S400
G1 X0.1S0
G1 X0.1S400
G1 X0.2S0
G1 X0.1S400
G1 X0.2S0
G1 X0.1S400
G1 X0.1S0
G1 X0.2S400
G1 X0.1S0
G1 X0.1S400
G1 X0.2S0
G1 X0.1S400
G1 X0.4S0
G1 X0.2S400
G1 X0.1S0
G1 X0.1S400
G1 X0.2S0
G1 X0.1S400
G1 X0.1S0
G1 X0.2S400
G1 X0.3S0
G1 X0.1S400
G1 X0.2S0
G1 X0.1S400
G1 X0.2S0
G1 X0.1S400
G1 X0.1S0
G1 X0.3S400
G1 X0.2S0
G1 X0.1S400
G1 X0.2S0
G1 X0.1S400
G1 X0.2S0
G1 X0.1S400
G1 X0.1S0
G1 X0.1S400
G1 X0.2S0
G1 X0.1S400
G1 X0.2S0
G1 X0.1S400
G1 X0.2S0
G1 X0.9S400
G0 X1.25
G0 X-0.1Y0.1
G0 X-1.25
G1 X-0.7
G1 X-0.2S0
G1 X-0.1S400
G1 X-0.2S0
G1 X-0.1S400
G1 X-0.2S0
G1 X-0.1S400
G1 X-0.2S0
G1 X-0.1S400
G1 X-0.2S0
G1 X-0.1S400
G1 X-0.1S0
G1 X-0.1S400
G1 X-0.1S0
G1 X-0.2S400
G1 X-0.2S0
G1 X-0.1S400
G1 X-0.2S0
G1 X-0.2S400
G1 X-0.1S0
G1 X-0.1S400
G1 X-0.2S0
G1 X-0.1S400
G1 X-0.1S0
G1 X-0.2S400
G1 X-0.4S0
G1 X-0.2S400
G1 X-0.2S0
G1 X-0.1S400
G1 X-0.2S0
G1 X-0.2S400
G1 X-0.2S0
G1 X-0.1S400
G1 X-0.1S0
G1 X-0.1S400
G1 X-0.3S0
G1 X-0.1S400
G1 X-0.2S0
G1 X-0.1S400
G1 X-0.1S0
G1 X-0.2S400
G1 X-0.2S0
G1 X-0.1S400
G1 X-0.3S0
G1 X-0.1S400
G1 X-0.1S0
G1 X-0.1S400
G1 X-0.2S0
G1 X-0.2S400
G1 X-0.1S0
G1 X-0.2S400
G1 X-0.1S0
G1 X-0.2S400
G1 X-0.1S0
G1 X-0.1S400
G1 X-0.2S0
G1 X-0.1S400
G1 X-0.1S0
G1 X-0.1S400
G1 X-0.2S0
G1 X-0.1S400
G1 X-0.1S0
G1 X-0.1S400
G1 X-0.2S0
G1 X-0.1S400
G1 X-0.2S0
G1 X-0.1S400
G1 X-0.2S0
G1 X-0.1S400
G1 X-0.1S0
G1 X-0.1S400
G1 X-0.2S0
G1 X-0.1S400
G1 X-0.2S0
G1 X-0.1S400
G1 X-0.2S0
G1 X-0.2S400
G1 X-0.1S0
G1 X-0.1S400
G1 X-0.3S0
G1 X-0.1S400
G1 X-0.2S0
G1 X-0.1S400
G1 X-0.2S0
G1 X-0.2S400
G1 X-0.2S0
G1 X-0.1S400
G1 X-0.1S0
G1 X-0.2S400
G1 X-0.1S0
G1 X-0.1S400
G1 X-0.2S0
G1 X-0.8S400
G1 X-34.6F6000S0
G1 X-0.9F3000S400
G1 X-6.6F6000S0
G1 X-1.3F3000S400
G1 X-0.1S0
G1 X-0.1S400
G1 X-0.8S0
G1 X-0.1S400
G1 X-0.1S0
G1 X-0.1S400
G1 X-0.1S0
G1 X-0.3S400
G1 X-0.1S0
G1 X-0.1S400
G1 X-0.2S0
G1 X-0.1S400
G1 X-0.2S0
G1 X-0.1S400
G1 X-0.2S0
G1 X-0.1S400
G1 X-0.1S0
G1 X-0.2S400
G1 X-0.1S0
G1 X-0.2S400
G1 X-0.2S0
G1 X-0.1S400
G1 X-0.2S0
G1 X-0.8S400
G0 X-1.25
G0 Y0.1
G0 X1.25
G1 X0.8
G1 X0.2S0
G1 X0.1S400
G1 X0.5S0
G1 X0.1S400
G1 X0.2S0
G1 X0.2S400
G1 X0.1S0
G1 X0.1S400
G1 X0.2S0
G1 X0.1S400
G1 X0.7S0
G1 X0.1S400
G1 X0.1S0
G1 X0.4S400
G1 X0.1S0
G1 X0.1S400
G1 X0.1S0
G1 X0.1S400
G1 X0.1S0
G1 X0.1S400
G1 X0.5S0
G1 X0.1S400
G1 X0.1S0
G1 X0.8S400
G1 X6.6F6000S0
G1 X0.8F3000S400
G1 X34.7F6000S0
G1 X0.9F3000S400
G1 X0.5S0
G1 X0.1S400
G1 X0.1S0
G1 X0.1S400
G1 X0.2S0
G1 X0.1S400
G1 X0.1S0
G1 X0.1S400
G1 X0.2S0
G1 X0.1S400
G1 X0.1S0
G1 X0.1S400
G1 X0.2S0
G1 X0.1S400
G1 X0.2S0
G1 X0.1S400
G1 X0.1S0
G1 X0.2S400
G1 X0.1S0
G1 X0.1S400
G1 X0.2S0
G1 X0.1S400
G1 X0.1S0
G1 X0.1S400
G1 X0.1S0
G1 X0.1S400
G1 X0.2S0
G1 X0.2S400
G1 X0.1S0
G1 X0.1S400
G1 X0.1S0
G1 X0.1S400
G1 X0.2S0
G1 X0.1S400
G1 X0.2S0
G1 X0.1S400
G1 X0.1S0
G1 X0.1S400
G1 X0.1S0
G1 X0.1S400
G1 X0.6S0
G1 X0.1S400
G1 X0.2S0
G1 X0.2S400
G1 X0.1S0
G1 X0.1S400
G1 X0.1S0
G1 X0.1S400
G1 X0.1S0
G1 X0.1S400
G1 X0.2S0
G1 X0.1S400
G1 X0.2S0
G1 X0.1S400
G1 X0.1S0
G1 X0.2S400
G1 X0.1S0
G1 X0.1S400
G1 X0.2S0
G1 X0.1S400
G1 X0.2S0
G1 X0.1S400
G1 X0.2S0
G1 X0.2S400
G1 X0.2S0
G1 X0.1S400
G1 X0.2S0
G1 X0.1S400
G1 X0.1S0
G1 X0.2S400
G1 X0.2S0
G1 X0.1S400
G1 X0.1S0
G1 X0.1S400
G1 X0.1S0
G1 X0.1S400
G1 X0.2S0
G1 X0.1S400
G1 X0.2S0
G1 X0.1S400
G1 X0.3S0
G1 X0.1S400
G1 X0.2S0
G1 X0.1S400
G1 X0.2S0
G1 X0.2S400
G1 X0.2S0
G1 X0.2S400
G1 X0.1S0
G1 X0.2S400
G1 X0.1S0
G1 X0.2S400
G1 X0.1S0
G1 X0.8S400
G0 X1.25
G0 Y0.1
G0 X-1.25
G1 X-0.8
G1 X-0.2S0
G1 X-0.1S400
G1 X-0.5S0
G1 X-0.1S400
G1 X-0.2S0
G1 X-0.1S400
G1 X-0.2S0
G1 X-0.1S400
G1 X-0.1S0
G1 X-0.1S400
G1 X-0.2S0
G1 X-0.1S400
G1 X-0.1S0
G1 X-0.2S400
G1 X-0.1S0
G1 X-0.1S400
G1 X-0.2S0
G1 X-0.1S400
G1 X-0.1S0
G1 X-0.1S400
G1 X-0.2S0
G1 X-0.1S400
G1 X-0.2S0
G1 X-0.1S400
G1 X-0.2S0
G1 X-0.1S400
G1 X-0.2S0
G1 X-0.2S400
G1 X-0.1S0
G1 X-0.1S400
G1 X-0.2S0
G1 X-0.2S400
G1 X-0.1S0
G1 X-0.1S400
G1 X-0.1S0
G1 X-0.2S400
G1 X-0.1S0
G1 X-0.1S400
G1 X-0.3S0
G1 X-0.1S400
G1 X-0.2S0
G1 X-0.1S400
G1 X-0.1S0
G1 X-0.1S400
G1 X-0.1S0
G1 X-0.1S400
G1 X-0.1S0
G1 X-0.1S400
G1 X-0.3S0
G1 X-0.1S400
G1 X-0.3S0
G1 X-0.1S400
G1 X-0.1S0
G1 X-0.2S400
G1 X-0.1S0
G1 X-0.1S400
G1 X-0.1S0
G1 X-0.1S400
G1 X-0.1S0
G1 X-0.1S400
G1 X-0.2S0
G1 X-0.2S400
G1 X-0.1S0
G1 X-0.1S400
G1 X-0.1S0
G1 X-0.1S400
G1 X-0.2S0
G1 X-0.1S400
G1 X-0.2S0
G1 X-0.1S400
G1 X-0.2S0
G1 X-0.1S400
G1 X-0.2S0
G1 X-0.1S400
G1 X-0.1S0
G1 X-0.1S400
G1 X-0.2S0
G1 X-0.1S400
G1 X-0.2S0
G1 X-0.1S400
G1 X-0.2S0
G1 X-0.2S400
G1 X-0.1S0
G1 X-0.1S400
G1 X-0.2S0
G1 X-0.1S400
G1 X-0.1S0
G1 X-0.1S400
G1 X-0.2S0
G1 X-0.1S400
G1 X-0.2S0
G1 X-0.1S400
G1 X-0.2S0
G1 X-1.1S400
G1 X-34.8F6000S0
G1 X-0.9F3000S400
G1 X-6.5F6000S0
G1 X-0.8F3000S400
G1 X-0.2S0
G1 X-0.1S400
G1 X-0.1S0
G1 X-0.3S400
G1 X-0.1S0
G1 X-0.1S400
G1 X-0.1S0
G1 X-0.1S400
G1 X-0.1S0
G1 X-0.1S400
G1 X-0.6S0
G1 X-0.1S400
G1 X-0.1S0
G1 X-0.1S400
G1 X-0.1S0
G1 X-0.3S400
G1 X-0.1S0
G1 X-0.2S400
G1 X-0.1S0
G1 X-0.1S400
G1 X-0.2S0
G1 X-0.1S400
G1 X-0.2S0
G1 X-0.1S400
G1 X-0.1S0
G1 X-0.3S400
G1 X-0.1S0
G1 X-0.1S400
G1 X-0.1S0
G1 X-0.7S400
G0 X-1.25
G0 Y0.1
G0 X1.25
G1 X0.8
G1 X0.3S0
G1 X0.1S400
G1 X0.2S0
G1 X0.2S400
G1 X0.1S0
G1 X0.1S400
G1 X0.2S0
G1 X0.1S400
G1 X0.5S0
G1 X0.1S400
G1 X0.1S0
G1 X0.1S400
G1 X0.1S0
G1 X0.2S400
G1 X0.1S0
G1 X0.2S400
G1 X0.2S0
G1 X0.1S400
G1 X0.2S0
G1 X0.1S400
G1 X0.2S0
G1 X0.1S400
G1 X0.2S0
G1 X0.1S400
G1 X0.1S0
G1 X0.1S400
G1 X0.2S0
G1 X0.8S400
G1 X6.4F6000S0
G1 X0.9F3000S400
G1 X34.9F6000S0
G1 X0.8F3000S400
G1 X0.2S0
G1 X0.2S400
G1 X0.1S0
G1 X0.1S400
G1 X0.1S0
G1 X0.2S400
G1 X0.1S0
G1 X0.1S400
G1 X0.2S0
G1 X0.2S400
G1 X0.2S0
G1 X0.1S400
G1 X0.2S0
G1 X0.2S400
G1 X0.1S0
G1 X0.1S400
G1 X0.2S0
G1 X0.1S400
G1 X0.2S0
G1 X0.1S400
G1 X0.1S0
G1 X0.1S400
G1 X0.1S0
G1 X0.1S400
G1 X0.1S0
G1 X0.2S400
G1 X0.2S0
G1 X0.1S400
G1 X0.1S0
G1 X0.1S400
G1 X0.2S0
G1 X0.1S400
G1 X0.2S0
G1 X0.1S400
G1 X0.1S0
G1 X0.1S400
G1 X0.2S0
G1 X0.1S400
G1 X0.2S0
G1 X0.1S400
G1 X0.1S0
G1 X0.1S400
G1 X0.1S0
G1 X0.2S400
G1 X0.1S0
G1 X0.1S400
G1 X0.1S0
G1 X0.1S400
G1 X0.1S0
G1 X0.1S400
G1 X0.2S0
G1 X0.1S400
G1 X0.2S0
G1 X0.1S400
G1 X0.1S0
G1 X0.1S400
G1 X0.1S0
G1 X0.1S400
G1 X0.2S0
G1 X0.1S400
G1 X0.3S0
G1 X0.1S400
G1 X0.2S0
G1 X0.1S400
G1 X0.2S0
G1 X0.1S400
G1 X0.4S0
G1 X0.1S400
G1 X0.1S0
G1 X0.1S400
G1 X0.2S0
G1 X0.1S400
G1 X0.1S0
G1 X0.1S400
G1 X0.1S0
G1 X0.1S400
G1 X0.2S0
G1 X0.1S400
G1 X0.1S0
G1 X0.2S400
G1 X0.1S0
G1 X0.1S400
G1 X0.2S0
G1 X0.1S400
G1 X0.1S0
G1 X0.2S400
G1 X0.1S0
G1 X0.1S400
G1 X0.1S0
G1 X0.2S400
G1 X0.2S0
G1 X0.2S400
G1 X0.2S0
G1 X0.2S400
G1 X0.1S0
G1 X0.1S400
G1 X0.2S0
G1 X0.9S400
G0 X1.25
G0 X-0.1Y0.1
G0 X-1.25
G1 X-0.9
G1 X-0.1S0
G1 X-0.1S400
G1 X-0.2S0
G1 X-0.2S400
G1 X-0.2S0
G1 X-0.1S400
G1 X-0.2S0
G1 X-0.1S400
G1 X-0.4S0
G1 X-0.1S400
G1 X-0.3S0
G1 X-0.1S400
G1 X-0.2S0
G1 X-0.1S400
G1 X-0.4S0
G1 X-0.2S400
G1 X-0.1S0
G1 X-0.1S400
G1 X-0.2S0
G1 X-0.1S400
G1 X-0.1S0
G1 X-0.2S400
G1 X-0.2S0
G1 X-0.1S400
G1 X-0.1S0
G1 X-0.2S400
G1 X-0.1S0
G1 X-0.1S400
G1 X-0.2S0
G1 X-0.1S400
G1 X-0.2S0
G1 X-0.1S400
G1 X-0.1S0
G1 X-0.1S400
G1 X-0.1S0
G1 X-0.2S400
G1 X-0.1S0
G1 X-0.1S400
G1 X-0.2S0
G1 X-0.1S400
G1 X-0.2S0
G1 X-0.1S400
G1 X-0.1S0
G1 X-0.1S400
G1 X-0.1S0
G1 X-0.1S400
G1 X-0.1S0
G1 X-0.1S400
G1 X-0.2S0
G1 X-0.1S400
G1 X-0.3S0
G1 X-0.1S400
G1 X-0.2S0
G1 X-0.1S400
G1 X-0.1S0
G1 X-0.1S400
G1 X-0.1S0
G1 X-0.1S400
G1 X-0.1S0
G1 X-0.1S400
G1 X-0.2S0
G1 X-0.1S400
G1 X-0.1S0
G1 X-0.1S400
G1 X-0.1S0
G1 X-0.1S400
G1 X-0.1S0
G1 X-0.1S400
G1 X-0.2S0
G1 X-0.1S400
G1 X-0.2S0
G1 X-0.1S400
G1 X-0.1S0
G1 X-0.1S400
G1 X-0.2S0
G1 X-0.2S400
G1 X-0.1S0
G1 X-0.1S400
G1 X-0.1S0
G1 X-0.1S400
G1 X-0.2S0
G1 X-0.1S400
G1 X-0.2S0
G1 X-0.1S400
G1 X-0.2S0
G1 X-0.1S400
G1 X-0.2S0
G1 X-0.1S400
G1 X-0.2S0
G1 X-0.1S400
G1 X-0.2S0
G1 X-0.1S400
G1 X-0.3S0
G1 X-0.8S400
G1 X-35.1F6000S0
G1 X-0.8F3000S400
G1 X-6.4F6000S0
G1 X-0.7F3000S400
G1 X-0.2S0
G1 X-0.1S400
G1 X-0.1S0
G1 X-0.1S400
G1 X-0.2S0
G1 X-0.1S400
G1 X-0.2S0
G1 X-0.1S400
G1 X-0.1S0
G1 X-0.1S400
G1 X-0.1S0
G1 X-0.2S400
G1 X-0.1S0
G1 X-0.2S400
G1 X-0.3S0
G1 X-0.1S400
G1 X-0.4S0
G1 X-0.2S400
G1 X-0.1S0
G1 X-0.1S400
G1 X-0.1S0
G1 X-0.2S400
G1 X-0.2S0
G1 X-0.1S400
G1 X-0.2S0
G1 X-0.1S400
G1 X-0.2S0
G1 X-0.1S400
G1 X-0.1S0
G1 X-0.8S400
G0 X-1.25
G0 Y0.1
G0 X1.25
G1 X0.8
G1 X0.1S0
G1 X0.2S400
G1 X0.1S0
G1 X0.1S400
G1 X0.2S0
G1 X0.1S400
G1 X0.2S0
G1 X0.1S400
G1 X0.2S0
G1 X0.1S400
G1 X0.2S0
G1 X0.2S400
G1 X0.1S0
G1 X0.2S400
G1 X0.2S0
G1 X0.1S400
G1 X0.4S0
G1 X0.1S400
G1 X0.2S0
G1 X0.1S400
G1 X0.1S0
G1 X0.2S400
G1 X0.1S0
G1 X0.1S400
G1 X0.2S0
G1 X0.1S400
G1 X0.1S0
G1 X0.2S400
G1 X0.1S0
G1 X0.8S400
G1 X6.2F6000S0
G1 X0.9F3000S400
G1 X35.2F6000S0
G1 X0.8F3000S400
G1 X0.1S0
G1 X0.1S400
G1 X0.2S0
G1 X0.1S400
G1 X0.2S0
G1 X0.1S400
G1 X0.1S0
G1 X0.2S400
G1 X0.2S0
G1 X0.2S400
G1 X0.1S0
G1 X0.1S400
G1 X0.2S0
G1 X0.1S400
G1 X0.2S0
G1 X0.1S400
G1 X0.2S0
G1 X0.1S400
G1 X0.1S0
G1 X0.1S400
G1 X0.2S0
G1 X0.1S400
G1 X0.2S0
G1 X0.1S400
G1 X0.1S0
G1 X0.1S400
G1 X0.2S0
G1 X0.1S400
G1 X0.2S0
G1 X0.1S400
G1 X0.1S0
G1 X0.2S400
G1 X0.3S0
G1 X0.1S400
G1 X0.2S0
G1 X0.2S400
G1 X0.2S0
G1 X0.1S400
G1 X0.2S0
G1 X0.1S400
G1 X0.1S0
G1 X0.1S400
G1 X0.2S0
G1 X0.1S400
G1 X0.2S0
G1 X0.1S400
G1 X0.1S0
G1 X0.2S400
G1 X0.1S0
G1 X0.1S400
G1 X0.2S0
G1 X0.1S400
G1 X0.2S0
G1 X0.1S400
G1 X0.1S0
G1 X0.1S400
G1 X0.1S0
G1 X0.1S400
G1 X0.1S0
G1 X0.1S400
G1 X0.1S0
G1 X0.1S400
G1 X0.2S0
G1 X0.1S400
G1 X0.1S0
G1 X0.1S400
G1 X0.1S0
G1 X0.1S400
G1 X0.2S0
G1 X0.1S400
G1 X0.2S0
G1 X0.1S400
G1 X0.2S0
G1 X0.1S400
G1 X0.2S0
G1 X0.2S400
G1 X0.1S0
G1 X0.1S400
G1 X0.1S0
G1 X0.1S400
G1 X0.1S0
G1 X0.2S400
G1 X0.2S0
G1 X0.1S400
G1 X0.1S0
G1 X0.2S400
G1 X0.2S0
G1 X0.2S400
G1 X0.2S0
G1 X0.1S400
G1 X0.3S0
G1 X0.1S400
G1 X0.2S0
G1 X0.9S400
G0 X1.25
G0 X-0.1Y0.1
G0 X-1.25
G1 X-0.9
G1 X-0.1S0
G1 X-0.2S400
G1 X-0.2S0
G1 X-0.2S400
G1 X-0.2S0
G1 X-0.1S400
G1 X-0.2S0
G1 X-0.2S400
G1 X-0.2S0
G1 X-0.1S400
G1 X-0.1S0
G1 X-0.1S400
G1 X-0.2S0
G1 X-0.1S400
G1 X-0.2S0
G1 X-0.1S400
G1 X-0.2S0
G1 X-0.1S400
G1 X-0.2S0
G1 X-0.1S400
G1 X-0.1S0
G1 X-0.2S400
G1 X-0.1S0
G1 X-0.1S400
G1 X-0.2S0
G1 X-0.1S400
G1 X-0.2S0
G1 X-0.1S400
G1 X-0.2S0
G1 X-0.1S400
G1 X-0.1S0
G1 X-0.1S400
G1 X-0.1S0
G1 X-0.1S400
G1 X-0.1S0
G1 X-0.1S400
G1 X-0.2S0
G1 X-0.1S400
G1 X-0.2S0
G1 X-0.1S400
G1 X-0.1S0
G1 X-0.1S400
G1 X-0.1S0
G1 X-0.1S400
G1 X-0.3S0
G1 X-0.1S400
G1 X-0.2S0
G1 X-0.1S400
G1 X-0.1S0
G1 X-0.1S400
G1 X-0.1S0
G1 X-0.1S400
G1 X-0.2S0
G1 X-0.2S400
G1 X-0.1S0
G1 X-0.1S400
G1 X-0.2S0
G1 X-0.1S400
G1 X-0.2S0
G1 X-0.2S400
G1 X-0.1S0
G1 X-0.1S400
G1 X-0.2S0
G1 X-0.1S400
G1 X-0.2S0
G1 X-0.1S400
G1 X-0.1S0
G1 X-0.2S400
G1 X-0.2S0
G1 X-0.2S400
G1 X-0.1S0
G1 X-0.1S400
G1 X-0.1S0
G1 X-0.1S400
G1 X-0.2S0
G1 X-0.1S400
G1 X-0.2S0
G1 X-0.1S400
G1 X-0.2S0
G1 X-0.2S400
G1 X-0.1S0
G1 X-0.1S400
G1 X-0.2S0
G1 X-0.1S400
G1 X-0.2S0
G1 X-0.1S400
G1 X-0.2S0
G1 X-0.1S400
G1 X-0.1S0
G1 X-0.2S400
G1 X-0.1S0
G1 X-0.1S400
G1 X-0.1S0
G1 X-0.8S400
G1 X-35.3F6000S0
G1 X-0.8F3000S400
G1 X-6.2F6000S0
G1 X-0.7F3000S400
G1 X-0.1S0
G1 X-0.1S400
G1 X-0.2S0
G1 X-0.1S400
G1 X-0.2S0
G1 X-0.1S400
G1 X-0.1S0
G1 X-0.1S400
G1 X-0.4S0
G1 X-0.1S400
G1 X-0.2S0
G1 X-0.1S400
G1 X-0.1S0
G1 X-0.1S400
G1 X-0.1S0
G1 X-0.2S400
G1 X-0.1S0
G1 X-0.1S400
G1 X-0.2S0
G1 X-0.1S400
G1 X-0.2S0
G1 X-0.1S400
G1 X-0.2S0
G1 X-0.1S400
G1 X-0.2S0
G1 X-0.1S400
G1 X-0.1S0
G1 X-0.2S400
G1 X-0.1S0
G1 X-0.1S400
G1 X-0.3S0
G1 X-0.7S400
G0 X-1.25
G0 Y0.1
G0 X1.25
G1 X0.8
G1 X0.1S0
G1 X0.1S400
G1 X0.3S0
G1 X0.1S400
G1 X0.2S0
G1 X0.2S400
G1 X0.1S0
G1 X0.1S400
G1 X0.1S0
G1 X0.2S400
G1 X0.2S0
G1 X0.1S400
G1 X0.2S0
G1 X0.1S400
G1 X0.2S0
G1 X0.1S400
G1 X0.1S0
G1 X0.1S400
G1 X0.1S0
G1 X0.1S400
G1 X0.1S0
G1 X0.2S400
G1 X0.1S0
G1 X0.1S400
G1 X0.2S0
G1 X0.1S400
G1 X0.1S0
G1 X0.1S400
G1 X0.2S0
G1 X0.1S400
G1 X0.2S0
G1 X0.8S400
G1 X6.1F6000S0
G1 X0.8F3000S400
G1 X35.4F6000S0
G1 X0.8F3000S400
G1 X0.2S0
G1 X0.1S400
G1 X0.2S0
G1 X0.1S400
G1 X0.1S0
G1 X0.1S400
G1 X0.2S0
G1 X0.1S400
G1 X0.1S0
G1 X0.1S400
G1 X0.2S0
G1 X0.1S400
G1 X0.2S0
G1 X0.1S400
G1 X0.1S0
G1 X0.2S400
G1 X0.1S0
G1 X0.2S400
G1 X0.2S0
G1 X0.1S400
G1 X0.2S0
G1 X0.1S400
G1 X0.2S0
G1 X0.1S400
G1 X0.2S0
G1 X0.1S400
G1 X0.2S0
G1 X0.2S400
G1 X0.2S0
G1 X0.1S400
G1 X0.2S0
G1 X0.1S400
G1 X0.2S0
G1 X0.2S400
G1 X0.2S0
G1 X0.1S400
G1 X0.2S0
G1 X0.1S400
G1 X0.1S0
G1 X0.1S400
G1 X0.2S0
G1 X0.1S400
G1 X0.2S0
G1 X0.2S400
G1 X0.1S0
G1 X0.1S400
G1 X0.1S0
G1 X0.1S400
G1 X0.2S0
G1 X0.1S400
G1 X0.2S0
G1 X0.2S400
G1 X0.2S0
G1 X0.1S400
G1 X0.2S0
G1 X0.1S400
G1 X0.2S0
G1 X0.1S400
G1 X0.1S0
G1 X0.1S400
G1 X0.1S0
G1 X0.1S400
G1 X0.2S0
G1 X0.2S400
G1 X0.2S0
G1 X0.1S400
G1 X0.2S0
G1 X0.1S400
G1 X0.1S0
G1 X0.1S400
G1 X0.1S0
G1 X0.1S400
G1 X0.2S0
G1 X0.1S400
G1 X0.1S0
G1 X0.1S400
G1 X0.2S0
G1 X0.1S400
G1 X0.2S0
G1 X0.1S400
G1 X0.4S0
G1 X0.1S400
G1 X0.1S0
G1 X0.1S400
G1 X0.2S0
G1 X0.1S400
G1 X0.1S0
G1 X0.2S400
G1 X0.2S0
G1 X1S400
G0 X1.25
G0 X-0.2Y0.1
G0 X-1.25
G1 X-0.7
G1 X-0.3S0
G1 X-0.1S400
G1 X-0.3S0
G1 X-0.2S400
G1 X-0.1S0
G1 X-0.1S400
G1 X-0.1S0
G1 X-0.1S400
G1 X-0.1S0
G1 X-0.3S400
G1 X-0.1S0
G1 X-0.1S400
G1 X-0.1S0
G1 X-0.2S400
G1 X-0.1S0
G1 X-0.1S400
G1 X-0.1S0
G1 X-0.2S400
G1 X-0.2S0
G1 X-0.1S400
G1 X-0.2S0
G1 X-0.1S400
G1 X-0.2S0
G1 X-0.1S400
G1 X-0.1S0
G1 X-0.1S400
G1 X-0.2S0
G1 X-0.1S400
G1 X-0.1S0
G1 X-0.1S400
G1 X-0.2S0
G1 X-0.1S400
G1 X-0.2S0
G1 X-0.1S400
G1 X-0.2S0
G1 X-0.2S400
G1 X-0.2S0
G1 X-0.1S400
G1 X-0.2S0
G1 X-0.1S400
G1 X-0.1S0
G1 X-0.1S400
G1 X-0.1S0
G1 X-0.1S400
G1 X-0.2S0
G1 X-0.1S400
G1 X-0.2S0
G1 X-0.1S400
G1 X-0.1S0
G1 X-0.1S400
G1 X-0.1S0
G1 X-0.1S400
G1 X-0.1S0
G1 X-0.1S400
G1 X-0.2S0
G1 X-0.2S400
G1 X-0.2S0
G1 X-0.1S400
G1 X-0.2S0
G1 X-0.1S400
G1 X-0.2S0
G1 X-0.2S400
G1 X-0.2S0
G1 X-0.1S400
G1 X-0.2S0
G1 X-0.1S400
G1 X-0.2S0
G1 X-0.1S400
G1 X-0.2S0
G1 X-0.1S400
G1 X-0.2S0
G1 X-0.2S400
G1 X-0.2S0
G1 X-0.1S400
G1 X-0.4S0
G1 X-0.1S400
G1 X-0.2S0
G1 X-0.1S400
G1 X-0.1S0
G1 X-0.2S400
G1 X-0.1S0
G1 X-0.1S400
G1 X-0.1S0
G1 X-0.2S400
G1 X-0.2S0
G1 X-0.1S400
G1 X-0.2S0
G1 X-0.9S400
G1 X-35.6F6000S0
G1 X-0.8F3000S400
G1 X-6F6000S0
G1 X-0.8F3000S400
G1 X-0.2S0
G1 X-0.1S400
G1 X-0.1S0
G1 X-0.1S400
G1 X-0.1S0
G1 X-0.1S400
G1 X-0.2S0
G1 X-0.2S400
G1 X-0.1S0
G1 X-0.1S400
G1 X-0.2S0
G1 X-0.1S400
G1 X-0.2S0
G1 X-0.1S400
G1 X-0.2S0
G1 X-0.1S400
G1 X-0.2S0
G1 X-0.2S400
G1 X-0.2S0
G1 X-0.1S400
G1 X-0.2S0
G1 X-0.1S400
G1 X-0.2S0
G1 X-0.1S400
G1 X-0.2S0
G1 X-0.1S400
G1 X-0.2S0
G1 X-0.2S400
G1 X-0.1S0
G1 X-0.8S400
G0 X-1.25
G0 X0.1Y0.1
G0 X1.25
G1 X0.7
G1 X0.2S0
G1 X0.1S400
G1 X0.1S0
G1 X0.2S400
G1 X0.1S0
G1 X0.1S400
G1 X0.2S0
G1 X0.1S400
G1 X0.2S0
G1 X0.1S400
G1 X0.1S0
G1 X0.1S400
G1 X0.2S0
G1 X0.1S400
G1 X0.1S0
G1 X0.1S400
G1 X0.1S0
G1 X0.1S400
G1 X0.1S0
G1 X0.1S400
G1 X0.1S0
G1 X0.1S400
G1 X0.2S0
G1 X0.1S400
G1 X0.3S0
G1 X0.1S400
G1 X0.1S0
G1 X0.1S400
G1 X0.2S0
G1 X0.1S400
G1 X0.1S0
G1 X0.2S400
G1 X0.2S0
G1 X0.8S400
G1 X5.9F6000S0
G1 X0.8F3000S400
G1 X35.6F6000S0
G1 X0.8F3000S400
G1 X0.1S0
G1 X0.1S400
G1 X0.1S0
G1 X0.1S400
G1 X0.2S0
G1 X0.1S400
G1 X0.3S0
G1 X0.1S400
G1 X0.2S0
G1 X0.1S400
G1 X0.1S0
G1 X0.1S400
G1 X0.1S0
G1 X0.1S400
G1 X0.1S0
G1 X0.2S400
G1 X0.2S0
G1 X0.1S400
G1 X0.2S0
G1 X0.1S400
G1 X0.1S0
G1 X0.2S400
G1 X0.1S0
G1 X0.2S400
G1 X0.1S0
G1 X0.2S400
G1 X0.1S0
G1 X0.1S400
G1 X0.2S0
G1 X0.1S400
G1 X0.2S0
G1 X0.2S400
G1 X0.1S0
G1 X0.2S400
G1 X0.2S0
G1 X0.1S400
G1 X0.2S0
G1 X0.2S400
G1 X0.2S0
G1 X0.1S400
G1 X0.2S0
G1 X0.1S400
G1 X0.1S0
G1 X0.1S400
G1 X0.2S0
G1 X0.1S400
G1 X0.2S0
G1 X0.1S400
G1 X0.1S0
G1 X0.1S400
G1 X0.1S0
G1 X0.2S400
G1 X0.2S0
G1 X0.1S400
G1 X0.2S0
G1 X0.2S400
G1 X0.1S0
G1 X0.2S400
G1 X0.1S0
G1 X0.1S400
G1 X0.2S0
G1 X0.1S400
G1 X0.1S0
G1 X0.1S400
G1 X0.2S0
G1 X0.1S400
G1 X0.1S0
G1 X0.1S400
G1 X0.1S0
G1 X0.1S400
G1 X0.1S0
G1 X0.1S400
G1 X0.1S0
G1 X0.1S400
G1 X0.2S0
G1 X0.1S400
G1 X0.3S0
G1 X0.1S400
G1 X0.2S0
G1 X0.1S400
G1 X0.3S0
G1 X0.1S400
G1 X0.2S0
G1 X0.1S400
G1 X0.3S0
G1 X0.1S400
G1 X0.2S0
G1 X0.1S400
G1 X0.1S0
G1 X0.9S400
G0 X1.25
G0 Y0.1
G0 X-1.25
G1 X-0.7
G1 X-0.4S0
G1 X-0.2S400
G1 X-0.1S0
G1 X-0.1S400
G1 X-0.1S0
G1 X-0.1S400
G1 X-0.1S0
G1 X-0.1S400
G1 X-0.1S0
G1 X-0.1S400
G1 X-0.2S0
G1 X-0.1S400
G1 X-0.1S0
G1 X-0.1S400
G1 X-0.2S0
G1 X-0.1S400
G1 X-0.1S0
G1 X-0.1S400
G1 X-0.2S0
G1 X-0.2S400
G1 X-0.1S0
G1 X-0.1S400
G1 X-0.2S0
G1 X-0.1S400
G1 X-0.1S0
G1 X-0.1S400
G1 X-0.2S0
G1 X-0.1S400
G1 X-0.1S0
G1 X-0.1S400
G1 X-0.2S0
G1 X-0.1S400
G1 X-0.1S0
G1 X-0.1S400
G1 X-0.4S0
G1 X-0.1S400
G1 X-0.2S0
G1 X-0.2S400
G1 X-0.1S0
G1 X-0.1S400
G1 X-0.3S0
G1 X-0.1S400
G1 X-0.2S0
G1 X-0.1S400
G1 X-0.1S0
G1 X-0.2S400
G1 X-0.1S0
G1 X-0.1S400
G1 X-0.2S0
G1 X-0.1S400
G1 X-0.1S0
G1 X-0.1S400
G1 X-0.2S0
G1 X-0.1S400
G1 X-0.2S0
G1 X-0.2S400
G1 X-0.1S0
G1 X-0.1S400
G1 X-0.4S0
G1 X-0.1S400
G1 X-0.2S0
G1 X-0.2S400
G1 X-0.1S0
G1 X-0.1S400
G1 X-0.4S0
G1 X-0.1S400
G1 X-0.4S0
G1 X-0.1S400
G1 X-0.2S0
G1 X-0.2S400
G1 X-0.1S0
G1 X-0.1S400
G1 X-0.1S0
G1 X-0.1S400
G1 X-0.2S0
G1 X-0.1S400
G1 X-0.2S0
G1 X-0.1S400
G1 X-0.2S0
G1 X-0.1S400
G1 X-0.1S0
G1 X-0.1S400
G1 X-0.2S0
G1 X-0.2S400
G1 X-0.2S0
G1 X-0.8S400
G1 X-35.8F6000S0
G1 X-0.8F3000S400
G1 X-5.8F6000S0
G1 X-0.8F3000S400
G1 X-0.2S0
G1 X-0.1S400
G1 X-0.3S0
G1 X-0.1S400
G1 X-0.1S0
G1 X-0.1S400
G1 X-0.1S0
G1 X-0.1S400
G1 X-0.2S0
G1 X-0.1S400
G1 X-0.1S0
G1 X-0.2S400
G1 X-0.1S0
G1 X-0.1S400
G1 X-0.2S0
G1 X-0.1S400
G1 X-0.2S0
G1 X-0.1S400
G1 X-0.2S0
G1 X-0.2S400
G1 X-0.2S0
G1 X-0.2S400
G1 X-0.1S0
G1 X-0.2S400
G1 X-0.1S0
G1 X-0.1S400
G1 X-0.2S0
G1 X-0.1S400
G1 X-0.2S0
G1 X-0.8S400
G0 X-1.25
G0 Y0.1
G0 X1.25
G1 X0.8
G1 X0.1S0
G1 X0.1S400
G1 X0.2S0
G1 X0.1S400
G1 X0.3S0
G1 X0.1S400
G1 X0.2S0
G1 X0.1S400
G1 X0.2S0
G1 X0.1S400
G1 X0.2S0
G1 X0.1S400
G1 X0.2S0
G1 X0.1S400
G1 X0.1S0
G1 X0.1S400
G1 X0.2S0
G1 X0.1S400
G1 X0.3S0
G1 X0.2S400
G1 X0.2S0
G1 X0.1S400
G1 X0.1S0
G1 X0.1S400
G1 X0.1S0
G1 X0.1S400
G1 X0.1S0
G1 X0.1S400
G1 X0.1S0
G1 X0.1S400
G1 X0.2S0
G1 X0.7S400
G1 X5.8F6000S0
G1 X0.8F3000S400
G1 X35.8F6000S0
G1 X0.8F3000S400
G1 X0.2S0
G1 X0.1S400
G1 X0.2S0
G1 X0.2S400
G1 X0.1S0
G1 X0.1S400
G1 X0.1S0
G1 X0.1S400
G1 X0.2S0
G1 X0.1S400
G1 X0.1S0
G1 X0.1S400
G1 X0.2S0
G1 X0.1S400
G1 X0.3S0
G1 X0.1S400
G1 X0.1S0
G1 X0.1S400
G1 X0.1S0
G1 X0.2S400
G1 X0.1S0
G1 X0.1S400
G1 X0.2S0
G1 X0.2S400
G1 X0.2S0
G1 X0.1S400
G1 X0.2S0
G1 X0.2S400
G1 X0.1S0
G1 X0.1S400
G1 X0.1S0
G1 X0.1S400
G1 X0.2S0
G1 X0.1S400
G1 X0.2S0
G1 X0.1S400
G1 X0.2S0
G1 X0.1S400
G1 X0.1S0
G1 X0.1S400
G1 X0.1S0
G1 X0.2S400
G1 X0.2S0
G1 X0.1S400
G1 X0.2S0
G1 X0.1S400
G1 X0.1S0
G1 X0.1S400
G1 X0.1S0
G1 X0.2S400
G1 X0.2S0
G1 X0.1S400
G1 X0.2S0
G1 X0.1S400
G1 X0.1S0
G1 X0.1S400
G1 X0.2S0
G1 X0.2S400
G1 X0.2S0
G1 X0.1S400
G1 X0.1S0
G1 X0.2S400
G1 X0.2S0
G1 X0.2S400
G1 X0.2S0
G1 X0.1S400
G1 X0.2S0
G1 X0.1S400
G1 X0.3S0
G1 X0.1S400
G1 X0.1S0
G1 X0.1S400
G1 X0.1S0
G1 X0.1S400
G1 X0.1S0
G1 X0.1S400
G1 X0.2S0
G1 X0.1S400
G1 X0.1S0
G1 X0.2S400
G1 X0.1S0
G1 X0.1S400
G1 X0.2S0
G1 X0.2S400
G1 X0.3S0
G1 X0.1S400
G1 X0.1S0
G1 X1S400
G0 X1.25
G0 Y0.1
G0 X-1.25
G1 X-0.8
G1 X-0.2S0
G1 X-0.1S400
G1 X-0.2S0
G1 X-0.1S400
G1 X-0.2S0
G1 X-0.1S400
G1 X-0.2S0
G1 X-0.1S400
G1 X-0.3S0
G1 X-0.1S400
G1 X-0.2S0
G1 X-0.2S400
G1 X-0.1S0
G1 X-0.1S400
G1 X-0.2S0
G1 X-0.1S400
G1 X-0.2S0
G1 X-0.1S400
G1 X-0.1S0
G1 X-0.2S400
G1 X-0.1S0
G1 X-0.1S400
G1 X-0.1S0
G1 X-0.1S400
G1 X-0.2S0
G1 X-0.1S400
G1 X-0.2S0
G1 X-0.1S400
G1 X-0.2S0
G1 X-0.1S400
G1 X-0.1S0
G1 X-0.1S400
G1 X-0.1S0
G1 X-0.1S400
G1 X-0.1S0
G1 X-0.1S400
G1 X-0.2S0
G1 X-0.1S400
G1 X-0.2S0
G1 X-0.2S400
G1 X-0.2S0
G1 X-0.1S400
G1 X-0.2S0
G1 X-0.1S400
G1 X-0.2S0
G1 X-0.1S400
G1 X-0.1S0
G1 X-0.1S400
G1 X-0.2S0
G1 X-0.1S400
G1 X-0.2S0
G1 X-0.1S400
G1 X-0.1S0
G1 X-0.1S400
G1 X-0.1S0
G1 X-0.1S400
G1 X-0.2S0
G1 X-0.1S400
G1 X-0.1S0
G1 X-0.2S400
G1 X-0.1S0
G1 X-0.1S400
G1 X-0.2S0
G1 X-0.1S400
G1 X-0.2S0
G1 X-0.1S400
G1 X-0.1S0
G1 X-0.1S400
G1 X-0.1S0
G1 X-0.1S400
G1 X-0.1S0
G1 X-0.1S400
G1 X-0.1S0
G1 X-0.1S400
G1 X-0.2S0
G1 X-0.1S400
G1 X-0.2S0
G1 X-0.1S400
G1 X-0.1S0
G1 X-0.1S400
G1 X-0.2S0
G1 X-0.2S400
G1 X-0.1S0
G1 X-0.1S400
G1 X-0.1S0
G1 X-0.2S400
G1 X-0.2S0
G1 X-0.1S400
G1 X-0.3S0
G1 X-0.1S400
G1 X-0.2S0
G1 X-0.8S400
G1 X-36F6000S0
G1 X-0.8F3000S400
G1 X-5.6F6000S0
G1 X-0.8F3000S400
G1 X-0.1S0
G1 X-0.2S400
G1 X-0.2S0
G1 X-0.2S400
G1 X-0.2S0
G1 X-0.1S400
G1 X-0.2S0
G1 X-0.1S400
G1 X-0.1S0
G1 X-0.1S400
G1 X-0.2S0
G1 X-0.1S400
G1 X-0.2S0
G1 X-0.2S400
G1 X-0.1S0
G1 X-0.1S400
G1 X-0.1S0
G1 X-0.2S400
G1 X-0.1S0
G1 X-0.1S400
G1 X-0.2S0
G1 X-0.1S400
G1 X-0.2S0
G1 X-0.1S400
G1 X-0.2S0
G1 X-0.1S400
G1 X-0.1S0
G1 X-0.2S400
G1 X-0.1S0
G1 X-0.1S400
G1 X-0.1S0
G1 X-0.7S400
G0 X-1.25
G0 Y0.1
G0 X1.25
G1 X0.8
G1 X0.4S0
G1 X0.1S400
G1 X0.1S0
G1 X0.1S400
G1 X0.1S0
G1 X0.1S400
G1 X0.1S0
G1 X0.2S400
G1 X0.1S0
G1 X0.1S400
G1 X0.2S0
G1 X0.1S400
G1 X0.2S0
G1 X0.1S400
G1 X0.2S0
G1 X0.1S400
G1 X0.1S0
G1 X0.2S400
G1 X0.1S0
G1 X0.1S400
G1 X0.2S0
G1 X0.2S400
G1 X0.1S0
G1 X0.1S400
G1 X0.2S0
G1 X0.1S400
G1 X0.2S0
G1 X0.1S400
G1 X0.2S0
G1 X0.1S400
G1 X0.1S0
G1 X0.7S400
G1 X5.6F6000S0
G1 X0.8F3000S400
G1 X36F6000S0
G1 X0.8F3000S400
G1 X0.1S0
G1 X0.2S400
G1 X0.1S0
G1 X0.1S400
G1 X0.1S0
G1 X0.1S400
G1 X0.2S0
G1 X0.1S400
G1 X0.2S0
G1 X0.1S400
G1 X0.2S0
G1 X0.1S400
G1 X0.1S0
G1 X0.1S400
G1 X0.1S0
G1 X0.1S400
G1 X0.1S0
G1 X0.1S400
G1 X0.1S0
G1 X0.1S400
G1 X0.3S0
G1 X0.1S400
G1 X0.2S0
G1 X0.1S400
G1 X0.2S0
G1 X0.1S400
G1 X0.1S0
G1 X0.1S400
G1 X0.1S0
G1 X0.1S400
G1 X0.2S0
G1 X0.1S400
G1 X0.3S0
G1 X0.1S400
G1 X0.1S0
G1 X0.1S400
G1 X0.1S0
G1 X0.1S400
G1 X0.2S0
G1 X0.1S400
G1 X0.1S0
G1 X0.1S400
G1 X0.2S0
G1 X0.1S400
G1 X0.2S0
G1 X0.1S400
G1 X0.1S0
G1 X0.1S400
G1 X0.1S0
G1 X0.1S400
G1 X0.1S0
G1 X0.1S400
G1 X0.2S0
G1 X0.1S400
G1 X0.2S0
G1 X0.1S400
G1 X0.1S0
G1 X0.1S400
G1 X0.2S0
G1 X0.1S400
G1 X0.2S0
G1 X0.1S400
G1 X0.2S0
G1 X0.1S400
G1 X0.2S0
G1 X0.1S400
G1 X0.1S0
G1 X0.2S400
G1 X0.2S0
G1 X0.1S400
G1 X0.2S0
G1 X0.1S400
G1 X0.2S0
G1 X0.1S400
G1 X0.1S0
G1 X0.1S400
G1 X0.1S0
G1 X0.1S400
G1 X0.1S0
G1 X0.1S400
G1 X0.3S0
G1 X0.1S400
G1 X0.1S0
G1 X0.1S400
G1 X0.2S0
G1 X0.2S400
G1 X0.1S0
G1 X0.1S400
G1 X0.2S0
G1 X0.2S400
G1 X0.1S0
G1 X0.1S400
G1 X0.1S0
G1 X0.1S400
G1 X0.1S0
G1 X0.8S400
G0 X1.25
G0 Y0.1
G0 X-1.25
G1 X-0.9
G1 X-0.1S0
G1 X-0.1S400
G1 X-0.2S0
G1 X-0.1S400
G1 X-0.2S0
G1 X-0.1S400
G1 X-0.1S0
G1 X-0.1S400
G1 X-0.2S0
G1 X-0.1S400
G1 X-0.1S0
G1 X-0.1S400
G1 X-0.2S0
G1 X-0.1S400
G1 X-0.1S0
G1 X-0.1S400
G1 X-0.1S0
G1 X-0.1S400
G1 X-0.1S0
G1 X-0.1S400
G1 X-0.2S0
G1 X-0.1S400
G1 X-0.2S0
G1 X-0.1S400
G1 X-0.2S0
G1 X-0.2S400
G1 X-0.1S0
G1 X-0.1S400
G1 X-0.3S0
G1 X-0.2S400
G1 X-0.1S0
G1 X-0.1S400
G1 X-0.1S0
G1 X-0.1S400
G1 X-0.2S0
G1 X-0.1S400
G1 X-0.1S0
G1 X-0.2S400
G1 X-0.1S0
G1 X-0.1S400
G1 X-0.2S0
G1 X-0.1S400
G1 X-0.1S0
G1 X-0.1S400
G1 X-0.1S0
G1 X-0.1S400
G1 X-0.1S0
G1 X-0.1S400
G1 X-0.1S0
G1 X-0.1S400
G1 X-0.2S0
G1 X-0.2S400
G1 X-0.1S0
G1 X-0.1S400
G1 X-0.1S0
G1 X-0.1S400
G1 X-0.2S0
G1 X-0.1S400
G1 X-0.1S0
G1 X-0.1S400
G1 X-0.2S0
G1 X-0.1S400
G1 X-0.2S0
G1 X-0.1S400
G1 X-0.2S0
G1 X-0.1S400
G1 X-0.1S0
G1 X-0.1S400
G1 X-0.1S0
G1 X-0.1S400
G1 X-0.2S0
G1 X-0.1S400
G1 X-0.1S0
G1 X-0.1S400
G1 X-0.1S0
G1 X-0.1S400
G1 X-0.1S0
G1 X-0.2S400
G1 X-0.1S0
G1 X-0.1S400
G1 X-0.2S0
G1 X-0.1S400
G1 X-0.2S0
G1 X-0.1S400
G1 X-0.2S0
G1 X-0.1S400
G1 X-0.2S0
G1 X-0.1S400
G1 X-0.2S0
G1 X-0.1S400
G1 X-0.1S0
G1 X-0.1S400
G1 X-0.1S0
G1 X-0.1S400
G1 X-0.3S0
G1 X-0.8S400
G1 X-36.1F6000S0
G1 X-0.8F3000S400
G1 X-5.5F6000S0
G1 X-0.7F3000S400
G1 X-0.1S0
G1 X-0.1S400
G1 X-0.2S0
G1 X-0.1S400
G1 X-0.1S0
G1 X-0.1S400
G1 X-0.2S0
G1 X-0.1S400
G1 X-0.1S0
G1 X-0.1S400
G1 X-0.3S0
G1 X-0.1S400
G1 X-0.1S0
G1 X-0.1S400
G1 X-0.4S0
G1 X-0.1S400
G1 X-0.2S0
G1 X-0.1S400
G1 X-0.2S0
G1 X-0.1S400
G1 X-0.1S0
G1 X-0.1S400
G1 X-0.2S0
G1 X-0.1S400
G1 X-0.2S0
G1 X-0.1S400
G1 X-0.1S0
G1 X-0.1S400
G1 X-0.2S0
G1 X-0.2S400
G1 X-0.1S0
G1 X-0.8S400
G0 X-1.25
G0 X0.1Y0.1
G0 X1.25
G1 X0.7
G1 X0.1S0
G1 X0.1S400
G1 X0.1S0
G1 X0.1S400
G1 X0.2S0
G1 X0.1S400
G1 X0.2S0
G1 X0.1S400
G1 X0.2S0
G1 X0.1S400
G1 X0.1S0
G1 X0.1S400
G1 X0.1S0
G1 X0.1S400
G1 X0.1S0
G1 X0.1S400
G1 X0.1S0
G1 X0.2S400
G1 X0.1S0
G1 X0.2S400
G1 X0.2S0
G1 X0.1S400
G1 X0.1S0
G1 X0.1S400
G1 X0.1S0
G1 X0.1S400
G1 X0.2S0
G1 X0.2S400
G1 X0.2S0
G1 X0.1S400
G1 X0.1S0
G1 X0.1S400
G1 X0.1S0
G1 X0.1S400
G1 X0.1S0
G1 X0.8S400
G1 X5.4F6000S0
G1 X0.7F3000S400
G1 X36.3F6000S0
G1 X0.7F3000S400
G1 X0.2S0
G1 X0.1S400
G1 X0.2S0
G1 X0.1S400
G1 X0.1S0
G1 X0.2S400
G1 X0.1S0
G1 X0.1S400
G1 X0.1S0
G1 X0.2S400
G1 X0.2S0
G1 X0.1S400
G1 X0.1S0
G1 X0.1S400
G1 X0.1S0
G1 X0.1S400
G1 X0.2S0
G1 X0.1S400
G1 X0.2S0
G1 X0.1S400
G1 X0.2S0
G1 X0.1S400
G1 X0.2S0
G1 X0.1S400
G1 X0.2S0
G1 X0.1S400
G1 X0.2S0
G1 X0.2S400
G1 X0.1S0
G1 X0.2S400
G1 X0.1S0
G1 X0.1S400
G1 X0.2S0
G1 X0.1S400
G1 X0.1S0
G1 X0.2S400
G1 X0.2S0
G1 X0.1S400
G1 X0.3S0
G1 X0.1S400
G1 X0.1S0
G1 X0.1S400
G1 X0.3S0
G1 X0.1S400
G1 X0.2S0
G1 X0.1S400
G1 X0.2S0
G1 X0.2S400
G1 X0.3S0
G1 X0.1S400
G1 X0.2S0
G1 X0.2S400
G1 X0.1S0
G1 X0.1S400
G1 X0.2S0
G1 X0.1S400
G1 X0.2S0
G1 X0.1S400
G1 X0.2S0
G1 X0.1S400
G1 X0.2S0
G1 X0.2S400
G1 X0.1S0
G1 X0.2S400
G1 X0.1S0
G1 X0.1S400
G1 X0.2S0
G1 X0.1S400
G1 X0.2S0
G1 X0.2S400
G1 X0.2S0
G1 X0.1S400
G1 X0.1S0
G1 X0.1S400
G1 X0.2S0
G1 X0.1S400
G1 X0.2S0
G1 X0.2S400
G1 X0.2S0
G1 X0.1S400
G1 X0.2S0
G1 X0.9S400
G0 X1.25
G0 Y0.1
G0 X-1.25
G1 X-0.9
G1 X-0.2S0
G1 X-0.2S400
G1 X-0.2S0
G1 X-0.1S400
G1 X-0.2S0
G1 X-0.2S400
G1 X-0.1S0
G1 X-0.1S400
G1 X-0.2S0
G1 X-0.1S400
G1 X-0.1S0
G1 X-0.1S400
G1 X-0.3S0
G1 X-0.1S400
G1 X-0.1S0
G1 X-0.2S400
G1 X-0.2S0
G1 X-0.1S400
G1 X-0.4S0
G1 X-0.1S400
G1 X-0.2S0
G1 X-0.1S400
G1 X-0.1S0
G1 X-0.2S400
G1 X-0.2S0
G1 X-0.1S400
G1 X-0.2S0
G1 X-0.1S400
G1 X-0.2S0
G1 X-0.1S400
G1 X-0.2S0
G1 X-0.1S400
G1 X-0.1S0
G1 X-0.1S400
G1 X-0.2S0
G1 X-0.2S400
G1 X-0.2S0
G1 X-0.1S400
G1 X-0.1S0
G1 X-0.2S400
G1 X-0.1S0
G1 X-0.1S400
G1 X-0.2S0
G1 X-0.1S400
G1 X-0.1S0
G1 X-0.2S400
G1 X-0.1S0
G1 X-0.1S400
G1 X-0.3S0
G1 X-0.2S400
G1 X-0.2S0
G1 X-0.1S400
G1 X-0.3S0
G1 X-0.1S400
G1 X-0.2S0
G1 X-0.1S400
G1 X-0.1S0
G1 X-0.2S400
G1 X-0.1S0
G1 X-0.1S400
G1 X-0.1S0
G1 X-0.1S400
G1 X-0.1S0
G1 X-0.1S400
G1 X-0.1S0
G1 X-0.1S400
G1 X-0.2S0
G1 X-0.2S400
G1 X-0.2S0
G1 X-0.1S400
G1 X-0.1S0
G1 X-0.1S400
G1 X-0.1S0
G1 X-0.1S400
G1 X-0.3S0
G1 X-0.1S400
G1 X-0.2S0
G1 X-0.1S400
G1 X-0.2S0
G1 X-0.1S400
G1 X-0.1S0
G1 X-0.9S400
G1 X-36.3F6000S0
G1 X-0.8F3000S400
G1 X-5.3F6000S0
G1 X-0.9F3000S400
G1 X-0.2S0
G1 X-0.1S400
G1 X-0.2S0
G1 X-0.1S400
G1 X-0.1S0
G1 X-0.1S400
G1 X-0.2S0
G1 X-0.1S400
G1 X-0.1S0
G1 X-0.1S400
G1 X-0.1S0
G1 X-0.1S400
G1 X-0.2S0
G1 X-0.1S400
G1 X-0.1S0
G1 X-0.1S400
G1 X-0.2S0
G1 X-0.1S400
G1 X-0.2S0
G1 X-0.1S400
G1 X-0.2S0
G1 X-0.1S400
G1 X-0.2S0
G1 X-0.1S400
G1 X-0.1S0
G1 X-0.2S400
G1 X-0.1S0
G1 X-0.1S400
G1 X-0.1S0
G1 X-0.2S400
G1 X-0.2S0
G1 X-0.8S400
G0 X-1.25
G0 Y0.1
G0 X1.25
G1 X0.8
G1 X0.2S0
G1 X0.1S400
G1 X0.2S0
G1 X0.1S400
G1 X0.3S0
G1 X0.1S400
G1 X0.1S0
G1 X0.1S400
G1 X0.1S0
G1 X0.1S400
G1 X0.2S0
G1 X0.1S400
G1 X0.1S0
G1 X0.1S400
G1 X0.2S0
G1 X0.1S400
G1 X0.2S0
G1 X0.2S400
G1 X0.2S0
G1 X0.1S400
G1 X0.2S0
G1 X0.1S400
G1 X0.2S0
G1 X0.1S400
G1 X0.1S0
G1 X0.1S400
G1 X0.1S0
G1 X0.1S400
G1 X0.1S0
G1 X0.1S400
G1 X0.3S0
G1 X0.8S400
G1 X5.2F6000S0
G1 X0.7F3000S400
G1 X36.4F6000S0
G1 X0.7F3000S400
G1 X0.2S0
G1 X0.1S400
G1 X0.1S0
G1 X0.1S400
G1 X0.2S0
G1 X0.1S400
G1 X0.2S0
G1 X0.2S400
G1 X0.2S0
G1 X0.1S400
G1 X0.2S0
G1 X0.1S400
G1 X0.2S0
G1 X0.1S400
G1 X0.2S0
G1 X0.1S400
G1 X0.1S0
G1 X0.1S400
G1 X0.2S0
G1 X0.1S400
G1 X0.2S0
G1 X0.1S400
G1 X0.2S0
G1 X0.1S400
G1 X0.1S0
G1 X0.1S400
G1 X0.2S0
G1 X0.1S400
G1 X0.1S0
G1 X0.1S400
G1 X0.2S0
G1 X0.1S400
G1 X0.2S0
G1 X0.1S400
G1 X0.1S0
G1 X0.1S400
G1 X0.4S0
G1 X0.2S400
G1 X0.1S0
G1 X0.1S400
G1 X0.2S0
G1 X0.1S400
G1 X0.2S0
G1 X0.2S400
G1 X0.2S0
G1 X0.1S400
G1 X0.2S0
G1 X0.1S400
G1 X0.1S0
G1 X0.2S400
G1 X0.1S0
G1 X0.2S400
G1 X0.2S0
G1 X0.1S400
G1 X0.1S0
G1 X0.2S400
G1 X0.2S0
G1 X0.1S400
G1 X0.1S0
G1 X0.2S400
G1 X0.1S0
G1 X0.2S400
G1 X0.1S0
G1 X0.1S400
G1 X0.2S0
G1 X0.1S400
G1 X0.3S0
G1 X0.1S400
G1 X0.1S0
G1 X0.2S400
G1 X0.2S0
G1 X0.1S400
G1 X0.1S0
G1 X0.1S400
G1 X0.2S0
G1 X0.1S400
G1 X0.2S0
G1 X0.1S400
G1 X0.2S0
G1 X0.1S400
G1 X0.2S0
G1 X0.1S400
G1 X0.1S0
G1 X0.8S400
G0 X1.25
G0 Y0.1
G0 X-1.25
G1 X-0.8
G1 X-0.1S0
G1 X-0.1S400
G1 X-0.2S0
G1 X-0.1S400
G1 X-0.1S0
G1 X-0.2S400
G1 X-0.2S0
G1 X-0.1S400
G1 X-0.1S0
G1 X-0.2S400
G1 X-0.2S0
G1 X-0.1S400
G1 X-0.1S0
G1 X-0.1S400
G1 X-0.2S0
G1 X-0.1S400
G1 X-0.2S0
G1 X-0.1S400
G1 X-0.1S0
G1 X-0.1S400
G1 X-0.1S0
G1 X-0.2S400
G1 X-0.3S0
G1 X-0.1S400
G1 X-0.5S0
G1 X-0.1S400
G1 X-0.3S0
G1 X-0.1S400
G1 X-0.1S0
G1 X-0.1S400
G1 X-0.6S0
G1 X-0.2S400
G1 X-0.1S0
G1 X-0.1S400
G1 X-0.2S0
G1 X-0.1S400
G1 X-0.2S0
G1 X-0.1S400
G1 X-0.2S0
G1 X-0.1S400
G1 X-0.2S0
G1 X-0.1S400
G1 X-0.2S0
G1 X-0.2S400
G1 X-0.1S0
G1 X-0.1S400
G1 X-0.1S0
G1 X-0.1S400
G1 X-0.2S0
G1 X-0.2S400
G1 X-0.1S0
G1 X-0.1S400
G1 X-0.1S0
G1 X-0.2S400
G1 X-0.2S0
G1 X-0.1S400
G1 X-0.2S0
G1 X-0.1S400
G1 X-0.1S0
G1 X-0.1S400
G1 X-0.1S0
G1 X-0.1S400
G1 X-0.1S0
G1 X-0.1S400
G1 X-0.2S0
G1 X-0.2S400
G1 X-0.2S0
G1 X-0.1S400
G1 X-0.1S0
G1 X-0.1S400
G1 X-0.1S0
G1 X-0.1S400
G1 X-0.1S0
G1 X-0.1S400
G1 X-0.1S0
G1 X-0.1S400
G1 X-0.2S0
G1 X-0.1S400
G1 X-0.1S0
G1 X-0.1S400
G1 X-0.1S0
G1 X-0.1S400
G1 X-0.2S0
G1 X-0.8S400
G1 X-36.4F6000S0
G1 X-0.8F3000S400
G1 X-5.1F6000S0
G1 X-0.8F3000S400
G1 X-0.2S0
G1 X-0.2S400
G1 X-0.1S0
G1 X-0.1S400
G1 X-0.2S0
G1 X-0.1S400
G1 X-0.2S0
G1 X-0.2S400
G1 X-0.2S0
G1 X-0.2S400
G1 X-0.2S0
G1 X-0.1S400
G1 X-0.2S0
G1 X-0.1S400
G1 X-0.1S0
G1 X-0.1S400
G1 X-0.1S0
G1 X-0.1S400
G1 X-0.1S0
G1 X-0.2S400
G1 X-0.1S0
G1 X-0.1S400
G1 X-0.2S0
G1 X-0.1S400
G1 X-0.2S0
G1 X-0.1S400
G1 X-0.1S0
G1 X-0.1S400
G1 X-0.2S0
G1 X-0.1S400
G1 X-0.1S0
G1 X-0.7S400
G0 X-1.25
G0 Y0.1
G0 X1.25
G1 X0.8
G1 X0.1S0
G1 X0.1S400
G1 X0.2S0
G1 X0.1S400
G1 X0.1S0
G1 X0.2S400
G1 X0.1S0
G1 X0.1S400
G1 X0.2S0
G1 X0.1S400
G1 X0.3S0
G1 X0.1S400
G1 X0.2S0
G1 X0.1S400
G1 X0.1S0
G1 X0.1S400
G1 X0.2S0
G1 X0.1S400
G1 X0.2S0
G1 X0.1S400
G1 X0.2S0
G1 X0.1S400
G1 X0.1S0
G1 X0.1S400
G1 X0.1S0
G1 X0.1S400
G1 X0.1S0
G1 X0.1S400
G1 X0.3S0
G1 X0.1S400
G1 X0.1S0
G1 X0.1S400
G1 X0.1S0
G1 X0.8S400
G1 X5F6000S0
G1 X0.8F3000S400
G1 X36.5F6000S0
G1 X0.7F3000S400
G1 X0.1S0
G1 X0.1S400
G1 X0.2S0
G1 X0.1S400
G1 X0.1S0
G1 X0.2S400
G1 X0.2S0
G1 X0.1S400
G1 X0.2S0
G1 X0.1S400
G1 X0.2S0
G1 X0.1S400
G1 X0.1S0
G1 X0.1S400
G1 X0.2S0
G1 X0.1S400
G1 X0.1S0
G1 X0.1S400
G1 X0.2S0
G1 X0.1S400
G1 X0.2S0
G1 X0.1S400
G1 X0.1S0
G1 X0.1S400
G1 X0.1S0
G1 X0.1S400
G1 X0.2S0
G1 X0.1S400
G1 X0.3S0
G1 X0.1S400
G1 X0.2S0
G1 X0.2S400
G1 X0.2S0
G1 X0.1S400
G1 X0.2S0
G1 X0.2S400
G1 X0.2S0
G1 X0.1S400
G1 X0.1S0
G1 X0.2S400
G1 X0.1S0
G1 X0.1S400
G1 X0.1S0
G1 X0.1S400
G1 X0.2S0
G1 X0.1S400
G1 X0.3S0
G1 X0.1S400
G1 X0.1S0
G1 X0.2S400
G1 X0.1S0
G1 X0.1S400
G1 X0.2S0
G1 X0.1S400
G1 X0.1S0
G1 X0.2S400
G1 X0.2S0
G1 X0.3S400
G1 X0.1S0
G1 X0.1S400
G1 X0.2S0
G1 X0.1S400
G1 X0.3S0
G1 X0.1S400
G1 X0.2S0
G1 X0.2S400
G1 X0.1S0
G1 X0.1S400
G1 X0.2S0
G1 X0.1S400
G1 X0.2S0
G1 X0.1S400
G1 X0.2S0
G1 X0.1S400
G1 X0.2S0
G1 X0.1S400
G1 X0.2S0
G1 X0.1S400
G1 X0.2S0
G1 X0.2S400
G1 X0.2S0
G1 X0.7S400
G0 X1.25
G0 Y0.1
G0 X-1.25
G1 X-0.8
G1 X-0.2S0
G1 X-0.1S400
G1 X-0.2S0
G1 X-0.1S400
G1 X-0.2S0
G1 X-0.2S400
G1 X-0.1S0
G1 X-0.1S400
G1 X-0.2S0
G1 X-0.2S400
G1 X-0.1S0
G1 X-0.1S400
G1 X-0.1S0
G1 X-0.1S400
G1 X-0.1S0
G1 X-0.1S400
G1 X-0.2S0
G1 X-0.1S400
G1 X-0.2S0
G1 X-0.1S400
G1 X-0.1S0
G1 X-0.1S400
G1 X-0.1S0
G1 X-0.2S400
G1 X-0.1S0
G1 X-0.1S400
G1 X-0.1S0
G1 X-0.1S400
G1 X-0.2S0
G1 X-0.1S400
G1 X-0.1S0
G1 X-0.1S400
G1 X-0.2S0
G1 X-0.1S400
G1 X-0.1S0
G1 X-0.2S400
G1 X-0.2S0
G1 X-0.1S400
G1 X-0.2S0
G1 X-0.2S400
G1 X-0.1S0
G1 X-0.2S400
G1 X-0.1S0
G1 X-0.1S400
G1 X-0.2S0
G1 X-0.1S400
G1 X-0.3S0
G1 X-0.1S400
G1 X-0.1S0
G1 X-0.1S400
G1 X-0.2S0
G1 X-0.1S400
G1 X-0.1S0
G1 X-0.1S400
G1 X-0.2S0
G1 X-0.1S400
G1 X-0.3S0
G1 X-0.2S400
G1 X-0.2S0
G1 X-0.2S400
G1 X-0.1S0
G1 X-0.1S400
G1 X-0.1S0
G1 X-0.1S400
G1 X-0.2S0
G1 X-0.1S400
G1 X-0.1S0
G1 X-0.1S400
G1 X-0.1S0
G1 X-0.1S400
G1 X-0.1S0
G1 X-0.1S400
G1 X-0.2S0
G1 X-0.2S400
G1 X-0.2S0
G1 X-0.1S400
G1 X-0.1S0
G1 X-0.1S400
G1 X-0.2S0
G1 X-0.1S400
G1 X-0.1S0
G1 X-0.1S400
G1 X-0.3S0
G1 X-0.1S400
G1 X-0.1S0
G1 X-0.1S400
G1 X-0.1S0
G1 X-0.7S400
G1 X-36.6F6000S0
G1 X-0.8F3000S400
G1 X-4.9F6000S0
G1 X-0.8F3000S400
G1 X-0.1S0
G1 X-0.1S400
G1 X-0.2S0
G1 X-0.1S400
G1 X-0.1S0
G1 X-0.1S400
G1 X-0.1S0
G1 X-0.1S400
G1 X-0.2S0
G1 X-0.1S400
G1 X-0.2S0
G1 X-0.2S400
G1 X-0.2S0
G1 X-0.2S400
G1 X-0.1S0
G1 X-0.1S400
G1 X-0.1S0
G1 X-0.1S400
G1 X-0.2S0
G1 X-0.1S400
G1 X-0.1S0
G1 X-0.1S400
G1 X-0.2S0
G1 X-0.1S400
G1 X-0.1S0
G1 X-0.1S400
G1 X-0.1S0
G1 X-0.1S400
G1 X-0.2S0
G1 X-0.1S400
G1 X-0.2S0
G1 X-0.2S400
G1 X-0.1S0
G1 X-0.8S400
G0 X-1.25
G0 Y0.1
G0 X1.25
G1 X0.8
G1 X0.2S0
G1 X0.1S400
G1 X0.1S0
G1 X0.1S400
G1 X0.2S0
G1 X0.1S400
G1 X0.2S0
G1 X0.1S400
G1 X0.2S0
G1 X0.2S400
G1 X0.2S0
G1 X0.2S400
G1 X0.2S0
G1 X0.1S400
G1 X0.3S0
G1 X0.1S400
G1 X0.2S0
G1 X0.1S400
G1 X0.2S0
G1 X0.1S400
G1 X0.1S0
G1 X0.1S400
G1 X0.2S0
G1 X0.1S400
G1 X0.1S0
G1 X0.1S400
G1 X0.1S0
G1 X0.1S400
G1 X0.2S0
G1 X0.1S400
G1 X0.1S0
G1 X0.8S400
G1 X4.8F6000S0
G1 X0.8F3000S400
G1 X36.6F6000S0
G1 X0.7F3000S400
G1 X0.1S0
G1 X0.1S400
G1 X0.1S0
G1 X0.2S400
G1 X0.2S0
G1 X0.1S400
G1 X0.2S0
G1 X0.2S400
G1 X0.2S0
G1 X0.2S400
G1 X0.2S0
G1 X0.1S400
G1 X0.1S0
G1 X0.1S400
G1 X0.3S0
G1 X0.1S400
G1 X0.2S0
G1 X0.2S400
G1 X0.2S0
G1 X0.1S400
G1 X0.3S0
G1 X0.1S400
G1 X0.1S0
G1 X0.1S400
G1 X0.2S0
G1 X0.2S400
G1 X0.2S0
G1 X0.2S400
G1 X0.2S0
G1 X0.1S400
G1 X0.2S0
G1 X0.1S400
G1 X0.2S0
G1 X0.2S400
G1 X0.2S0
G1 X0.1S400
G1 X0.2S0
G1 X0.1S400
G1 X0.3S0
G1 X0.1S400
G1 X0.2S0
G1 X0.1S400
G1 X0.2S0
G1 X0.1S400
G1 X0.2S0
G1 X0.1S400
G1 X0.1S0
G1 X0.1S400
G1 X0.2S0
G1 X0.1S400
G1 X0.1S0
G1 X0.1S400
G1 X0.4S0
G1 X0.1S400
G1 X0.2S0
G1 X0.1S400
G1 X0.1S0
G1 X0.1S400
G1 X0.1S0
G1 X0.2S400
G1 X0.2S0
G1 X0.1S400
G1 X0.2S0
G1 X0.1S400
G1 X0.2S0
G1 X0.1S400
G1 X0.2S0
G1 X0.2S400
G1 X0.3S0
G1 X0.1S400
G1 X0.1S0
G1 X0.2S400
G1 X0.1S0
G1 X0.1S400
G1 X0.1S0
G1 X1S400
G0 X1.25
G0 X-0.1Y0.1
G0 X-1.25
G1 X-0.8
G1 X-0.3S0
G1 X-0.1S400
G1 X-0.2S0
G1 X-0.1S400
G1 X-0.2S0
G1 X-0.1S400
G1 X-0.2S0
G1 X-0.1S400
G1 X-0.2S0
G1 X-0.1S400
G1 X-0.1S0
G1 X-0.1S400
G1 X-0.1S0
G1 X-0.1S400
G1 X-0.1S0
G1 X-0.2S400
G1 X-0.1S0
G1 X-0.1S400
G1 X-0.2S0
G1 X-0.1S400
G1 X-0.2S0
G1 X-0.1S400
G1 X-0.2S0
G1 X-0.1S400
G1 X-0.1S0
G1 X-0.2S400
G1 X-0.2S0
G1 X-0.1S400
G1 X-0.2S0
G1 X-0.1S400
G1 X-0.1S0
G1 X-0.1S400
G1 X-0.2S0
G1 X-0.1S400
G1 X-0.1S0
G1 X-0.2S400
G1 X-0.1S0
G1 X-0.1S400
G1 X-0.2S0
G1 X-0.1S400
G1 X-0.2S0
G1 X-0.1S400
G1 X-0.1S0
G1 X-0.2S400
G1 X-0.1S0
G1 X-0.1S400
G1 X-0.1S0
G1 X-0.1S400
G1 X-0.2S0
G1 X-0.2S400
G1 X-0.1S0
G1 X-0.1S400
G1 X-0.1S0
G1 X-0.1S400
G1 X-0.2S0
G1 X-0.1S400
G1 X-0.1S0
G1 X-0.1S400
G1 X-0.2S0
G1 X-0.1S400
G1 X-0.2S0
G1 X-0.1S400
G1 X-0.1S0
G1 X-0.1S400
G1 X-0.1S0
G1 X-0.1S400
G1 X-0.2S0
G1 X-0.1S400
G1 X-0.2S0
G1 X-0.2S400
G1 X-0.1S0
G1 X-0.2S400
G1 X-0.2S0
G1 X-0.1S400
G1 X-0.2S0
G1 X-0.1S400
G1 X-0.2S0
G1 X-0.1S400
G1 X-0.2S0
G1 X-0.1S400
G1 X-0.1S0
G1 X-0.2S400
G1 X-0.2S0
G1 X-0.1S400
G1 X-0.2S0
G1 X-0.7S400
G1 X-36.7F6000S0
G1 X-0.7F3000S400
G1 X-4.8F6000S0
G1 X-0.8F3000S400
G1 X-0.1S0
G1 X-0.1S400
G1 X-0.1S0
G1 X-0.2S400
G1 X-0.2S0
G1 X-0.1S400
G1 X-0.2S0
G1 X-0.2S400
G1 X-0.2S0
G1 X-0.1S400
G1 X-0.2S0
G1 X-0.1S400
G1 X-0.1S0
G1 X-0.1S400
G1 X-0.1S0
G1 X-0.1S400
G1 X-0.1S0
G1 X-0.2S400
G1 X-0.2S0
G1 X-0.1S400
G1 X-0.2S0
G1 X-0.1S400
G1 X-0.2S0
G1 X-0.1S400
G1 X-0.1S0
G1 X-0.1S400
G1 X-0.1S0
G1 X-0.1S400
G1 X-0.1S0
G1 X-0.1S400
G1 X-0.1S0
G1 X-0.1S400
G1 X-0.2S0
G1 X-0.8S400
G0 X-1.25
G0 Y0.1
G0 X1.25
G1 X0.8
G1 X0.1S0
G1 X0.1S400
G1 X0.2S0
G1 X0.1S400
G1 X0.2S0
G1 X0.1S400
G1 X0.2S0
G1 X0.2S400
G1 X0.1S0
G1 X0.1S400
G1 X0.1S0
G1 X0.1S400
G1 X0.2S0
G1 X0.1S400
G1 X0.2S0
G1 X0.1S400
G1 X0.1S0
G1 X0.1S400
G1 X0.1S0
G1 X0.1S400
G1 X0.1S0
G1 X0.2S400
G1 X0.1S0
G1 X0.1S400
G1 X0.2S0
G1 X0.1S400
G1 X0.1S0
G1 X0.1S400
G1 X0.2S0
G1 X0.1S400
G1 X0.2S0
G1 X0.1S400
G1 X0.2S0
G1 X0.9S400
G1 X4.6F6000S0
G1 X0.8F3000S400
G1 X36.7F6000S0
G1 X0.8F3000S400
G1 X0.1S0
G1 X0.1S400
G1 X0.2S0
G1 X0.1S400
G1 X0.2S0
G1 X0.1S400
G1 X0.2S0
G1 X0.2S400
G1 X0.2S0
G1 X0.1S400
G1 X0.1S0
G1 X0.1S400
G1 X0.2S0
G1 X0.1S400
G1 X0.2S0
G1 X0.1S400
G1 X0.2S0
G1 X0.1S400
G1 X0.2S0
G1 X0.1S400
G1 X0.1S0
G1 X0.1S400
G1 X0.1S0
G1 X0.1S400
G1 X0.1S0
G1 X0.1S400
G1 X0.1S0
G1 X0.2S400
G1 X0.2S0
G1 X0.1S400
G1 X0.1S0
G1 X0.1S400
G1 X0.2S0
G1 X0.1S400
G1 X0.2S0
G1 X0.1S400
G1 X0.2S0
G1 X0.1S400
G1 X0.3S0
G1 X0.1S400
G1 X0.2S0
G1 X0.1S400
G1 X0.1S0
G1 X0.2S400
G1 X0.1S0
G1 X0.2S400
G1 X0.2S0
G1 X0.1S400
G1 X0.2S0
G1 X0.2S400
G1 X0.2S0
G1 X0.1S400
G1 X0.1S0
G1 X0.2S400
G1 X0.1S0
G1 X0.1S400
G1 X0.1S0
G1 X0.1S400
G1 X0.1S0
G1 X0.1S400
G1 X0.1S0
G1 X0.1S400
G1 X0.1S0
G1 X0.1S400
G1 X0.2S0
G1 X0.1S400
G1 X0.2S0
G1 X0.1S400
G1 X0.3S0
G1 X0.1S400
G1 X0.2S0
G1 X0.1S400
G1 X0.2S0
G1 X0.1S400
G1 X0.2S0
G1 X0.2S400
G1 X0.1S0
G1 X0.1S400
G1 X0.1S0
G1 X0.1S400
G1 X0.2S0
G1 X0.2S400
G1 X0.1S0
G1 X0.9S400
G0 X1.25
G0 X-0.1Y0.1
G0 X-1.25
G1 X-0.8
G1 X-0.1S0
G1 X-0.1S400
G1 X-0.2S0
G1 X-0.1S400
G1 X-0.1S0
G1 X-0.1S400
G1 X-0.2S0
G1 X-0.1S400
G1 X-0.2S0
G1 X-0.2S400
G1 X-0.1S0
G1 X-0.1S400
G1 X-0.1S0
G1 X-0.1S400
G1 X-0.2S0
G1 X-0.1S400
G1 X-0.2S0
G1 X-0.1S400
G1 X-0.1S0
G1 X-0.1S400
G1 X-0.1S0
G1 X-0.2S400
G1 X-0.2S0
G1 X-0.1S400
G1 X-0.2S0
G1 X-0.1S400
G1 X-0.3S0
G1 X-0.1S400
G1 X-0.2S0
G1 X-0.1S400
G1 X-0.2S0
G1 X-0.1S400
G1 X-0.2S0
G1 X-0.1S400
G1 X-0.2S0
G1 X-0.1S400
G1 X-0.2S0
G1 X-0.1S400
G1 X-0.4S0
G1 X-0.1S400
G1 X-0.3S0
G1 X-0.2S400
G1 X-0.1S0
G1 X-0.2S400
G1 X-0.1S0
G1 X-0.1S400
G1 X-0.2S0
G1 X-0.1S400
G1 X-0.1S0
G1 X-0.2S400
G1 X-0.2S0
G1 X-0.1S400
G1 X-0.1S0
G1 X-0.1S400
G1 X-0.3S0
G1 X-0.1S400
G1 X-0.3S0
G1 X-0.1S400
G1 X-0.1S0
G1 X-0.1S400
G1 X-0.1S0
G1 X-0.2S400
G1 X-0.1S0
G1 X-0.1S400
G1 X-0.2S0
G1 X-0.1S400
G1 X-0.1S0
G1 X-0.1S400
G1 X-0.1S0
G1 X-0.1S400
G1 X-0.1S0
G1 X-0.1S400
G1 X-0.1S0
G1 X-0.1S400
G1 X-0.2S0
G1 X-0.2S400
G1 X-0.1S0
G1 X-0.1S400
G1 X-0.2S0
G1 X-0.1S400
G1 X-0.2S0
G1 X-0.8S400
G1 X-36.8F6000S0
G1 X-0.7F3000S400
G1 X-4.5F6000S0
G1 X-1F3000S400
G1 X-0.2S0
G1 X-0.1S400
G1 X-0.2S0
G1 X-0.2S400
G1 X-0.1S0
G1 X-0.1S400
G1 X-0.1S0
G1 X-0.1S400
G1 X-0.2S0
G1 X-0.1S400
G1 X-0.1S0
G1 X-0.1S400
G1 X-0.3S0
G1 X-0.1S400
G1 X-0.2S0
G1 X-0.1S400
G1 X-0.2S0
G1 X-0.1S400
G1 X-0.1S0
G1 X-0.2S400
G1 X-0.1S0
G1 X-0.1S400
G1 X-0.2S0
G1 X-0.1S400
G1 X-0.2S0
G1 X-0.1S400
G1 X-0.1S0
G1 X-0.1S400
G1 X-0.1S0
G1 X-0.1S400
G1 X-0.1S0
G1 X-0.1S400
G1 X-0.1S0
G1 X-0.7S400
G0 X-1.25
G0 Y0.1
G0 X1.25
G1 X0.8
G1 X0.1S0
G1 X0.1S400
G1 X0.2S0
G1 X0.1S400
G1 X0.2S0
G1 X0.2S400
G1 X0.2S0
G1 X0.1S400
G1 X0.3S0
G1 X0.1S400
G1 X0.2S0
G1 X0.2S400
G1 X0.2S0
G1 X0.1S400
G1 X0.1S0
G1 X0.1S400
G1 X0.1S0
G1 X0.1S400
G1 X0.2S0
G1 X0.2S400
G1 X0.2S0
G1 X0.1S400
G1 X0.2S0
G1 X0.1S400
G1 X0.2S0
G1 X0.2S400
G1 X0.4S0
G1 X0.8S400
G1 X4.4F6000S0
G1 X0.8F3000S400
G1 X36.8F6000S0
G1 X0.8F3000S400
G1 X0.1S0
G1 X0.2S400
G1 X0.1S0
G1 X0.1S400
G1 X0.3S0
G1 X0.1S400
G1 X0.2S0
G1 X0.1S400
G1 X0.2S0
G1 X0.1S400
G1 X0.2S0
G1 X0.1S400
G1 X0.2S0
G1 X0.2S400
G1 X0.4S0
G1 X0.1S400
G1 X0.2S0
G1 X0.2S400
G1 X0.1S0
G1 X0.1S400
G1 X0.1S0
G1 X0.1S400
G1 X0.1S0
G1 X0.1S400
G1 X0.2S0
G1 X0.1S400
G1 X0.2S0
G1 X0.1S400
G1 X0.2S0
G1 X0.2S400
G1 X0.2S0
G1 X0.1S400
G1 X0.2S0
G1 X0.1S400
G1 X0.2S0
G1 X0.2S400
G1 X0.1S0
G1 X0.1S400
G1 X0.1S0
G1 X0.2S400
G1 X0.2S0
G1 X0.1S400
G1 X0.1S0
G1 X0.1S400
G1 X0.1S0
G1 X0.1S400
G1 X0.2S0
G1 X0.2S400
G1 X0.1S0
G1 X0.1S400
G1 X0.2S0
G1 X0.1S400
G1 X0.1S0
G1 X0.1S400
G1 X0.1S0
G1 X0.1S400
G1 X0.2S0
G1 X0.1S400
G1 X0.1S0
G1 X0.1S400
G1 X0.2S0
G1 X0.1S400
G1 X0.2S0
G1 X0.1S400
G1 X0.1S0
G1 X0.2S400
G1 X0.1S0
G1 X0.2S400
G1 X0.2S0
G1 X0.1S400
G1 X0.2S0
G1 X0.1S400
G1 X0.2S0
G1 X0.1S400
G1 X0.1S0
G1 X0.1S400
G1 X0.2S0
G1 X0.1S400
G1 X0.2S0
G1 X1S400
G0 X1.25
G0 X-0.2Y0.1
G0 X-1.25
G1 X-0.8
G1 X-0.2S0
G1 X-0.2S400
G1 X-0.1S0
G1 X-0.1S400
G1 X-0.2S0
G1 X-0.2S400
G1 X-0.2S0
G1 X-0.1S400
G1 X-0.1S0
G1 X-0.1S400
G1 X-0.2S0
G1 X-0.1S400
G1 X-0.3S0
G1 X-0.1S400
G1 X-0.2S0
G1 X-0.1S400
G1 X-0.2S0
G1 X-0.1S400
G1 X-0.1S0
G1 X-0.1S400
G1 X-0.1S0
G1 X-0.1S400
G1 X-0.1S0
G1 X-0.2S400
G1 X-0.1S0
G1 X-0.1S400
G1 X-0.2S0
G1 X-0.1S400
G1 X-0.1S0
G1 X-0.1S400
G1 X-0.3S0
G1 X-0.1S400
G1 X-0.1S0
G1 X-0.1S400
G1 X-0.1S0
G1 X-0.1S400
G1 X-0.1S0
G1 X-0.1S400
G1 X-0.1S0
G1 X-0.1S400
G1 X-0.2S0
G1 X-0.1S400
G1 X-0.2S0
G1 X-0.1S400
G1 X-0.3S0
G1 X-0.1S400
G1 X-0.2S0
G1 X-0.1S400
G1 X-0.2S0
G1 X-0.1S400
G1 X-0.3S0
G1 X-0.2S400
G1 X-0.1S0
G1 X-0.1S400
G1 X-0.1S0
G1 X-0.2S400
G1 X-0.2S0
G1 X-0.1S400
G1 X-0.2S0
G1 X-0.1S400
G1 X-0.2S0
G1 X-0.1S400
G1 X-0.1S0
G1 X-0.2S400
G1 X-0.1S0
G1 X-0.1S400
G1 X-0.2S0
G1 X-0.1S400
G1 X-0.1S0
G1 X-0.1S400
G1 X-0.1S0
G1 X-0.1S400
G1 X-0.1S0
G1 X-0.1S400
G1 X-0.1S0
G1 X-0.2S400
G1 X-0.2S0
G1 X-0.2S400
G1 X-0.1S0
G1 X-0.1S400
G1 X-0.3S0
G1 X-0.7S400
G1 X-37F6000S0
G1 X-0.7F3000S400
G1 X-4.3F6000S0
G1 X-1F3000S400
G1 X-0.1S0
G1 X-0.2S400
G1 X-0.1S0
G1 X-0.1S400
G1 X-0.2S0
G1 X-0.1S400
G1 X-0.2S0
G1 X-0.1S400
G1 X-0.1S0
G1 X-0.1S400
G1 X-0.2S0
G1 X-0.1S400
G1 X-0.2S0
G1 X-0.2S400
G1 X-0.2S0
G1 X-0.1S400
G1 X-0.1S0
G1 X-0.1S400
G1 X-0.2S0
G1 X-0.1S400
G1 X-0.2S0
G1 X-0.1S400
G1 X-0.1S0
G1 X-0.2S400
G1 X-0.2S0
G1 X-0.1S400
G1 X-0.2S0
G1 X-0.1S400
G1 X-0.1S0
G1 X-0.1S400
G1 X-0.2S0
G1 X-0.8S400
G0 X-1.25
G0 X0.1Y0.1
G0 X1.25
G1 X0.8
G1 X0.2S0
G1 X0.1S400
G1 X0.1S0
G1 X0.2S400
G1 X0.2S0
G1 X0.1S400
G1 X0.2S0
G1 X0.1S400
G1 X0.1S0
G1 X0.1S400
G1 X0.1S0
G1 X0.2S400
G1 X0.2S0
G1 X0.1S400
G1 X0.1S0
G1 X0.1S400
G1 X0.2S0
G1 X0.1S400
G1 X0.1S0
G1 X0.1S400
G1 X0.2S0
G1 X0.1S400
G1 X0.1S0
G1 X0.1S400
G1 X0.1S0
G1 X0.2S400
G1 X0.1S0
G1 X0.1S400
G1 X0.3S0
G1 X0.1S400
G1 X0.2S0
G1 X0.1S400
G1 X0.1S0
G1 X0.9S400
G1 X4.2F6000S0
G1 X0.7F3000S400
G1 X37F6000S0
G1 X0.7F3000S400
G1 X0.1S0
G1 X0.1S400
G1 X0.2S0
G1 X0.1S400
G1 X0.2S0
G1 X0.1S400
G1 X0.2S0
G1 X0.1S400
G1 X0.2S0
G1 X0.1S400
G1 X0.1S0
G1 X0.1S400
G1 X0.2S0
G1 X0.2S400
G1 X0.2S0
G1 X0.1S400
G1 X0.2S0
G1 X0.1S400
G1 X0.1S0
G1 X0.1S400
G1 X0.2S0
G1 X0.1S400
G1 X0.1S0
G1 X0.1S400
G1 X0.2S0
G1 X0.1S400
G1 X0.2S0
G1 X0.1S400
G1 X0.2S0
G1 X0.1S400
G1 X0.1S0
G1 X0.2S400
G1 X0.2S0
G1 X0.2S400
G1 X0.1S0
G1 X0.2S400
G1 X0.1S0
G1 X0.2S400
G1 X0.2S0
G1 X0.1S400
G1 X0.2S0
G1 X0.1S400
G1 X0.2S0
G1 X0.1S400
G1 X0.2S0
G1 X0.1S400
G1 X0.2S0
G1 X0.2S400
G1 X0.1S0
G1 X0.1S400
G1 X0.2S0
G1 X0.2S400
G1 X0.5S0
G1 X0.1S400
G1 X0.2S0
G1 X0.1S400
G1 X0.1S0
G1 X0.2S400
G1 X0.1S0
G1 X0.2S400
G1 X0.1S0
G1 X0.1S400
G1 X0.2S0
G1 X0.1S400
G1 X0.2S0
G1 X0.2S400
G1 X0.2S0
G1 X0.1S400
G1 X0.2S0
G1 X0.1S400
G1 X0.1S0
G1 X0.1S400
G1 X0.2S0
G1 X0.1S400
G1 X0.2S0
G1 X0.9S400
G0 X1.25
G0 X-0.1Y0.1
G0 X-1.25
G1 X-0.8
G1 X-0.2S0
G1 X-0.1S400
G1 X-0.2S0
G1 X-0.1S400
G1 X-0.1S0
G1 X-0.1S400
G1 X-0.2S0
G1 X-0.2S400
G1 X-0.1S0
G1 X-0.1S400
G1 X-0.2S0
G1 X-0.1S400
G1 X-0.1S0
G1 X-0.2S400
G1 X-0.1S0
G1 X-0.1S400
G1 X-0.3S0
G1 X-0.1S400
G1 X-0.3S0
G1 X-0.1S400
G1 X-0.2S0
G1 X-0.1S400
G1 X-0.1S0
G1 X-0.3S400
G1 X-0.1S0
G1 X-0.1S400
G1 X-0.2S0
G1 X-0.1S400
G1 X-0.2S0
G1 X-0.1S400
G1 X-0.2S0
G1 X-0.1S400
G1 X-0.1S0
G1 X-0.1S400
G1 X-0.1S0
G1 X-0.1S400
G1 X-0.1S0
G1 X-0.2S400
G1 X-0.1S0
G1 X-0.2S400
G1 X-0.2S0
G1 X-0.1S400
G1 X-0.2S0
G1 X-0.1S400
G1 X-0.3S0
G1 X-0.1S400
G1 X-0.2S0
G1 X-0.1S400
G1 X-0.2S0
G1 X-0.1S400
G1 X-0.2S0
G1 X-0.1S400
G1 X-0.2S0
G1 X-0.2S400
G1 X-0.2S0
G1 X-0.1S400
G1 X-0.1S0
G1 X-0.2S400
G1 X-0.1S0
G1 X-0.1S400
G1 X-0.2S0
G1 X-0.1S400
G1 X-0.1S0
G1 X-0.1S400
G1 X-0.2S0
G1 X-0.1S400
G1 X-0.2S0
G1 X-0.1S400
G1 X-0.2S0
G1 X-0.1S400
G1 X-0.2S0
G1 X-0.2S400
G1 X-0.1S0
G1 X-0.1S400
G1 X-0.2S0
G1 X-0.2S400
G1 X-0.1S0
G1 X-0.7S400
G1 X-37F6000S0
G1 X-0.8F3000S400
G1 X-4.1F6000S0
G1 X-0.9F3000S400
G1 X-0.3S0
G1 X-0.1S400
G1 X-0.2S0
G1 X-0.2S400
G1 X-0.1S0
G1 X-0.1S400
G1 X-0.3S0
G1 X-0.1S400
G1 X-0.2S0
G1 X-0.2S400
G1 X-0.1S0
G1 X-0.1S400
G1 X-0.2S0
G1 X-0.1S400
G1 X-0.1S0
G1 X-0.1S400
G1 X-0.2S0
G1 X-0.1S400
G1 X-0.2S0
G1 X-0.1S400
G1 X-0.2S0
G1 X-0.1S400
G1 X-0.2S0
G1 X-0.2S400
G1 X-0.2S0
G1 X-0.1S400
G1 X-0.2S0
G1 X-0.1S400
G1 X-0.1S0
G1 X-0.8S400
G0 X-1.25
G0 Y0.1
G0 X1.25
G1 X0.8
G1 X0.1S0
G1 X0.1S400
G1 X0.1S0
G1 X0.1S400
G1 X0.2S0
G1 X0.1S400
G1 X0.2S0
G1 X0.1S400
G1 X0.1S0
G1 X0.1S400
G1 X0.2S0
G1 X0.1S400
G1 X0.2S0
G1 X0.2S400
G1 X0.2S0
G1 X0.1S400
G1 X0.1S0
G1 X0.1S400
G1 X0.2S0
G1 X0.1S400
G1 X0.2S0
G1 X0.1S400
G1 X0.2S0
G1 X0.1S400
G1 X0.1S0
G1 X0.1S400
G1 X0.2S0
G1 X0.1S400
G1 X0.1S0
G1 X0.1S400
G1 X0.1S0
G1 X0.2S400
G1 X0.1S0
G1 X0.1S400
G1 X0.1S0
G1 X0.9S400
G1 X4F6000S0
G1 X0.7F3000S400
G1 X37.1F6000S0
G1 X0.7F3000S400
G1 X0.2S0
G1 X0.1S400
G1 X0.1S0
G1 X0.1S400
G1 X0.3S0
G1 X0.1S400
G1 X0.1S0
G1 X0.2S400
G1 X0.2S0
G1 X0.1S400
G1 X0.1S0
G1 X0.2S400
G1 X0.2S0
G1 X0.1S400
G1 X0.2S0
G1 X0.2S400
G1 X0.4S0
G1 X0.1S400
G1 X0.1S0
G1 X0.1S400
G1 X0.2S0
G1 X0.1S400
G1 X0.1S0
G1 X0.2S400
G1 X0.1S0
G1 X0.2S400
G1 X0.2S0
G1 X0.1S400
G1 X0.1S0
G1 X0.2S400
G1 X0.2S0
G1 X0.1S400
G1 X0.2S0
G1 X0.1S400
G1 X0.2S0
G1 X0.1S400
G1 X0.3S0
G1 X0.1S400
G1 X0.2S0
G1 X0.1S400
G1 X0.2S0
G1 X0.1S400
G1 X0.1S0
G1 X0.1S400
G1 X0.2S0
G1 X0.1S400
G1 X0.1S0
G1 X0.2S400
G1 X0.4S0
G1 X0.1S400
G1 X0.1S0
G1 X0.1S400
G1 X0.1S0
G1 X0.2S400
G1 X0.1S0
G1 X0.1S400
G1 X0.1S0
G1 X0.1S400
G1 X0.2S0
G1 X0.1S400
G1 X0.2S0
G1 X0.1S400
G1 X0.2S0
G1 X0.1S400
G1 X0.1S0
G1 X0.1S400
G1 X0.2S0
G1 X0.1S400
G1 X0.2S0
G1 X0.2S400
G1 X0.2S0
G1 X0.2S400
G1 X0.1S0
G1 X0.2S400
G1 X0.1S0
G1 X0.8S400
G0 X1.25
G0 Y0.1
G0 X-1.25
G1 X-0.8
G1 X-0.1S0
G1 X-0.1S400
G1 X-0.3S0
G1 X-0.1S400
G1 X-0.2S0
G1 X-0.1S400
G1 X-0.2S0
G1 X-0.1S400
G1 X-0.2S0
G1 X-0.2S400
G1 X-0.1S0
G1 X-0.1S400
G1 X-0.2S0
G1 X-0.1S400
G1 X-0.1S0
G1 X-0.1S400
G1 X-0.1S0
G1 X-0.2S400
G1 X-0.1S0
G1 X-0.1S400
G1 X-0.1S0
G1 X-0.1S400
G1 X-0.2S0
G1 X-0.1S400
G1 X-0.4S0
G1 X-0.1S400
G1 X-0.1S0
G1 X-0.2S400
G1 X-0.3S0
G1 X-0.2S400
G1 X-0.1S0
G1 X-0.1S400
G1 X-0.2S0
G1 X-0.1S400
G1 X-0.1S0
G1 X-0.1S400
G1 X-0.2S0
G1 X-0.1S400
G1 X-0.1S0
G1 X-0.1S400
G1 X-0.1S0
G1 X-0.2S400
G1 X-0.1S0
G1 X-0.1S400
G1 X-0.1S0
G1 X-0.2S400
G1 X-0.2S0
G1 X-0.1S400
G1 X-0.2S0
G1 X-0.1S400
G1 X-0.1S0
G1 X-0.1S400
G1 X-0.4S0
G1 X-0.1S400
G1 X-0.2S0
G1 X-0.1S400
G1 X-0.1S0
G1 X-0.1S400
G1 X-0.2S0
G1 X-0.2S400
G1 X-0.2S0
G1 X-0.1S400
G1 X-0.2S0
G1 X-0.2S400
G1 X-0.2S0
G1 X-0.1S400
G1 X-0.2S0
G1 X-0.1S400
G1 X-0.1S0
G1 X-0.1S400
G1 X-0.3S0
G1 X-0.1S400
G1 X-0.1S0
G1 X-0.2S400
G1 X-0.2S0
G1 X-0.1S400
G1 X-0.1S0
G1 X-0.8S400
G1 X-37F6000S0
G1 X-0.7F3000S400
G1 X-3.9F6000S0
G1 X-0.9F3000S400
G1 X-0.3S0
G1 X-0.1S400
G1 X-0.2S0
G1 X-0.1S400
G1 X-0.2S0
G1 X-0.1S400
G1 X-0.2S0
G1 X-0.1S400
G1 X-0.1S0
G1 X-0.1S400
G1 X-0.1S0
G1 X-0.2S400
G1 X-0.1S0
G1 X-0.1S400
G1 X-0.2S0
G1 X-0.2S400
G1 X-0.2S0
G1 X-0.1S400
G1 X-0.1S0
G1 X-0.1S400
G1 X-0.2S0
G1 X-0.1S400
G1 X-0.1S0
G1 X-0.2S400
G1 X-0.2S0
G1 X-0.1S400
G1 X-0.2S0
G1 X-0.2S400
G1 X-0.1S0
G1 X-0.1S400
G1 X-0.2S0
G1 X-0.8S400
G0 X-1.25
G0 Y0.1
G0 X1.25
G1 X0.8
G1 X0.1S0
G1 X0.1S400
G1 X0.2S0
G1 X0.1S400
G1 X0.2S0
G1 X0.2S400
G1 X0.2S0
G1 X0.1S400
G1 X0.2S0
G1 X0.2S400
G1 X0.2S0
G1 X0.1S400
G1 X0.1S0
G1 X0.1S400
G1 X0.2S0
G1 X0.1S400
G1 X0.1S0
G1 X0.1S400
G1 X0.4S0
G1 X0.1S400
G1 X0.2S0
G1 X0.2S400
G1 X0.1S0
G1 X0.1S400
G1 X0.2S0
G1 X0.1S400
G1 X0.2S0
G1 X0.2S400
G1 X0.1S0
G1 X1.1S400
G1 X3.7F6000S0
G1 X0.8F3000S400
G1 X37.1F6000S0
G1 X0.8F3000S400
G1 X0.1S0
G1 X0.1S400
G1 X0.2S0
G1 X0.1S400
G1 X0.1S0
G1 X0.2S400
G1 X0.2S0
G1 X0.1S400
G1 X0.1S0
G1 X0.1S400
G1 X0.1S0
G1 X0.1S400
G1 X0.2S0
G1 X0.1S400
G1 X0.2S0
G1 X0.2S400
G1 X0.2S0
G1 X0.1S400
G1 X0.1S0
G1 X0.1S400
G1 X0.1S0
G1 X0.1S400
G1 X0.2S0
G1 X0.2S400
G1 X0.2S0
G1 X0.1S400
G1 X0.1S0
G1 X0.1S400
G1 X0.2S0
G1 X0.1S400
G1 X0.1S0
G1 X0.1S400
G1 X0.2S0
G1 X0.1S400
G1 X0.1S0
G1 X0.1S400
G1 X0.2S0
G1 X0.1S400
G1 X0.3S0
G1 X0.1S400
G1 X0.1S0
G1 X0.1S400
G1 X0.1S0
G1 X0.1S400
G1 X0.2S0
G1 X0.1S400
G1 X0.1S0
G1 X0.1S400
G1 X0.2S0
G1 X0.1S400
G1 X0.2S0
G1 X0.2S400
G1 X0.3S0
G1 X0.2S400
G1 X0.1S0
G1 X0.2S400
G1 X0.2S0
G1 X0.1S400
G1 X0.2S0
G1 X0.1S400
G1 X0.3S0
G1 X0.1S400
G1 X0.2S0
G1 X0.1S400
G1 X0.1S0
G1 X0.1S400
G1 X0.2S0
G1 X0.1S400
G1 X0.2S0
G1 X0.1S400
G1 X0.1S0
G1 X0.1S400
G1 X0.2S0
G1 X0.1S400
G1 X0.1S0
G1 X0.1S400
G1 X0.2S0
G1 X0.1S400
G1 X0.2S0
G1 X0.8S400
G0 X1.25
G0 Y0.1
G0 X-1.25
G1 X-0.9
G1 X-0.1S0
G1 X-0.2S400
G1 X-0.1S0
G1 X-0.1S400
G1 X-0.2S0
G1 X-0.2S400
G1 X-0.1S0
G1 X-0.1S400
G1 X-0.2S0
G1 X-0.1S400
G1 X-0.2S0
G1 X-0.2S400
G1 X-0.1S0
G1 X-0.1S400
G1 X-0.2S0
G1 X-0.1S400
G1 X-0.2S0
G1 X-0.2S400
G1 X-0.2S0
G1 X-0.1S400
G1 X-0.1S0
G1 X-0.1S400
G1 X-0.1S0
G1 X-0.1S400
G1 X-0.2S0
G1 X-0.1S400
G1 X-0.2S0
G1 X-0.1S400
G1 X-0.1S0
G1 X-0.1S400
G1 X-0.2S0
G1 X-0.1S400
G1 X-0.1S0
G1 X-0.1S400
G1 X-0.1S0
G1 X-0.1S400
G1 X-0.2S0
G1 X-0.1S400
G1 X-0.1S0
G1 X-0.1S400
G1 X-0.2S0
G1 X-0.1S400
G1 X-0.2S0
G1 X-0.1S400
G1 X-0.1S0
G1 X-0.1S400
G1 X-0.2S0
G1 X-0.1S400
G1 X-0.2S0
G1 X-0.2S400
G1 X-0.2S0
G1 X-0.1S400
G1 X-0.1S0
G1 X-0.2S400
G1 X-0.1S0
G1 X-0.1S400
G1 X-0.1S0
G1 X-0.1S400
G1 X-0.2S0
G1 X-0.1S400
G1 X-0.1S0
G1 X-0.1S400
G1 X-0.3S0
G1 X-0.1S400
G1 X-0.2S0
G1 X-0.1S400
G1 X-0.2S0
G1 X-0.2S400
G1 X-0.1S0
G1 X-0.1S400
G1 X-0.1S0
G1 X-0.1S400
G1 X-0.2S0
G1 X-0.1S400
G1 X-0.1S0
G1 X-0.1S400
G1 X-0.2S0
G1 X-0.1S400
G1 X-0.2S0
G1 X-0.1S400
G1 X-0.2S0
G1 X-0.7S400
G1 X-37.2F6000S0
G1 X-0.7F3000S400
G1 X-3.6F6000S0
G1 X-1F3000S400
G1 X-0.3S0
G1 X-0.1S400
G1 X-0.2S0
G1 X-0.2S400
G1 X-0.1S0
G1 X-0.2S400
G1 X-0.2S0
G1 X-0.1S400
G1 X-0.2S0
G1 X-0.1S400
G1 X-0.2S0
G1 X-0.2S400
G1 X-0.1S0
G1 X-0.1S400
G1 X-0.2S0
G1 X-0.1S400
G1 X-0.1S0
G1 X-0.1S400
G1 X-0.2S0
G1 X-0.1S400
G1 X-0.2S0
G1 X-0.1S400
G1 X-0.2S0
G1 X-0.2S400
G1 X-0.1S0
G1 X-0.1S400
G1 X-0.2S0
G1 X-0.1S400
G1 X-0.2S0
G1 X-0.1S400
G1 X-0.1S0
G1 X-0.8S400
G0 X-1.25
G0 X0.1Y0.1
G0 X1.25
G1 X0.8
G1 X0.1S0
G1 X0.2S400
G1 X0.1S0
G1 X0.2S400
G1 X0.3S0
G1 X0.1S400
G1 X0.1S0
G1 X0.1S400
G1 X0.2S0
G1 X0.2S400
G1 X0.1S0
G1 X0.1S400
G1 X0.2S0
G1 X0.2S400
G1 X0.2S0
G1 X0.1S400
G1 X0.1S0
G1 X0.2S400
G1 X0.1S0
G1 X0.2S400
G1 X0.2S0
G1 X0.1S400
G1 X0.5S0
G1 X0.1S400
G1 X0.2S0
G1 X0.1S400
G1 X0.2S0
G1 X0.1S400
G1 X0.1S0
G1 X1S400
G1 X3.5F6000S0
G1 X0.7F3000S400
G1 X37.2F6000S0
G1 X0.7F3000S400
G1 X0.1S0
G1 X0.1S400
G1 X0.1S0
G1 X0.2S400
G1 X0.3S0
G1 X0.1S400
G1 X0.1S0
G1 X0.1S400
G1 X0.1S0
G1 X0.1S400
G1 X0.2S0
G1 X0.1S400
G1 X0.2S0
G1 X0.1S400
G1 X0.2S0
G1 X0.1S400
G1 X0.1S0
G1 X0.2S400
G1 X0.1S0
G1 X0.2S400
G1 X0.2S0
G1 X0.1S400
G1 X0.2S0
G1 X0.1S400
G1 X0.2S0
G1 X0.1S400
G1 X0.2S0
G1 X0.1S400
G1 X0.1S0
G1 X0.1S400
G1 X0.2S0
G1 X0.1S400
G1 X0.1S0
G1 X0.1S400
G1 X0.1S0
G1 X0.2S400
G1 X0.2S0
G1 X0.2S400
G1 X0.1S0
G1 X0.1S400
G1 X0.2S0
G1 X0.1S400
G1 X0.1S0
G1 X0.2S400
G1 X0.2S0
G1 X0.1S400
G1 X0.1S0
G1 X0.1S400
G1 X0.1S0
G1 X0.1S400
G1 X0.2S0
G1 X0.1S400
G1 X0.1S0
G1 X0.2S400
G1 X0.2S0
G1 X0.1S400
G1 X0.2S0
G1 X0.1S400
G1 X0.1S0
G1 X0.2S400
G1 X0.2S0
G1 X0.1S400
G1 X0.1S0
G1 X0.2S400
G1 X0.1S0
G1 X0.1S400
G1 X0.3S0
G1 X0.1S400
G1 X0.1S0
G1 X0.1S400
G1 X0.1S0
G1 X0.1S400
G1 X0.2S0
G1 X0.1S400
G1 X0.2S0
G1 X0.1S400
G1 X0.2S0
G1 X0.1S400
G1 X0.2S0
G1 X0.9S400
G0 X1.25
G0 X-0.2Y0.1
G0 X-1.25
G1 X-0.7
G1 X-0.2S0
G1 X-0.1S400
G1 X-0.1S0
G1 X-0.2S400
G1 X-0.2S0
G1 X-0.1S400
G1 X-0.1S0
G1 X-0.2S400
G1 X-0.1S0
G1 X-0.1S400
G1 X-0.2S0
G1 X-0.1S400
G1 X-0.1S0
G1 X-0.1S400
G1 X-0.1S0
G1 X-0.1S400
G1 X-0.3S0
G1 X-0.1S400
G1 X-0.2S0
G1 X-0.1S400
G1 X-0.3S0
G1 X-0.1S400
G1 X-0.1S0
G1 X-0.1S400
G1 X-0.1S0
G1 X-0.1S400
G1 X-0.2S0
G1 X-0.1S400
G1 X-0.2S0
G1 X-0.1S400
G1 X-0.1S0
G1 X-0.1S400
G1 X-0.2S0
G1 X-0.1S400
G1 X-0.1S0
G1 X-0.1S400
G1 X-0.2S0
G1 X-0.1S400
G1 X-0.2S0
G1 X-0.2S400
G1 X-0.2S0
G1 X-0.1S400
G1 X-0.2S0
G1 X-0.1S400
G1 X-0.3S0
G1 X-0.1S400
G1 X-0.2S0
G1 X-0.1S400
G1 X-0.1S0
G1 X-0.1S400
G1 X-0.2S0
G1 X-0.1S400
G1 X-0.2S0
G1 X-0.1S400
G1 X-0.1S0
G1 X-0.2S400
G1 X-0.1S0
G1 X-0.1S400
G1 X-0.1S0
G1 X-0.1S400
G1 X-0.2S0
G1 X-0.1S400
G1 X-0.3S0
G1 X-0.2S400
G1 X-0.2S0
G1 X-0.1S400
G1 X-0.2S0
G1 X-0.1S400
G1 X-0.1S0
G1 X-0.1S400
G1 X-0.3S0
G1 X-0.2S400
G1 X-0.2S0
G1 X-0.1S400
G1 X-0.2S0
G1 X-0.8S400
G1 X-37.2F6000S0
G1 X-0.8F3000S400
G1 X-3.4F6000S0
G1 X-0.9F3000S400
G1 X-0.3S0
G1 X-0.2S400
G1 X-0.1S0
G1 X-0.2S400
G1 X-0.2S0
G1 X-0.1S400
G1 X-0.1S0
G1 X-0.2S400
G1 X-0.1S0
G1 X-0.1S400
G1 X-0.1S0
G1 X-0.1S400
G1 X-0.5S0
G1 X-0.1S400
G1 X-0.2S0
G1 X-0.1S400
G1 X-0.2S0
G1 X-0.1S400
G1 X-0.1S0
G1 X-0.1S400
G1 X-0.3S0
G1 X-0.1S400
G1 X-0.1S0
G1 X-0.1S400
G1 X-0.2S0
G1 X-0.1S400
G1 X-0.2S0
G1 X-0.1S400
G1 X-0.4S0
G1 X-0.8S400
G0 X-1.25
G0 X0.1Y0.1
G0 X1.25
G1 X0.8
G1 X0.1S0
G1 X0.1S400
G1 X0.2S0
G1 X0.1S400
G1 X0.1S0
G1 X0.2S400
G1 X0.2S0
G1 X0.1S400
G1 X0.1S0
G1 X0.2S400
G1 X0.2S0
G1 X0.1S400
G1 X0.1S0
G1 X0.1S400
G1 X0.2S0
G1 X0.2S400
G1 X0.2S0
G1 X0.2S400
G1 X0.1S0
G1 X0.1S400
G1 X0.2S0
G1 X0.1S400
G1 X0.2S0
G1 X0.1S400
G1 X0.1S0
G1 X0.2S400
G1 X0.2S0
G1 X0.1S400
G1 X0.2S0
G1 X0.1S400
G1 X0.1S0
G1 X0.2S400
G1 X0.1S0
G1 X1S400
G1 X3.2F6000S0
G1 X0.7F3000S400
G1 X37.2F6000S0
G1 X0.8F3000S400
G1 X0.2S0
G1 X0.1S400
G1 X0.2S0
G1 X0.1S400
G1 X0.1S0
G1 X0.1S400
G1 X0.1S0
G1 X0.2S400
G1 X0.2S0
G1 X0.2S400
G1 X0.1S0
G1 X0.1S400
G1 X0.2S0
G1 X0.1S400
G1 X0.1S0
G1 X0.1S400
G1 X0.2S0
G1 X0.1S400
G1 X0.2S0
G1 X0.1S400
G1 X0.2S0
G1 X0.1S400
G1 X0.2S0
G1 X0.1S400
G1 X0.1S0
G1 X0.1S400
G1 X0.1S0
G1 X0.1S400
G1 X0.2S0
G1 X0.1S400
G1 X0.2S0
G1 X0.1S400
G1 X0.1S0
G1 X0.2S400
G1 X0.2S0
G1 X0.1S400
G1 X0.1S0
G1 X0.1S400
G1 X0.2S0
G1 X0.1S400
G1 X0.2S0
G1 X0.1S400
G1 X0.1S0
G1 X0.1S400
G1 X0.2S0
G1 X0.1S400
G1 X0.2S0
G1 X0.1S400
G1 X0.2S0
G1 X0.1S400
G1 X0.1S0
G1 X0.1S400
G1 X0.2S0
G1 X0.1S400
G1 X0.2S0
G1 X0.1S400
G1 X0.2S0
G1 X0.2S400
G1 X0.2S0
G1 X0.1S400
G1 X0.1S0
G1 X0.1S400
G1 X0.1S0
G1 X0.1S400
G1 X0.1S0
G1 X0.1S400
G1 X0.2S0
G1 X0.2S400
G1 X0.2S0
G1 X0.1S400
G1 X0.4S0
G1 X0.1S400
G1 X0.1S0
G1 X0.1S400
G1 X0.2S0
G1 X0.1S400
G1 X0.2S0
G1 X0.9S400
G0 X1.25
G0 X-0.1Y0.1
G0 X-1.25
G1 X-0.8
G1 X-0.2S0
G1 X-0.1S400
G1 X-0.2S0
G1 X-0.1S400
G1 X-0.2S0
G1 X-0.1S400
G1 X-0.1S0
G1 X-0.2S400
G1 X-0.1S0
G1 X-0.2S400
G1 X-0.2S0
G1 X-0.1S400
G1 X-0.2S0
G1 X-0.2S400
G1 X-0.2S0
G1 X-0.1S400
G1 X-0.1S0
G1 X-0.2S400
G1 X-0.1S0
G1 X-0.1S400
G1 X-0.2S0
G1 X-0.1S400
G1 X-0.1S0
G1 X-0.2S400
G1 X-0.1S0
G1 X-0.1S400
G1 X-0.1S0
G1 X-0.1S400
G1 X-0.2S0
G1 X-0.2S400
G1 X-0.1S0
G1 X-0.1S400
G1 X-0.1S0
G1 X-0.2S400
G1 X-0.2S0
G1 X-0.1S400
G1 X-0.2S0
G1 X-0.1S400
G1 X-0.1S0
G1 X-0.1S400
G1 X-0.1S0
G1 X-0.1S400
G1 X-0.1S0
G1 X-0.1S400
G1 X-0.1S0
G1 X-0.1S400
G1 X-0.2S0
G1 X-0.1S400
G1 X-0.1S0
G1 X-0.1S400
G1 X-0.1S0
G1 X-0.2S400
G1 X-0.1S0
G1 X-0.1S400
G1 X-0.2S0
G1 X-0.1S400
G1 X-0.2S0
G1 X-0.1S400
G1 X-0.2S0
G1 X-0.1S400
G1 X-0.1S0
G1 X-0.2S400
G1 X-0.1S0
G1 X-0.2S400
G1 X-0.2S0
G1 X-0.2S400
G1 X-0.2S0
G1 X-0.1S400
G1 X-0.2S0
G1 X-0.1S400
G1 X-0.2S0
G1 X-0.1S400
G1 X-0.3S0
G1 X-0.1S400
G1 X-0.1S0
G1 X-0.2S400
G1 X-0.1S0
G1 X-0.8S400
G1 X-37.2F6000S0
G1 X-0.7F3000S400
G1 X-3.1F6000S0
G1 X-1F3000S400
G1 X-0.1S0
G1 X-0.1S400
G1 X-0.2S0
G1 X-0.1S400
G1 X-0.3S0
G1 X-0.1S400
G1 X-0.2S0
G1 X-0.1S400
G1 X-0.2S0
G1 X-0.1S400
G1 X-0.2S0
G1 X-0.1S400
G1 X-0.1S0
G1 X-0.1S400
G1 X-0.1S0
G1 X-0.1S400
G1 X-0.1S0
G1 X-0.1S400
G1 X-0.2S0
G1 X-0.1S400
G1 X-0.2S0
G1 X-0.1S400
G1 X-0.1S0
G1 X-0.1S400
G1 X-0.2S0
G1 X-0.1S400
G1 X-0.1S0
G1 X-0.1S400
G1 X-0.2S0
G1 X-0.1S400
G1 X-0.1S0
G1 X-0.1S400
G1 X-0.2S0
G1 X-0.1S400
G1 X-0.1S0
G1 X-0.2S400
G1 X-0.1S0
G1 X-0.8S400
G0 X-1.25
G0 Y0.1
G0 X1.25
G1 X0.8
G1 X0.3S0
G1 X0.1S400
G1 X0.2S0
G1 X0.1S400
G1 X0.2S0
G1 X0.1S400
G1 X0.1S0
G1 X0.1S400
G1 X0.2S0
G1 X0.2S400
G1 X0.2S0
G1 X0.1S400
G1 X0.1S0
G1 X0.1S400
G1 X0.1S0
G1 X0.1S400
G1 X0.1S0
G1 X0.1S400
G1 X0.3S0
G1 X0.1S400
G1 X0.1S0
G1 X0.1S400
G1 X0.1S0
G1 X0.1S400
G1 X0.1S0
G1 X0.1S400
G1 X0.2S0
G1 X0.1S400
G1 X0.1S0
G1 X0.1S400
G1 X0.1S0
G1 X0.2S400
G1 X0.1S0
G1 X0.1S400
G1 X0.2S0
G1 X0.1S400
G1 X0.1S0
G1 X1.1S400
G1 X2.9F6000S0
G1 X0.8F3000S400
G1 X37.2F6000S0
G1 X0.8F3000S400
G1 X0.3S0
G1 X0.1S400
G1 X0.1S0
G1 X0.2S400
G1 X0.1S0
G1 X0.1S400
G1 X0.2S0
G1 X0.1S400
G1 X0.2S0
G1 X0.1S400
G1 X0.2S0
G1 X0.1S400
G1 X0.2S0
G1 X0.1S400
G1 X0.4S0
G1 X0.1S400
G1 X0.2S0
G1 X0.2S400
G1 X0.1S0
G1 X0.1S400
G1 X0.1S0
G1 X0.1S400
G1 X0.2S0
G1 X0.1S400
G1 X0.3S0
G1 X0.1S400
G1 X0.1S0
G1 X0.1S400
G1 X0.2S0
G1 X0.1S400
G1 X0.2S0
G1 X0.1S400
G1 X0.2S0
G1 X0.1S400
G1 X0.1S0
G1 X0.1S400
G1 X0.1S0
G1 X0.2S400
G1 X0.1S0
G1 X0.1S400
G1 X0.2S0
G1 X0.1S400
G1 X0.2S0
G1 X0.1S400
G1 X0.2S0
G1 X0.1S400
G1 X0.1S0
G1 X0.1S400
G1 X0.2S0
G1 X0.1S400
G1 X0.2S0
G1 X0.1S400
G1 X0.1S0
G1 X0.1S400
G1 X0.4S0
G1 X0.1S400
G1 X0.2S0
G1 X0.1S400
G1 X0.2S0
G1 X0.1S400
G1 X0.1S0
G1 X0.2S400
G1 X0.2S0
G1 X0.1S400
G1 X0.2S0
G1 X0.1S400
G1 X0.2S0
G1 X0.1S400
G1 X0.1S0
G1 X0.1S400
G1 X0.1S0
G1 X0.2S400
G1 X0.1S0
G1 X0.1S400
G1 X0.1S0
G1 X0.8S400
G0 X1.25
G0 Y0.1
G0 X-1.25
G1 X-0.9
G1 X-0.1S0
G1 X-0.1S400
G1 X-0.2S0
G1 X-0.1S400
G1 X-0.2S0
G1 X-0.1S400
G1 X-0.2S0
G1 X-0.1S400
G1 X-0.2S0
G1 X-0.1S400
G1 X-0.2S0
G1 X-0.1S400
G1 X-0.2S0
G1 X-0.1S400
G1 X-0.2S0
G1 X-0.2S400
G1 X-0.2S0
G1 X-0.1S400
G1 X-0.1S0
G1 X-0.2S400
G1 X-0.2S0
G1 X-0.1S400
G1 X-0.2S0
G1 X-0.1S400
G1 X-0.1S0
G1 X-0.1S400
G1 X-0.2S0
G1 X-0.1S400
G1 X-0.2S0
G1 X-0.1S400
G1 X-0.2S0
G1 X-0.1S400
G1 X-0.2S0
G1 X-0.1S400
G1 X-0.2S0
G1 X-0.1S400
G1 X-0.3S0
G1 X-0.1S400
G1 X-0.2S0
G1 X-0.1S400
G1 X-0.1S0
G1 X-0.1S400
G1 X-0.1S0
G1 X-0.2S400
G1 X-0.2S0
G1 X-0.1S400
G1 X-0.2S0
G1 X-0.2S400
G1 X-0.1S0
G1 X-0.2S400
G1 X-0.2S0
G1 X-0.1S400
G1 X-0.2S0
G1 X-0.1S400
G1 X-0.2S0
G1 X-0.1S400
G1 X-0.1S0
G1 X-0.2S400
G1 X-0.1S0
G1 X-0.1S400
G1 X-0.2S0
G1 X-0.2S400
G1 X-0.1S0
G1 X-0.2S400
G1 X-0.1S0
G1 X-0.2S400
G1 X-0.2S0
G1 X-0.1S400
G1 X-0.2S0
G1 X-0.1S400
G1 X-0.2S0
G1 X-0.1S400
G1 X-0.1S0
G1 X-0.7S400
G1 X-37.3F6000S0
G1 X-0.7F3000S400
G1 X-2.8F6000S0
G1 X-1.1F3000S400
G1 X-0.3S0
G1 X-0.1S400
G1 X-0.1S0
G1 X-0.1S400
G1 X-0.2S0
G1 X-0.1S400
G1 X-0.2S0
G1 X-0.1S400
G1 X-0.1S0
G1 X-0.2S400
G1 X-0.2S0
G1 X-0.1S400
G1 X-0.2S0
G1 X-0.1S400
G1 X-0.2S0
G1 X-0.2S400
G1 X-0.1S0
G1 X-0.1S400
G1 X-0.1S0
G1 X-0.1S400
G1 X-0.1S0
G1 X-0.1S400
G1 X-0.2S0
G1 X-0.1S400
G1 X-0.2S0
G1 X-0.1S400
G1 X-0.2S0
G1 X-0.1S400
G1 X-0.1S0
G1 X-0.1S400
G1 X-0.1S0
G1 X-0.1S400
G1 X-0.1S0
G1 X-0.1S400
G1 X-0.1S0
G1 X-0.1S400
G1 X-0.1S0
G1 X-0.8S400
G0 X-1.25
G0 Y0.1
G0 X1.25
G1 X0.8
G1 X0.2S0
G1 X0.1S400
G1 X0.1S0
G1 X0.1S400
G1 X0.1S0
G1 X0.1S400
G1 X0.2S0
G1 X0.1S400
G1 X0.1S0
G1 X0.2S400
G1 X0.2S0
G1 X0.2S400
G1 X0.2S0
G1 X0.1S400
G1 X0.3S0
G1 X0.1S400
G1 X0.2S0
G1 X0.1S400
G1 X0.1S0
G1 X0.1S400
G1 X0.2S0
G1 X0.1S400
G1 X0.2S0
G1 X0.1S400
G1 X0.2S0
G1 X0.1S400
G1 X0.2S0
G1 X0.1S400
G1 X0.2S0
G1 X0.1S400
G1 X0.1S0
G1 X0.2S400
G1 X0.1S0
G1 X0.1S400
G1 X0.2S0
G1 X1.1S400
G1 X2.6F6000S0
G1 X0.7F3000S400
G1 X37.3F6000S0
G1 X0.7F3000S400
G1 X0.1S0
G1 X0.2S400
G1 X0.1S0
G1 X0.1S400
G1 X0.2S0
G1 X0.1S400
G1 X0.2S0
G1 X0.1S400
G1 X0.2S0
G1 X0.1S400
G1 X0.3S0
G1 X0.1S400
G1 X0.1S0
G1 X0.1S400
G1 X0.2S0
G1 X0.1S400
G1 X0.2S0
G1 X0.1S400
G1 X0.1S0
G1 X0.2S400
G1 X0.2S0
G1 X0.1S400
G1 X0.2S0
G1 X0.1S400
G1 X0.3S0
G1 X0.1S400
G1 X0.1S0
G1 X0.1S400
G1 X0.1S0
G1 X0.1S400
G1 X0.2S0
G1 X0.1S400
G1 X0.2S0
G1 X0.1S400
G1 X0.1S0
G1 X0.2S400
G1 X0.1S0
G1 X0.1S400
G1 X0.1S0
G1 X0.1S400
G1 X0.2S0
G1 X0.1S400
G1 X0.1S0
G1 X0.2S400
G1 X0.1S0
G1 X0.2S400
G1 X0.1S0
G1 X0.2S400
G1 X0.1S0
G1 X0.1S400
G1 X0.1S0
G1 X0.1S400
G1 X0.2S0
G1 X0.2S400
G1 X0.2S0
G1 X0.1S400
G1 X0.1S0
G1 X0.1S400
G1 X0.1S0
G1 X0.1S400
G1 X0.2S0
G1 X0.1S400
G1 X0.2S0
G1 X0.1S400
G1 X0.2S0
G1 X0.1S400
G1 X0.2S0
G1 X0.1S400
G1 X0.1S0
G1 X0.1S400
G1 X0.1S0
G1 X0.2S400
G1 X0.1S0
G1 X0.1S400
G1 X0.1S0
G1 X0.1S400
G1 X0.2S0
G1 X0.1S400
G1 X0.2S0
G1 X0.9S400
G0 X1.25
G0 X-0.1Y0.1
G0 X-1.25
G1 X-0.9
G1 X-0.1S0
G1 X-0.1S400
G1 X-0.1S0
G1 X-0.1S400
G1 X-0.1S0
G1 X-0.1S400
G1 X-0.1S0
G1 X-0.1S400
G1 X-0.4S0
G1 X-0.1S400
G1 X-0.1S0
G1 X-0.1S400
G1 X-0.1S0
G1 X-0.2S400
G1 X-0.1S0
G1 X-0.2S400
G1 X-0.2S0
G1 X-0.2S400
G1 X-0.1S0
G1 X-0.1S400
G1 X-0.3S0
G1 X-0.1S400
G1 X-0.1S0
G1 X-0.1S400
G1 X-0.2S0
G1 X-0.1S400
G1 X-0.1S0
G1 X-0.1S400
G1 X-0.1S0
G1 X-0.1S400
G1 X-0.3S0
G1 X-0.1S400
G1 X-0.3S0
G1 X-0.1S400
G1 X-0.2S0
G1 X-0.1S400
G1 X-0.1S0
G1 X-0.2S400
G1 X-0.2S0
G1 X-0.1S400
G1 X-0.2S0
G1 X-0.1S400
G1 X-0.2S0
G1 X-0.1S400
G1 X-0.2S0
G1 X-0.1S400
G1 X-0.2S0
G1 X-0.1S400
G1 X-0.2S0
G1 X-0.1S400
G1 X-0.2S0
G1 X-0.1S400
G1 X-0.1S0
G1 X-0.2S400
G1 X-0.2S0
G1 X-0.1S400
G1 X-0.2S0
G1 X-0.1S400
G1 X-0.2S0
G1 X-0.1S400
G1 X-0.1S0
G1 X-0.1S400
G1 X-0.2S0
G1 X-0.1S400
G1 X-0.2S0
G1 X-0.1S400
G1 X-0.2S0
G1 X-0.1S400
G1 X-0.1S0
G1 X-0.1S400
G1 X-0.1S0
G1 X-0.2S400
G1 X-0.2S0
G1 X-0.1S400
G1 X-0.2S0
G1 X-0.7S400
G1 X-37.3F6000S0
G1 X-0.7F3000S400
G1 X-2.5F6000S0
G1 X-1.2F3000S400
G1 X-0.2S0
G1 X-0.1S400
G1 X-0.1S0
G1 X-0.1S400
G1 X-0.3S0
G1 X-0.2S400
G1 X-0.1S0
G1 X-0.2S400
G1 X-0.1S0
G1 X-0.1S400
G1 X-0.2S0
G1 X-0.2S400
G1 X-0.1S0
G1 X-0.2S400
G1 X-0.1S0
G1 X-0.1S400
G1 X-0.1S0
G1 X-0.1S400
G1 X-0.2S0
G1 X-0.2S400
G1 X-0.1S0
G1 X-0.1S400
G1 X-0.1S0
G1 X-0.1S400
G1 X-0.1S0
G1 X-0.1S400
G1 X-0.2S0
G1 X-0.1S400
G1 X-0.2S0
G1 X-0.1S400
G1 X-0.2S0
G1 X-0.1S400
G1 X-0.2S0
G1 X-0.1S400
G1 X-0.2S0
G1 X-0.8S400
G0 X-1.25
G0 Y0.1
G0 X1.25
G1 X0.8
G1 X0.1S0
G1 X0.1S400
G1 X0.2S0
G1 X0.1S400
G1 X0.1S0
G1 X0.2S400
G1 X0.2S0
G1 X0.1S400
G1 X0.1S0
